( Made using CamBam - http://www.cambam.co.uk )
( CircleSquare 12/31/2012 5:42:19 PM )
( T0 : 0.2 )
G21 G90 G64 G40
G0 Z3.0
( T0 : 0.2 )
T0 M6
( Profile1 )
G17
M3 S1000
G0 X9.0443 Y26.0
G1 F300.0 Z-0.4
G3 F800.0 X-4.5221 Y33.8326 I-9.0443 J0.0
G3 Y18.1674 I4.5221 J-7.8326
G3 X9.0443 Y26.0 I4.5221 J7.8326
G1 F300.0 Z-0.8
G3 F800.0 X-4.5221 Y33.8326 I-9.0443 J0.0
G3 Y18.1674 I4.5221 J-7.8326
G3 X9.0443 Y26.0 I4.5221 J7.8326
G1 F300.0 Z-1.2
G3 F800.0 X-4.5221 Y33.8326 I-9.0443 J0.0
G3 Y18.1674 I4.5221 J-7.8326
G3 X9.0443 Y26.0 I4.5221 J7.8326
G1 F300.0 Z-1.6
G3 F800.0 X-4.5221 Y33.8326 I-9.0443 J0.0
G3 Y18.1674 I4.5221 J-7.8326
G3 X9.0443 Y26.0 I4.5221 J7.8326
G1 F300.0 Z-2.0
G3 F800.0 X-4.5221 Y33.8326 I-9.0443 J0.0
G3 Y18.1674 I4.5221 J-7.8326
G3 X9.0443 Y26.0 I4.5221 J7.8326
G0 Z3.0
G0 Y11.1
G1 F300.0 Z-0.4
G1 F800.0 X-20.0
G3 X-20.1 Y11.0 I0.0 J-0.1
G1 Y-12.0
G3 X-20.0 Y-12.1 I0.1 J0.0
G1 X18.0
G3 X18.1 Y-12.0 I0.0 J0.1
G1 Y11.0
G3 X18.0 Y11.1 I-0.1 J0.0
G1 X9.0443
G1 F300.0 Z-0.8
G1 F800.0 X-20.0
G3 X-20.1 Y11.0 I0.0 J-0.1
G1 Y-12.0
G3 X-20.0 Y-12.1 I0.1 J0.0
G1 X18.0
G3 X18.1 Y-12.0 I0.0 J0.1
G1 Y11.0
G3 X18.0 Y11.1 I-0.1 J0.0
G1 X9.0443
G1 F300.0 Z-1.2
G1 F800.0 X-20.0
G3 X-20.1 Y11.0 I0.0 J-0.1
G1 Y-12.0
G3 X-20.0 Y-12.1 I0.1 J0.0
G1 X18.0
G3 X18.1 Y-12.0 I0.0 J0.1
G1 Y11.0
G3 X18.0 Y11.1 I-0.1 J0.0
G1 X9.0443
G1 F300.0 Z-1.6
G1 F800.0 X-20.0
G3 X-20.1 Y11.0 I0.0 J-0.1
G1 Y-12.0
G3 X-20.0 Y-12.1 I0.1 J0.0
G1 X18.0
G3 X18.1 Y-12.0 I0.0 J0.1
G1 Y11.0
G3 X18.0 Y11.1 I-0.1 J0.0
G1 X9.0443
G1 F300.0 Z-2.0
G1 F800.0 X-20.0
G3 X-20.1 Y11.0 I0.0 J-0.1
G1 Y-12.0
G3 X-20.0 Y-12.1 I0.1 J0.0
G1 X18.0
G3 X18.1 Y-12.0 I0.0 J0.1
G1 Y11.0
G3 X18.0 Y11.1 I-0.1 J0.0
G1 X9.0443
G0 Z3.0
G0 X2.1381 Y-20.2836
G1 F300.0 Z-0.4
G3 F800.0 X-4.9744 Y-21.384 I-2.1381 J-9.7164
G3 Y-38.616 I4.9744 J-8.616
G3 X9.9489 Y-30.0 I4.9744 J8.616
G3 X2.1381 Y-20.2836 I-9.9489 J0.0
G1 F300.0 Z-0.8
G3 F800.0 X-4.9744 Y-21.384 I-2.1381 J-9.7164
G3 Y-38.616 I4.9744 J-8.616
G3 X9.9489 Y-30.0 I4.9744 J8.616
G3 X2.1381 Y-20.2836 I-9.9489 J0.0
G1 F300.0 Z-1.2
G3 F800.0 X-4.9744 Y-21.384 I-2.1381 J-9.7164
G3 Y-38.616 I4.9744 J-8.616
G3 X9.9489 Y-30.0 I4.9744 J8.616
G3 X2.1381 Y-20.2836 I-9.9489 J0.0
G1 F300.0 Z-1.6
G3 F800.0 X-4.9744 Y-21.384 I-2.1381 J-9.7164
G3 Y-38.616 I4.9744 J-8.616
G3 X9.9489 Y-30.0 I4.9744 J8.616
G3 X2.1381 Y-20.2836 I-9.9489 J0.0
G1 F300.0 Z-2.0
G3 F800.0 X-4.9744 Y-21.384 I-2.1381 J-9.7164
G3 Y-38.616 I4.9744 J-8.616
G3 X9.9489 Y-30.0 I4.9744 J8.616
G3 X2.1381 Y-20.2836 I-9.9489 J0.0
G0 Z3.0
M5
M30
