( Made using CamBam - http://www.cambam.co.uk )
( Test2D 12/31/2012 5:40:36 PM )
( T0 : 0.0 )
G21 G90 G64 G40
G0 Z3.0
( T0 : 0.0 )
T0 M6
( Engrave1 )
G17
M3 S1000
G0 X-15.0 Y-10.0
G1 F300.0 Z-0.4
G1 F800.0 X-14.99 Y-9.686
G1 X-14.961 Y-9.373
G1 X-14.911 Y-9.063
G1 X-14.843 Y-8.757
G1 X-14.755 Y-8.455
G1 X-14.649 Y-8.159
G1 X-14.524 Y-7.871
G1 X-14.382 Y-7.591
G1 X-14.222 Y-7.321
G1 X-14.045 Y-7.061
G1 X-13.853 Y-6.813
G1 X-13.645 Y-6.577
G1 X-13.423 Y-6.355
G1 X-13.187 Y-6.147
G1 X-12.939 Y-5.955
G1 X-12.679 Y-5.778
G1 X-12.409 Y-5.618
G1 X-12.129 Y-5.476
G1 X-11.841 Y-5.351
G1 X-11.545 Y-5.245
G1 X-11.243 Y-5.157
G1 X-10.937 Y-5.089
G1 X-10.627 Y-5.039
G1 X-10.314 Y-5.01
G1 X-10.0 Y-5.0
G1 X-9.686 Y-5.01
G1 X-9.373 Y-5.039
G1 X-9.063 Y-5.089
G1 X-8.757 Y-5.157
G1 X-8.455 Y-5.245
G1 X-8.159 Y-5.351
G1 X-7.871 Y-5.476
G1 X-7.591 Y-5.618
G1 X-7.321 Y-5.778
G1 X-7.061 Y-5.955
G1 X-6.813 Y-6.147
G1 X-6.577 Y-6.355
G1 X-6.355 Y-6.577
G1 X-6.147 Y-6.813
G1 X-5.955 Y-7.061
G1 X-5.778 Y-7.321
G1 X-5.618 Y-7.591
G1 X-5.476 Y-7.871
G1 X-5.351 Y-8.159
G1 X-5.245 Y-8.455
G1 X-5.157 Y-8.757
G1 X-5.089 Y-9.063
G1 X-5.039 Y-9.373
G1 X-5.01 Y-9.686
G1 X-5.0 Y-10.0
G1 X-5.01 Y-10.314
G1 X-5.039 Y-10.627
G1 X-5.089 Y-10.937
G1 X-5.157 Y-11.243
G1 X-5.245 Y-11.545
G1 X-5.351 Y-11.841
G1 X-5.476 Y-12.129
G1 X-5.618 Y-12.409
G1 X-5.778 Y-12.679
G1 X-5.955 Y-12.939
G1 X-6.147 Y-13.187
G1 X-6.355 Y-13.423
G1 X-6.577 Y-13.645
G1 X-6.813 Y-13.853
G1 X-7.061 Y-14.045
G1 X-7.321 Y-14.222
G1 X-7.591 Y-14.382
G1 X-7.871 Y-14.524
G1 X-8.159 Y-14.649
G1 X-8.455 Y-14.755
G1 X-8.757 Y-14.843
G1 X-9.063 Y-14.911
G1 X-9.373 Y-14.961
G1 X-9.686 Y-14.99
G1 X-10.0 Y-15.0
G1 X-10.314 Y-14.99
G1 X-10.627 Y-14.961
G1 X-10.937 Y-14.911
G1 X-11.243 Y-14.843
G1 X-11.545 Y-14.755
G1 X-11.841 Y-14.649
G1 X-12.129 Y-14.524
G1 X-12.409 Y-14.382
G1 X-12.679 Y-14.222
G1 X-12.939 Y-14.045
G1 X-13.187 Y-13.853
G1 X-13.423 Y-13.645
G1 X-13.645 Y-13.423
G1 X-13.853 Y-13.187
G1 X-14.045 Y-12.939
G1 X-14.222 Y-12.679
G1 X-14.382 Y-12.409
G1 X-14.524 Y-12.129
G1 X-14.649 Y-11.841
G1 X-14.755 Y-11.545
G1 X-14.843 Y-11.243
G1 X-14.911 Y-10.937
G1 X-14.961 Y-10.627
G1 X-14.99 Y-10.314
G1 X-15.0 Y-10.0
G0 Z3.0
G0 X-5.0 Y-5.0
G1 F300.0 Z-0.4
G1 F800.0 Y5.0
G1 X5.0
G1 Y-5.0
G1 X-5.0
G0 Z3.0
G0 X-8.455 Y5.245
G1 F300.0 Z-0.4
G1 F800.0 X-8.159 Y5.351
G1 X-7.871 Y5.476
G1 X-7.591 Y5.618
G1 X-7.321 Y5.778
G1 X-7.061 Y5.955
G1 X-6.813 Y6.147
G1 X-6.577 Y6.355
G1 X-6.355 Y6.577
G1 X-6.147 Y6.813
G1 X-5.955 Y7.061
G1 X-5.778 Y7.321
G1 X-5.618 Y7.591
G1 X-5.476 Y7.871
G1 X-5.351 Y8.159
G1 X-5.245 Y8.455
G1 X-5.157 Y8.757
G1 X-5.089 Y9.063
G1 X-5.039 Y9.373
G1 X-5.01 Y9.686
G1 X-5.0 Y10.0
G1 X-5.01 Y10.314
G1 X-5.039 Y10.627
G1 X-5.089 Y10.937
G1 X-5.157 Y11.243
G1 X-5.245 Y11.545
G1 X-5.351 Y11.841
G1 X-5.476 Y12.129
G1 X-5.618 Y12.409
G1 X-5.778 Y12.679
G1 X-5.955 Y12.939
G1 X-6.147 Y13.187
G1 X-6.355 Y13.423
G1 X-6.577 Y13.645
G1 X-6.813 Y13.853
G1 X-7.061 Y14.045
G1 X-7.321 Y14.222
G1 X-7.591 Y14.382
G1 X-7.871 Y14.524
G1 X-8.159 Y14.649
G1 X-8.455 Y14.755
G1 X-8.757 Y14.843
G1 X-9.063 Y14.911
G1 X-9.373 Y14.961
G1 X-9.686 Y14.99
G1 X-10.0 Y15.0
G1 X-10.314 Y14.99
G1 X-10.627 Y14.961
G1 X-10.937 Y14.911
G1 X-11.243 Y14.843
G1 X-11.545 Y14.755
G1 X-11.841 Y14.649
G1 X-12.129 Y14.524
G1 X-12.409 Y14.382
G1 X-12.679 Y14.222
G1 X-12.939 Y14.045
G1 X-13.187 Y13.853
G1 X-13.423 Y13.645
G1 X-13.645 Y13.423
G1 X-13.853 Y13.187
G1 X-14.045 Y12.939
G1 X-14.222 Y12.679
G1 X-14.382 Y12.409
G1 X-14.524 Y12.129
G1 X-14.649 Y11.841
G1 X-14.755 Y11.545
G1 X-14.843 Y11.243
G1 X-14.911 Y10.937
G1 X-14.961 Y10.627
G1 X-14.99 Y10.314
G1 X-15.0 Y10.0
G1 X-14.99 Y9.686
G1 X-14.961 Y9.373
G1 X-14.911 Y9.063
G1 X-14.843 Y8.757
G1 X-14.755 Y8.455
G1 X-14.649 Y8.159
G1 X-14.524 Y7.871
G1 X-14.382 Y7.591
G1 X-14.222 Y7.321
G1 X-14.045 Y7.061
G1 X-13.853 Y6.813
G1 X-13.645 Y6.577
G1 X-13.423 Y6.355
G1 X-13.187 Y6.147
G1 X-12.939 Y5.955
G1 X-12.679 Y5.778
G1 X-12.409 Y5.618
G1 X-12.129 Y5.476
G1 X-11.841 Y5.351
G1 X-11.545 Y5.245
G1 X-11.243 Y5.157
G1 X-10.937 Y5.089
G1 X-10.627 Y5.039
G1 X-10.314 Y5.01
G1 X-10.0 Y5.0
G1 X-9.686 Y5.01
G1 X-9.373 Y5.039
G1 X-9.063 Y5.089
G1 X-8.757 Y5.157
G1 X-8.455 Y5.245
G0 Z3.0
G0 X5.157 Y8.757
G1 F300.0 Z-0.4
G1 F800.0 X5.245 Y8.455
G1 X5.351 Y8.159
G1 X5.476 Y7.871
G1 X5.618 Y7.591
G1 X5.778 Y7.321
G1 X5.955 Y7.061
G1 X6.147 Y6.813
G1 X6.355 Y6.577
G1 X6.577 Y6.355
G1 X6.813 Y6.147
G1 X7.061 Y5.955
G1 X7.321 Y5.778
G1 X7.591 Y5.618
G1 X7.871 Y5.476
G1 X8.159 Y5.351
G1 X8.455 Y5.245
G1 X8.757 Y5.157
G1 X9.063 Y5.089
G1 X9.373 Y5.039
G1 X9.686 Y5.01
G1 X10.0 Y5.0
G1 X10.314 Y5.01
G1 X10.627 Y5.039
G1 X10.937 Y5.089
G1 X11.243 Y5.157
G1 X11.545 Y5.245
G1 X11.841 Y5.351
G1 X12.129 Y5.476
G1 X12.409 Y5.618
G1 X12.679 Y5.778
G1 X12.939 Y5.955
G1 X13.187 Y6.147
G1 X13.423 Y6.355
G1 X13.645 Y6.577
G1 X13.853 Y6.813
G1 X14.045 Y7.061
G1 X14.222 Y7.321
G1 X14.382 Y7.591
G1 X14.524 Y7.871
G1 X14.649 Y8.159
G1 X14.755 Y8.455
G1 X14.843 Y8.757
G1 X14.911 Y9.063
G1 X14.961 Y9.373
G1 X14.99 Y9.686
G1 X15.0 Y10.0
G1 X14.99 Y10.314
G1 X14.961 Y10.627
G1 X14.911 Y10.937
G1 X14.843 Y11.243
G1 X14.755 Y11.545
G1 X14.649 Y11.841
G1 X14.524 Y12.129
G1 X14.382 Y12.409
G1 X14.222 Y12.679
G1 X14.045 Y12.939
G1 X13.853 Y13.187
G1 X13.645 Y13.423
G1 X13.423 Y13.645
G1 X13.187 Y13.853
G1 X12.939 Y14.045
G1 X12.679 Y14.222
G1 X12.409 Y14.382
G1 X12.129 Y14.524
G1 X11.841 Y14.649
G1 X11.545 Y14.755
G1 X11.243 Y14.843
G1 X10.937 Y14.911
G1 X10.627 Y14.961
G1 X10.314 Y14.99
G1 X10.0 Y15.0
G1 X9.686 Y14.99
G1 X9.373 Y14.961
G1 X9.063 Y14.911
G1 X8.757 Y14.843
G1 X8.455 Y14.755
G1 X8.159 Y14.649
G1 X7.871 Y14.524
G1 X7.591 Y14.382
G1 X7.321 Y14.222
G1 X7.061 Y14.045
G1 X6.813 Y13.853
G1 X6.577 Y13.645
G1 X6.355 Y13.423
G1 X6.147 Y13.187
G1 X5.955 Y12.939
G1 X5.778 Y12.679
G1 X5.618 Y12.409
G1 X5.476 Y12.129
G1 X5.351 Y11.841
G1 X5.245 Y11.545
G1 X5.157 Y11.243
G1 X5.089 Y10.937
G1 X5.039 Y10.627
G1 X5.01 Y10.314
G1 X5.0 Y10.0
G1 X5.01 Y9.686
G1 X5.039 Y9.373
G1 X5.089 Y9.063
G1 X5.157 Y8.757
G0 Z3.0
G0 X8.757 Y-5.157
G1 F300.0 Z-0.4
G1 F800.0 X8.455 Y-5.245
G1 X8.159 Y-5.351
G1 X7.871 Y-5.476
G1 X7.591 Y-5.618
G1 X7.321 Y-5.778
G1 X7.061 Y-5.955
G1 X6.813 Y-6.147
G1 X6.577 Y-6.355
G1 X6.355 Y-6.577
G1 X6.147 Y-6.813
G1 X5.955 Y-7.061
G1 X5.778 Y-7.321
G1 X5.618 Y-7.591
G1 X5.476 Y-7.871
G1 X5.351 Y-8.159
G1 X5.245 Y-8.455
G1 X5.157 Y-8.757
G1 X5.089 Y-9.063
G1 X5.039 Y-9.373
G1 X5.01 Y-9.686
G1 X5.0 Y-10.0
G1 X5.01 Y-10.314
G1 X5.039 Y-10.627
G1 X5.089 Y-10.937
G1 X5.157 Y-11.243
G1 X5.245 Y-11.545
G1 X5.351 Y-11.841
G1 X5.476 Y-12.129
G1 X5.618 Y-12.409
G1 X5.778 Y-12.679
G1 X5.955 Y-12.939
G1 X6.147 Y-13.187
G1 X6.355 Y-13.423
G1 X6.577 Y-13.645
G1 X6.813 Y-13.853
G1 X7.061 Y-14.045
G1 X7.321 Y-14.222
G1 X7.591 Y-14.382
G1 X7.871 Y-14.524
G1 X8.159 Y-14.649
G1 X8.455 Y-14.755
G1 X8.757 Y-14.843
G1 X9.063 Y-14.911
G1 X9.373 Y-14.961
G1 X9.686 Y-14.99
G1 X10.0 Y-15.0
G1 X10.314 Y-14.99
G1 X10.627 Y-14.961
G1 X10.937 Y-14.911
G1 X11.243 Y-14.843
G1 X11.545 Y-14.755
G1 X11.841 Y-14.649
G1 X12.129 Y-14.524
G1 X12.409 Y-14.382
G1 X12.679 Y-14.222
G1 X12.939 Y-14.045
G1 X13.187 Y-13.853
G1 X13.423 Y-13.645
G1 X13.645 Y-13.423
G1 X13.853 Y-13.187
G1 X14.045 Y-12.939
G1 X14.222 Y-12.679
G1 X14.382 Y-12.409
G1 X14.524 Y-12.129
G1 X14.649 Y-11.841
G1 X14.755 Y-11.545
G1 X14.843 Y-11.243
G1 X14.911 Y-10.937
G1 X14.961 Y-10.627
G1 X14.99 Y-10.314
G1 X15.0 Y-10.0
G1 X14.99 Y-9.686
G1 X14.961 Y-9.373
G1 X14.911 Y-9.063
G1 X14.843 Y-8.757
G1 X14.755 Y-8.455
G1 X14.649 Y-8.159
G1 X14.524 Y-7.871
G1 X14.382 Y-7.591
G1 X14.222 Y-7.321
G1 X14.045 Y-7.061
G1 X13.853 Y-6.813
G1 X13.645 Y-6.577
G1 X13.423 Y-6.355
G1 X13.187 Y-6.147
G1 X12.939 Y-5.955
G1 X12.679 Y-5.778
G1 X12.409 Y-5.618
G1 X12.129 Y-5.476
G1 X11.841 Y-5.351
G1 X11.545 Y-5.245
G1 X11.243 Y-5.157
G1 X10.937 Y-5.089
G1 X10.627 Y-5.039
G1 X10.314 Y-5.01
G1 X10.0 Y-5.0
G1 X9.686 Y-5.01
G1 X9.373 Y-5.039
G1 X9.063 Y-5.089
G1 X8.757 Y-5.157
G0 Z3.0
M5
M30
