( Made using CamBam - http://www.cambam.co.uk )
( TestCircle 12/31/2012 5:39:33 PM )
( T0 : 0.0 )
G21 G90 G64 G40
G0 Z3.0
( T0 : 0.0 )
T0 M6
( Profile1 )
G17
M3 S1000
G0 X-5.0 Y0.0
G1 F300.0 Z0.0
G1 F800.0 X-4.99 Y0.314
G1 X-4.961 Y0.627
G1 X-4.911 Y0.937
G1 X-4.843 Y1.243
G1 X-4.755 Y1.545
G1 X-4.649 Y1.841
G1 X-4.524 Y2.129
G1 X-4.382 Y2.409
G1 X-4.222 Y2.679
G1 X-4.045 Y2.939
G1 X-3.853 Y3.187
G1 X-3.645 Y3.423
G1 X-3.423 Y3.645
G1 X-3.187 Y3.853
G1 X-2.939 Y4.045
G1 X-2.679 Y4.222
G1 X-2.409 Y4.382
G1 X-2.129 Y4.524
G1 X-1.841 Y4.649
G1 X-1.545 Y4.755
G1 X-1.243 Y4.843
G1 X-0.937 Y4.911
G1 X-0.627 Y4.961
G1 X-0.314 Y4.99
G1 X0.0 Y5.0
G1 X0.314 Y4.99
G1 X0.627 Y4.961
G1 X0.937 Y4.911
G1 X1.243 Y4.843
G1 X1.545 Y4.755
G1 X1.841 Y4.649
G1 X2.129 Y4.524
G1 X2.409 Y4.382
G1 X2.679 Y4.222
G1 X2.939 Y4.045
G1 X3.187 Y3.853
G1 X3.423 Y3.645
G1 X3.645 Y3.423
G1 X3.853 Y3.187
G1 X4.045 Y2.939
G1 X4.222 Y2.679
G1 X4.382 Y2.409
G1 X4.524 Y2.129
G1 X4.649 Y1.841
G1 X4.755 Y1.545
G1 X4.843 Y1.243
G1 X4.911 Y0.937
G1 X4.961 Y0.627
G1 X4.99 Y0.314
G1 X5.0 Y0.0
G1 X4.99 Y-0.314
G1 X4.961 Y-0.627
G1 X4.911 Y-0.937
G1 X4.843 Y-1.243
G1 X4.755 Y-1.545
G1 X4.649 Y-1.841
G1 X4.524 Y-2.129
G1 X4.382 Y-2.409
G1 X4.222 Y-2.679
G1 X4.045 Y-2.939
G1 X3.853 Y-3.187
G1 X3.645 Y-3.423
G1 X3.423 Y-3.645
G1 X3.187 Y-3.853
G1 X2.939 Y-4.045
G1 X2.679 Y-4.222
G1 X2.409 Y-4.382
G1 X2.129 Y-4.524
G1 X1.841 Y-4.649
G1 X1.545 Y-4.755
G1 X1.243 Y-4.843
G1 X0.937 Y-4.911
G1 X0.627 Y-4.961
G1 X0.314 Y-4.99
G1 X0.0 Y-5.0
G1 X-0.314 Y-4.99
G1 X-0.627 Y-4.961
G1 X-0.937 Y-4.911
G1 X-1.243 Y-4.843
G1 X-1.545 Y-4.755
G1 X-1.841 Y-4.649
G1 X-2.129 Y-4.524
G1 X-2.409 Y-4.382
G1 X-2.679 Y-4.222
G1 X-2.939 Y-4.045
G1 X-3.187 Y-3.853
G1 X-3.423 Y-3.645
G1 X-3.645 Y-3.423
G1 X-3.853 Y-3.187
G1 X-4.045 Y-2.939
G1 X-4.222 Y-2.679
G1 X-4.382 Y-2.409
G1 X-4.524 Y-2.129
G1 X-4.649 Y-1.841
G1 X-4.755 Y-1.545
G1 X-4.843 Y-1.243
G1 X-4.911 Y-0.937
G1 X-4.961 Y-0.627
G1 X-4.99 Y-0.314
G1 X-5.0 Y0.0
G0 Z3.0
M5
M30
