( Made using CamBam - http://www.cambam.co.uk )
( Test2D 12/31/2012 5:48:22 PM )
( T0 : 0.1 )
G21 G90 G64 G40
G0 Z3.0
( T0 : 0.1 )
T0 M6
( 3DSurface1 )
G17
M3 S1000
G0 X-10.0572 Y-15.06
G1 F300.0 Z1.7
G1 F800.0 X-9.96
G1 X-9.9428
G0 Z3.0
G0 X-10.2583 Y-15.02
G1 F300.0 Z1.7
G1 F800.0 X-10.14
G1 X-10.12 Z2.5
G1 X-9.88
G1 X-9.86 Z1.7
G1 X-9.76
G1 X-9.7417
G0 Z3.0
G0 X-10.4594 Y-14.98
G1 F300.0 Z1.7
G1 F800.0 X-10.34
G1 X-10.32 Z2.5
G1 X-9.68
G1 X-9.66 Z1.7
G1 X-9.56
G1 X-9.5406
G0 Z3.0
G0 X-10.6604 Y-14.94
G1 F300.0 Z1.7
G1 F800.0 X-10.54
G1 X-10.52 Z2.5
G1 X-9.48
G1 X-9.46 Z1.7
G1 X-9.34
G1 X-9.3395
G0 Z3.0
G0 X-10.8615 Y-14.9
G1 F300.0 Z1.7
G1 F800.0 X-10.74
G1 X-10.72 Z2.5
G1 X-9.28
G1 X-9.26 Z1.7
G1 X-9.14
G1 X-9.1385
G0 Z3.0
G0 X-11.0626 Y-14.86
G1 F300.0 Z1.7
G1 F800.0 X-10.94
G1 X-10.92 Z2.5
G1 X-9.08
G1 X-9.06 Z1.7
G1 X-8.94
G1 X-8.9374
G0 Z3.0
G0 X-11.2637 Y-14.82
G1 F300.0 Z1.7
G1 F800.0 X-11.14
G1 X-11.12 Z2.5
G1 X-8.88
G1 X-8.86 Z1.7
G1 X-8.74
G1 X-8.7363
G0 Z3.0
G0 X-11.4648 Y-14.78
G1 F300.0 Z1.7
G1 F800.0 X-11.34
G1 X-11.32 Z2.5
G1 X-8.68
G1 X-8.66 Z1.7
G1 X-8.54
G1 X-8.5352
G0 Z3.0
G0 X-11.6659 Y-14.74
G1 F300.0 Z1.7
G1 F800.0 X-11.54
G1 X-11.52 Z2.5
G1 X-8.48
G1 X-8.46 Z1.7
G1 X-8.34
G1 X-8.3341
G0 Z3.0
G0 X-11.867 Y-14.7
G1 F300.0 Z1.7
G1 F800.0 X-11.74
G1 X-11.72 Z2.5
G1 X-8.28
G1 X-8.26 Z1.7
G1 X-8.14
G1 X-8.133
G0 Z3.0
G0 X-11.9786 Y-14.66
G1 F300.0 Z1.7
G1 F800.0 X-11.94
G1 X-11.92 Z2.5
G1 X-8.08
G1 X-8.06 Z1.7
G1 X-8.04
G1 X-8.0213
G0 Z3.0
G0 X-12.0385 Y-14.62
G1 F300.0 Z1.7
G1 F800.0 X-12.0
G1 X-11.98 Z2.5
G1 X-8.02
G1 X-8.0 Z1.7
G1 X-7.98
G1 X-7.9615
G0 Z3.0
G0 X-12.0984 Y-14.58
G1 F300.0 Z1.7
G1 F800.0 X-12.06
G1 X-12.04 Z2.5
G1 X-7.96
G1 X-7.94 Z1.7
G1 X-7.92
G1 X-7.9016
G0 Z3.0
G0 X-12.1582 Y-14.54
G1 F300.0 Z1.7
G1 F800.0 X-12.12
G1 X-12.1 Z2.5
G1 X-7.9
G1 X-7.88 Z1.7
G1 X-7.86
G1 X-7.8418
G0 Z3.0
G0 X-12.2181 Y-14.5
G1 F300.0 Z1.7
G1 F800.0 X-12.18
G1 X-12.16 Z2.5
G1 X-7.84
G1 X-7.82 Z1.7
G1 X-7.8
G1 X-7.7819
G0 Z3.0
G0 X-12.2779 Y-14.46
G1 F300.0 Z1.7
G1 F800.0 X-12.24
G1 X-12.22 Z2.5
G1 X-7.78
G1 X-7.76 Z1.7
G1 X-7.74
G1 X-7.722
G0 Z3.0
G0 X-12.3378 Y-14.42
G1 F300.0 Z1.7
G1 F800.0 X-12.3
G1 X-12.28 Z2.5
G1 X-7.72
G1 X-7.7 Z1.7
G1 X-7.68
G1 X-7.6622
G0 Z3.0
G0 X-12.3977 Y-14.38
G1 F300.0 Z1.7
G1 F800.0 X-12.36
G1 X-12.34 Z2.5
G1 X-7.66
G1 X-7.64 Z1.7
G1 X-7.62
G1 X-7.6023
G0 Z3.0
G0 X-12.4575 Y-14.34
G1 F300.0 Z1.7
G1 F800.0 X-12.42
G1 X-12.4 Z2.5
G1 X-7.6
G1 X-7.58 Z1.7
G1 X-7.56
G1 X-7.5425
G0 Z3.0
G0 X-12.5174 Y-14.3
G1 F300.0 Z1.7
G1 F800.0 X-12.48
G1 X-12.46 Z2.5
G1 X-7.54
G1 X-7.52 Z1.7
G1 X-7.5
G1 X-7.4826
G0 Z3.0
G0 X-12.5772 Y-14.26
G1 F300.0 Z1.7
G1 F800.0 X-12.54
G1 X-12.52 Z2.5
G1 X-7.48
G1 X-7.46 Z1.7
G1 X-7.44
G1 X-7.4227
G0 Z3.0
G0 X-12.6371 Y-14.22
G1 F300.0 Z1.7
G1 F800.0 X-12.6
G1 X-12.58 Z2.5
G1 X-7.42
G1 X-7.4 Z1.7
G1 X-7.38
G1 X-7.3629
G0 Z3.0
G0 X-12.697 Y-14.18
G1 F300.0 Z1.7
G1 F800.0 X-12.66
G1 X-12.64 Z2.5
G1 X-7.36
G1 X-7.34 Z1.7
G1 X-7.32
G1 X-7.303
G0 Z3.0
G0 X-12.7568 Y-14.14
G1 F300.0 Z1.7
G1 F800.0 X-12.72
G1 X-12.7 Z2.5
G1 X-7.3
G1 X-7.28 Z1.7
G1 X-7.26
G1 X-7.2431
G0 Z3.0
G0 X-12.8167 Y-14.1
G1 F300.0 Z1.7
G1 F800.0 X-12.78
G1 X-12.76 Z2.5
G1 X-7.24
G1 X-7.22 Z1.7
G1 X-7.2
G1 X-7.1833
G0 Z3.0
G0 X-12.8766 Y-14.06
G1 F300.0 Z1.7
G1 F800.0 X-12.84
G1 X-12.82 Z2.5
G1 X-7.18
G1 X-7.16 Z1.7
G1 X-7.14
G1 X-7.1234
G0 Z3.0
G0 X-12.9364 Y-14.02
G1 F300.0 Z1.7
G1 F800.0 X-12.9
G1 X-12.88 Z2.5
G1 X-7.12
G1 X-7.1 Z1.7
G1 X-7.08
G1 X-7.0636
G0 Z3.0
G0 X-12.9963 Y-13.98
G1 F300.0 Z1.7
G1 F800.0 X-12.96
G1 X-12.94 Z2.5
G1 X-7.06
G1 X-7.04 Z1.7
G1 X-7.02
G1 X-7.0037
G0 Z3.0
G0 X-13.0561 Y-13.94
G1 F300.0 Z1.7
G1 F800.0 X-13.02
G1 X-13.0 Z2.5
G1 X-7.0
G1 X-6.98 Z1.7
G1 X-6.96
G1 X-6.9438
G0 Z3.0
G0 X-13.116 Y-13.9
G1 F300.0 Z1.7
G1 F800.0 X-13.08
G1 X-13.06 Z2.5
G1 X-6.94
G1 X-6.92 Z1.7
G1 X-6.9
G1 X-6.884
G0 Z3.0
G0 X-13.1759 Y-13.86
G1 F300.0 Z1.7
G1 F800.0 X-13.14
G1 X-13.12 Z2.5
G1 X-6.88
G1 X-6.86 Z1.7
G1 X-6.84
G1 X-6.8241
G0 Z3.0
G0 X-13.2357 Y-13.82
G1 F300.0 Z1.7
G1 F800.0 X-13.2
G1 X-13.18 Z2.5
G1 X-6.82
G1 X-6.8 Z1.7
G1 X-6.78
G1 X-6.7642
G0 Z3.0
G0 X-13.2956 Y-13.78
G1 F300.0 Z1.7
G1 F800.0 X-13.26
G1 X-13.24 Z2.5
G1 X-6.76
G1 X-6.74 Z1.7
G1 X-6.72
G1 X-6.7044
G0 Z3.0
G0 X-13.3555 Y-13.74
G1 F300.0 Z1.7
G1 F800.0 X-13.32
G1 X-13.3 Z2.5
G1 X-6.7
G1 X-6.68 Z1.7
G1 X-6.66
G1 X-6.6445
G0 Z3.0
G0 X-13.4153 Y-13.7
G1 F300.0 Z1.7
G1 F800.0 X-13.38
G1 X-13.36 Z2.5
G1 X-6.64
G1 X-6.62 Z1.7
G1 X-6.6
G1 X-6.5847
G0 Z3.0
G0 X-13.4752 Y-13.66
G1 F300.0 Z1.7
G1 F800.0 X-13.44
G1 X-13.42 Z2.5
G1 X-6.58
G1 X-6.56 Z1.7
G1 X-6.54
G1 X-6.5248
G0 Z3.0
G0 X-13.535 Y-13.62
G1 F300.0 Z1.7
G1 F800.0 X-13.5
G1 X-13.48 Z2.5
G1 X-6.52
G1 X-6.5 Z1.7
G1 X-6.48
G1 X-6.4649
G0 Z3.0
G0 X-13.5895 Y-13.58
G1 F300.0 Z1.7
G1 F800.0 X-13.56
G1 X-13.54 Z2.5
G1 X-6.46
G1 X-6.44 Z1.7
G1 X-6.42
G1 X-6.4104
G0 Z3.0
G0 X-13.6167 Y-13.54
G1 F300.0 Z1.7
G1 F800.0 X-13.58
G1 X-13.56 Z2.5
G1 X-6.44
G1 X-6.42 Z1.7
G1 X-6.4
G1 X-6.3833
G0 Z3.0
G0 X-13.6434 Y-13.5
G1 F300.0 Z1.7
G1 F800.0 X-13.62
G1 X-13.6 Z2.5
G1 X-6.4
G1 X-6.38 Z1.7
G1 X-6.36
G1 X-6.3566
G0 Z3.0
G0 X-13.6701 Y-13.46
G1 F300.0 Z1.7
G1 F800.0 X-13.64
G1 X-13.62 Z2.5
G1 X-6.38
G1 X-6.36 Z1.7
G1 X-6.34
G1 X-6.3298
G0 Z3.0
G0 X-13.6969 Y-13.42
G1 F300.0 Z1.7
G1 F800.0 X-13.66
G1 X-13.64 Z2.5
G1 X-6.36
G1 X-6.34 Z1.7
G1 X-6.32
G1 X-6.3031
G0 Z3.0
G0 X-13.7236 Y-13.38
G1 F300.0 Z1.7
G1 F800.0 X-13.7
G1 X-13.68 Z2.5
G1 X-6.32
G1 X-6.3 Z1.7
G1 X-6.28
G1 X-6.2764
G0 Z3.0
G0 X-13.7503 Y-13.34
G1 F300.0 Z1.7
G1 F800.0 X-13.72
G1 X-13.7 Z2.5
G1 X-6.3
G1 X-6.28 Z1.7
G1 X-6.26
G1 X-6.2497
G0 Z3.0
G0 X-13.7771 Y-13.3
G1 F300.0 Z1.7
G1 F800.0 X-13.74
G1 X-13.72 Z2.5
G1 X-6.28
G1 X-6.26 Z1.7
G1 X-6.24
G1 X-6.2229
G0 Z3.0
G0 X-13.8038 Y-13.26
G1 F300.0 Z1.7
G1 F800.0 X-13.78
G1 X-13.76 Z2.5
G1 X-6.24
G1 X-6.22 Z1.7
G1 X-6.2
G1 X-6.1962
G0 Z3.0
G0 X-13.8305 Y-13.22
G1 F300.0 Z1.7
G1 F800.0 X-13.8
G1 X-13.78 Z2.5
G1 X-6.22
G1 X-6.2 Z1.7
G1 X-6.18
G1 X-6.1695
G0 Z3.0
G0 X-13.8572 Y-13.18
G1 F300.0 Z1.7
G1 F800.0 X-13.82
G1 X-13.8 Z2.5
G1 X-6.2
G1 X-6.18 Z1.7
G1 X-6.16
G1 X-6.1427
G0 Z3.0
G0 X-13.884 Y-13.14
G1 F300.0 Z1.7
G1 F800.0 X-13.86
G1 X-13.84 Z2.5
G1 X-6.16
G1 X-6.14 Z1.7
G1 X-6.12
G1 X-6.116
G0 Z3.0
G0 X-13.9107 Y-13.1
G1 F300.0 Z1.7
G1 F800.0 X-13.88
G1 X-13.86 Z2.5
G1 X-6.14
G1 X-6.12 Z1.7
G1 X-6.1
G1 X-6.0893
G0 Z3.0
G0 X-13.9374 Y-13.06
G1 F300.0 Z1.7
G1 F800.0 X-13.9
G1 X-13.88 Z2.5
G1 X-6.12
G1 X-6.1 Z1.7
G1 X-6.08
G1 X-6.0626
G0 Z3.0
G0 X-13.9642 Y-13.02
G1 F300.0 Z1.7
G1 F800.0 X-13.94
G1 X-13.92 Z2.5
G1 X-6.08
G1 X-6.06 Z1.7
G1 X-6.04
G1 X-6.0358
G0 Z3.0
G0 X-13.9909 Y-12.98
G1 F300.0 Z1.7
G1 F800.0 X-13.96
G1 X-13.94 Z2.5
G1 X-6.06
G1 X-6.04 Z1.7
G1 X-6.02
G1 X-6.0091
G0 Z3.0
G0 X-5.0361 Y-5.06
G1 F300.0 Z1.7
G1 F800.0 X5.02
G1 X5.0361
G0 Z3.0
G0 X-5.0671 Y-5.02
G1 F300.0 Z1.7
G1 F800.0 X-5.04
G1 X-5.02 Z2.5
G1 X5.0
G1 X5.02 Z1.7
G1 X5.06
G1 X5.0671
G0 Z3.0
G0 X-5.07 Y-4.98
G1 F300.0 Z1.7
G1 F800.0 X-5.06
G1 X-5.04 Z2.5
G1 X5.02
G1 X5.04 Z1.7
G1 X5.06
G1 X5.07
G0 Z3.0
G0 X-5.07 Y-4.94
G1 F300.0 Z1.7
G1 F800.0 X-5.06
G1 X-5.04 Z2.5
G1 X5.02
G1 X5.04 Z1.7
G1 X5.06
G1 X5.07
G0 Z3.0
G0 X-5.07 Y-4.9
G1 F300.0 Z1.7
G1 F800.0 X-5.06
G1 X-5.04 Z2.5
G1 X5.02
G1 X5.04 Z1.7
G1 X5.06
G1 X5.07
G0 Z3.0
G0 X-5.07 Y-4.86
G1 F300.0 Z1.7
G1 F800.0 X-5.06
G1 X-5.04 Z2.5
G1 X5.02
G1 X5.04 Z1.7
G1 X5.06
G1 X5.07
G0 Z3.0
G0 X-5.07 Y-4.82
G1 F300.0 Z1.7
G1 F800.0 X-5.06
G1 X-5.04 Z2.5
G1 X5.02
G1 X5.04 Z1.7
G1 X5.06
G1 X5.07
G0 Z3.0
G0 X-5.07 Y-4.78
G1 F300.0 Z1.7
G1 F800.0 X-5.06
G1 X-5.04 Z2.5
G1 X5.02
G1 X5.04 Z1.7
G1 X5.06
G1 X5.07
G0 Z3.0
G0 X-5.07 Y-4.74
G1 F300.0 Z1.7
G1 F800.0 X-5.06
G1 X-5.04 Z2.5
G1 X5.02
G1 X5.04 Z1.7
G1 X5.06
G1 X5.07
G0 Z3.0
G0 X-5.07 Y-4.7
G1 F300.0 Z1.7
G1 F800.0 X-5.06
G1 X-5.04 Z2.5
G1 X5.02
G1 X5.04 Z1.7
G1 X5.06
G1 X5.07
G0 Z3.0
G0 X-5.07 Y-4.66
G1 F300.0 Z1.7
G1 F800.0 X-5.06
G1 X-5.04 Z2.5
G1 X5.02
G1 X5.04 Z1.7
G1 X5.06
G1 X5.07
G0 Z3.0
G0 X-5.07 Y-4.62
G1 F300.0 Z1.7
G1 F800.0 X-5.06
G1 X-5.04 Z2.5
G1 X5.02
G1 X5.04 Z1.7
G1 X5.06
G1 X5.07
G0 Z3.0
G0 X-5.07 Y-4.58
G1 F300.0 Z1.7
G1 F800.0 X-5.06
G1 X-5.04 Z2.5
G1 X5.02
G1 X5.04 Z1.7
G1 X5.06
G1 X5.07
G0 Z3.0
G0 X-5.07 Y-4.54
G1 F300.0 Z1.7
G1 F800.0 X-5.06
G1 X-5.04 Z2.5
G1 X5.02
G1 X5.04 Z1.7
G1 X5.06
G1 X5.07
G0 Z3.0
G0 X-5.07 Y-4.5
G1 F300.0 Z1.7
G1 F800.0 X-5.06
G1 X-5.04 Z2.5
G1 X5.02
G1 X5.04 Z1.7
G1 X5.06
G1 X5.07
G0 Z3.0
G0 X-5.07 Y-4.46
G1 F300.0 Z1.7
G1 F800.0 X-5.06
G1 X-5.04 Z2.5
G1 X5.02
G1 X5.04 Z1.7
G1 X5.06
G1 X5.07
G0 Z3.0
G0 X-5.07 Y-4.42
G1 F300.0 Z1.7
G1 F800.0 X-5.06
G1 X-5.04 Z2.5
G1 X5.02
G1 X5.04 Z1.7
G1 X5.06
G1 X5.07
G0 Z3.0
G0 X-5.07 Y-4.38
G1 F300.0 Z1.7
G1 F800.0 X-5.06
G1 X-5.04 Z2.5
G1 X5.02
G1 X5.04 Z1.7
G1 X5.06
G1 X5.07
G0 Z3.0
G0 X-5.07 Y-4.34
G1 F300.0 Z1.7
G1 F800.0 X-5.06
G1 X-5.04 Z2.5
G1 X5.02
G1 X5.04 Z1.7
G1 X5.06
G1 X5.07
G0 Z3.0
G0 X-5.07 Y-4.3
G1 F300.0 Z1.7
G1 F800.0 X-5.06
G1 X-5.04 Z2.5
G1 X5.02
G1 X5.04 Z1.7
G1 X5.06
G1 X5.07
G0 Z3.0
G0 X-5.07 Y-4.26
G1 F300.0 Z1.7
G1 F800.0 X-5.06
G1 X-5.04 Z2.5
G1 X5.02
G1 X5.04 Z1.7
G1 X5.06
G1 X5.07
G0 Z3.0
G0 X-5.07 Y-4.22
G1 F300.0 Z1.7
G1 F800.0 X-5.06
G1 X-5.04 Z2.5
G1 X5.02
G1 X5.04 Z1.7
G1 X5.06
G1 X5.07
G0 Z3.0
G0 X-5.07 Y-4.18
G1 F300.0 Z1.7
G1 F800.0 X-5.06
G1 X-5.04 Z2.5
G1 X5.02
G1 X5.04 Z1.7
G1 X5.06
G1 X5.07
G0 Z3.0
G0 X-5.07 Y-4.14
G1 F300.0 Z1.7
G1 F800.0 X-5.06
G1 X-5.04 Z2.5
G1 X5.02
G1 X5.04 Z1.7
G1 X5.06
G1 X5.07
G0 Z3.0
G0 X-5.07 Y-4.1
G1 F300.0 Z1.7
G1 F800.0 X-5.06
G1 X-5.04 Z2.5
G1 X5.02
G1 X5.04 Z1.7
G1 X5.06
G1 X5.07
G0 Z3.0
G0 X-5.07 Y-4.06
G1 F300.0 Z1.7
G1 F800.0 X-5.06
G1 X-5.04 Z2.5
G1 X5.02
G1 X5.04 Z1.7
G1 X5.06
G1 X5.07
G0 Z3.0
G0 X-5.07 Y-4.02
G1 F300.0 Z1.7
G1 F800.0 X-5.06
G1 X-5.04 Z2.5
G1 X5.02
G1 X5.04 Z1.7
G1 X5.06
G1 X5.07
G0 Z3.0
G0 X-5.07 Y-3.98
G1 F300.0 Z1.7
G1 F800.0 X-5.06
G1 X-5.04 Z2.5
G1 X5.02
G1 X5.04 Z1.7
G1 X5.06
G1 X5.07
G0 Z3.0
G0 X-5.07 Y-3.94
G1 F300.0 Z1.7
G1 F800.0 X-5.06
G1 X-5.04 Z2.5
G1 X5.02
G1 X5.04 Z1.7
G1 X5.06
G1 X5.07
G0 Z3.0
G0 X9.9428 Y4.94
G1 F300.0 Z1.7
G1 F800.0 X10.04
G1 X10.0572
G0 Z3.0
G0 X9.7417 Y4.98
G1 F300.0 Z1.7
G1 F800.0 X9.86
G1 X9.88 Z2.5
G1 X10.12
G1 X10.14 Z1.7
G1 X10.24
G1 X10.2583
G0 Z3.0
G0 X9.5406 Y5.02
G1 F300.0 Z1.7
G1 F800.0 X9.66
G1 X9.68 Z2.5
G1 X10.32
G1 X10.34 Z1.7
G1 X10.44
G1 X10.4594
G0 Z3.0
G0 X9.3395 Y5.06
G1 F300.0 Z1.7
G1 F800.0 X9.46
G1 X9.48 Z2.5
G1 X10.52
G1 X10.54 Z1.7
G1 X10.66
G1 X10.6604
G0 Z3.0
G0 X9.1385 Y5.1
G1 F300.0 Z1.7
G1 F800.0 X9.26
G1 X9.28 Z2.5
G1 X10.72
G1 X10.74 Z1.7
G1 X10.86
G1 X10.8615
G0 Z3.0
G0 X8.9374 Y5.14
G1 F300.0 Z1.7
G1 F800.0 X9.06
G1 X9.08 Z2.5
G1 X10.92
G1 X10.94 Z1.7
G1 X11.06
G1 X11.0626
G0 Z3.0
G0 X8.7363 Y5.18
G1 F300.0 Z1.7
G1 F800.0 X8.86
G1 X8.88 Z2.5
G1 X11.12
G1 X11.14 Z1.7
G1 X11.26
G1 X11.2637
G0 Z3.0
G0 X8.5352 Y5.22
G1 F300.0 Z1.7
G1 F800.0 X8.66
G1 X8.68 Z2.5
G1 X11.32
G1 X11.34 Z1.7
G1 X11.46
G1 X11.4648
G0 Z3.0
G0 X8.3341 Y5.26
G1 F300.0 Z1.7
G1 F800.0 X8.46
G1 X8.48 Z2.5
G1 X11.52
G1 X11.54 Z1.7
G1 X11.66
G1 X11.6659
G0 Z3.0
G0 X8.133 Y5.3
G1 F300.0 Z1.7
G1 F800.0 X8.26
G1 X8.28 Z2.5
G1 X11.72
G1 X11.74 Z1.7
G1 X11.86
G1 X11.867
G0 Z3.0
G0 X8.0213 Y5.34
G1 F300.0 Z1.7
G1 F800.0 X8.06
G1 X8.08 Z2.5
G1 X11.92
G1 X11.94 Z1.7
G1 X11.96
G1 X11.9786
G0 Z3.0
G0 X7.9615 Y5.38
G1 F300.0 Z1.7
G1 F800.0 X8.0
G1 X8.02 Z2.5
G1 X11.98
G1 X12.0 Z1.7
G1 X12.02
G1 X12.0385
G0 Z3.0
G0 X7.9016 Y5.42
G1 F300.0 Z1.7
G1 F800.0 X7.94
G1 X7.96 Z2.5
G1 X12.04
G1 X12.06 Z1.7
G1 X12.08
G1 X12.0984
G0 Z3.0
G0 X7.8418 Y5.46
G1 F300.0 Z1.7
G1 F800.0 X7.88
G1 X7.9 Z2.5
G1 X12.1
G1 X12.12 Z1.7
G1 X12.14
G1 X12.1582
G0 Z3.0
G0 X7.7819 Y5.5
G1 F300.0 Z1.7
G1 F800.0 X7.82
G1 X7.84 Z2.5
G1 X12.16
G1 X12.18 Z1.7
G1 X12.2
G1 X12.2181
G0 Z3.0
G0 X7.722 Y5.54
G1 F300.0 Z1.7
G1 F800.0 X7.76
G1 X7.78 Z2.5
G1 X12.22
G1 X12.24 Z1.7
G1 X12.26
G1 X12.278
G0 Z3.0
G0 X7.6622 Y5.58
G1 F300.0 Z1.7
G1 F800.0 X7.7
G1 X7.72 Z2.5
G1 X12.28
G1 X12.3 Z1.7
G1 X12.32
G1 X12.3378
G0 Z3.0
G0 X7.6023 Y5.62
G1 F300.0 Z1.7
G1 F800.0 X7.64
G1 X7.66 Z2.5
G1 X12.34
G1 X12.36 Z1.7
G1 X12.38
G1 X12.3977
G0 Z3.0
G0 X7.5424 Y5.66
G1 F300.0 Z1.7
G1 F800.0 X7.58
G1 X7.6 Z2.5
G1 X12.4
G1 X12.42 Z1.7
G1 X12.44
G1 X12.4575
G0 Z3.0
G0 X7.4826 Y5.7
G1 F300.0 Z1.7
G1 F800.0 X7.52
G1 X7.54 Z2.5
G1 X12.46
G1 X12.48 Z1.7
G1 X12.5
G1 X12.5174
G0 Z3.0
G0 X7.4227 Y5.74
G1 F300.0 Z1.7
G1 F800.0 X7.46
G1 X7.48 Z2.5
G1 X12.52
G1 X12.54 Z1.7
G1 X12.56
G1 X12.5773
G0 Z3.0
G0 X7.3628 Y5.78
G1 F300.0 Z1.7
G1 F800.0 X7.4
G1 X7.42 Z2.5
G1 X12.58
G1 X12.6 Z1.7
G1 X12.62
G1 X12.6371
G0 Z3.0
G0 X7.303 Y5.82
G1 F300.0 Z1.7
G1 F800.0 X7.34
G1 X7.36 Z2.5
G1 X12.64
G1 X12.66 Z1.7
G1 X12.68
G1 X12.697
G0 Z3.0
G0 X7.2431 Y5.86
G1 F300.0 Z1.7
G1 F800.0 X7.28
G1 X7.3 Z2.5
G1 X12.7
G1 X12.72 Z1.7
G1 X12.74
G1 X12.7569
G0 Z3.0
G0 X7.1833 Y5.9
G1 F300.0 Z1.7
G1 F800.0 X7.22
G1 X7.24 Z2.5
G1 X12.76
G1 X12.78 Z1.7
G1 X12.8
G1 X12.8167
G0 Z3.0
G0 X7.1234 Y5.94
G1 F300.0 Z1.7
G1 F800.0 X7.16
G1 X7.18 Z2.5
G1 X12.82
G1 X12.84 Z1.7
G1 X12.86
G1 X12.8766
G0 Z3.0
G0 X7.0635 Y5.98
G1 F300.0 Z1.7
G1 F800.0 X7.1
G1 X7.12 Z2.5
G1 X12.88
G1 X12.9 Z1.7
G1 X12.92
G1 X12.9364
G0 Z3.0
G0 X7.0037 Y6.02
G1 F300.0 Z1.7
G1 F800.0 X7.04
G1 X7.06 Z2.5
G1 X12.94
G1 X12.96 Z1.7
G1 X12.98
G1 X12.9963
G0 Z3.0
G0 X6.9438 Y6.06
G1 F300.0 Z1.7
G1 F800.0 X6.98
G1 X7.0 Z2.5
G1 X13.0
G1 X13.02 Z1.7
G1 X13.04
G1 X13.0562
G0 Z3.0
G0 X6.8839 Y6.1
G1 F300.0 Z1.7
G1 F800.0 X6.92
G1 X6.94 Z2.5
G1 X13.06
G1 X13.08 Z1.7
G1 X13.1
G1 X13.116
G0 Z3.0
G0 X6.8241 Y6.14
G1 F300.0 Z1.7
G1 F800.0 X6.86
G1 X6.88 Z2.5
G1 X13.12
G1 X13.14 Z1.7
G1 X13.16
G1 X13.1759
G0 Z3.0
G0 X6.7642 Y6.18
G1 F300.0 Z1.7
G1 F800.0 X6.8
G1 X6.82 Z2.5
G1 X13.18
G1 X13.2 Z1.7
G1 X13.22
G1 X13.2358
G0 Z3.0
G0 X6.7043 Y6.22
G1 F300.0 Z1.7
G1 F800.0 X6.74
G1 X6.76 Z2.5
G1 X13.24
G1 X13.26 Z1.7
G1 X13.28
G1 X13.2956
G0 Z3.0
G0 X6.6445 Y6.26
G1 F300.0 Z1.7
G1 F800.0 X6.68
G1 X6.7 Z2.5
G1 X13.3
G1 X13.32 Z1.7
G1 X13.34
G1 X13.3555
G0 Z3.0
G0 X6.5846 Y6.3
G1 F300.0 Z1.7
G1 F800.0 X6.62
G1 X6.64 Z2.5
G1 X13.36
G1 X13.38 Z1.7
G1 X13.4
G1 X13.4154
G0 Z3.0
G0 X6.5248 Y6.34
G1 F300.0 Z1.7
G1 F800.0 X6.56
G1 X6.58 Z2.5
G1 X13.42
G1 X13.44 Z1.7
G1 X13.46
G1 X13.4752
G0 Z3.0
G0 X6.4649 Y6.38
G1 F300.0 Z1.7
G1 F800.0 X6.5
G1 X6.52 Z2.5
G1 X13.48
G1 X13.5 Z1.7
G1 X13.52
G1 X13.5351
G0 Z3.0
G0 X6.4104 Y6.42
G1 F300.0 Z1.7
G1 F800.0 X6.44
G1 X6.46 Z2.5
G1 X13.54
G1 X13.56 Z1.7
G1 X13.58
G1 X13.5896
G0 Z3.0
G0 X6.3833 Y6.46
G1 F300.0 Z1.7
G1 F800.0 X6.42
G1 X6.44 Z2.5
G1 X13.56
G1 X13.58 Z1.7
G1 X13.6
G1 X13.6167
G0 Z3.0
G0 X6.3565 Y6.5
G1 F300.0 Z1.7
G1 F800.0 X6.38
G1 X6.4 Z2.5
G1 X13.6
G1 X13.62 Z1.7
G1 X13.64
G1 X13.6434
G0 Z3.0
G0 X6.3298 Y6.54
G1 F300.0 Z1.7
G1 F800.0 X6.36
G1 X6.38 Z2.5
G1 X13.62
G1 X13.64 Z1.7
G1 X13.66
G1 X13.6702
G0 Z3.0
G0 X6.3031 Y6.58
G1 F300.0 Z1.7
G1 F800.0 X6.34
G1 X6.36 Z2.5
G1 X13.64
G1 X13.66 Z1.7
G1 X13.68
G1 X13.6969
G0 Z3.0
G0 X6.2764 Y6.62
G1 F300.0 Z1.7
G1 F800.0 X6.3
G1 X6.32 Z2.5
G1 X13.68
G1 X13.7 Z1.7
G1 X13.72
G1 X13.7236
G0 Z3.0
G0 X6.2496 Y6.66
G1 F300.0 Z1.7
G1 F800.0 X6.28
G1 X6.3 Z2.5
G1 X13.7
G1 X13.72 Z1.7
G1 X13.74
G1 X13.7503
G0 Z3.0
G0 X6.2229 Y6.7
G1 F300.0 Z1.7
G1 F800.0 X6.26
G1 X6.28 Z2.5
G1 X13.72
G1 X13.74 Z1.7
G1 X13.76
G1 X13.7771
G0 Z3.0
G0 X6.1962 Y6.74
G1 F300.0 Z1.7
G1 F800.0 X6.22
G1 X6.24 Z2.5
G1 X13.76
G1 X13.78 Z1.7
G1 X13.8
G1 X13.8038
G0 Z3.0
G0 X6.1694 Y6.78
G1 F300.0 Z1.7
G1 F800.0 X6.2
G1 X6.22 Z2.5
G1 X13.78
G1 X13.8 Z1.7
G1 X13.82
G1 X13.8305
G0 Z3.0
G0 X6.1427 Y6.82
G1 F300.0 Z1.7
G1 F800.0 X6.18
G1 X6.2 Z2.5
G1 X13.8
G1 X13.82 Z1.7
G1 X13.84
G1 X13.8573
G0 Z3.0
G0 X6.116 Y6.86
G1 F300.0 Z1.7
G1 F800.0 X6.14
G1 X6.16 Z2.5
G1 X13.84
G1 X13.86 Z1.7
G1 X13.88
G1 X13.884
G0 Z3.0
G0 X6.0893 Y6.9
G1 F300.0 Z1.7
G1 F800.0 X6.12
G1 X6.14 Z2.5
G1 X13.86
G1 X13.88 Z1.7
G1 X13.9
G1 X13.9107
G0 Z3.0
G0 X6.0625 Y6.94
G1 F300.0 Z1.7
G1 F800.0 X6.1
G1 X6.12 Z2.5
G1 X13.88
G1 X13.9 Z1.7
G1 X13.92
G1 X13.9374
G0 Z3.0
G0 X6.0358 Y6.98
G1 F300.0 Z1.7
G1 F800.0 X6.06
G1 X6.08 Z2.5
G1 X13.92
G1 X13.94 Z1.7
G1 X13.96
G1 X13.9642
G0 Z3.0
G0 X6.0091 Y7.02
G1 F300.0 Z1.7
G1 F800.0 X6.04
G1 X6.06 Z2.5
G1 X13.94
G1 X13.96 Z1.7
G1 X13.98
G1 X13.9909
G0 Z3.0
G0 X5.9824 Y7.06
G1 F300.0 Z1.7
G1 F800.0 X6.0
G1 X6.02 Z2.5
G1 X13.98
G1 X14.0 Z1.7
G1 X14.0176
G0 Z3.0
G0 X5.9556 Y7.1
G1 F300.0 Z1.7
G1 F800.0 X5.98
G1 X6.0 Z2.5
G1 X14.0
G1 X14.02 Z1.7
G1 X14.04
G1 X14.0444
G0 Z3.0
G0 X5.9289 Y7.14
G1 F300.0 Z1.7
G1 F800.0 X5.96
G1 X5.98 Z2.5
G1 X14.02
G1 X14.04 Z1.7
G1 X14.06
G1 X14.0711
G0 Z3.0
G0 X5.9022 Y7.18
G1 F300.0 Z1.7
G1 F800.0 X5.92
G1 X5.94 Z2.5
G1 X14.06
G1 X14.08 Z1.7
G1 X14.0978
G0 Z3.0
G0 X5.8754 Y7.22
G1 F300.0 Z1.7
G1 F800.0 X5.9
G1 X5.92 Z2.5
G1 X14.08
G1 X14.1 Z1.7
G1 X14.12
G1 X14.1245
G0 Z3.0
G0 X5.8487 Y7.26
G1 F300.0 Z1.7
G1 F800.0 X5.88
G1 X5.9 Z2.5
G1 X14.1
G1 X14.12 Z1.7
G1 X14.14
G1 X14.1513
G0 Z3.0
G0 X5.822 Y7.3
G1 F300.0 Z1.7
G1 F800.0 X5.84
G1 X5.86 Z2.5
G1 X14.14
G1 X14.16 Z1.7
G1 X14.178
G0 Z3.0
G0 X5.7953 Y7.34
G1 F300.0 Z1.7
G1 F800.0 X5.82
G1 X5.84 Z2.5
G1 X14.16
G1 X14.18 Z1.7
G1 X14.2
G1 X14.2047
G0 Z3.0
G0 X5.7685 Y7.38
G1 F300.0 Z1.7
G1 F800.0 X5.8
G1 X5.82 Z2.5
G1 X14.18
G1 X14.2 Z1.7
G1 X14.22
G1 X14.2314
G0 Z3.0
G0 X5.7418 Y7.42
G1 F300.0 Z1.7
G1 F800.0 X5.76
G1 X5.78 Z2.5
G1 X14.22
G1 X14.24 Z1.7
G1 X14.2582
G0 Z3.0
G0 X5.7151 Y7.46
G1 F300.0 Z1.7
G1 F800.0 X5.74
G1 X5.76 Z2.5
G1 X14.24
G1 X14.26 Z1.7
G1 X14.28
G1 X14.2849
G0 Z3.0
G0 X5.6884 Y7.5
G1 F300.0 Z1.7
G1 F800.0 X5.72
G1 X5.74 Z2.5
G1 X14.26
G1 X14.28 Z1.7
G1 X14.3
G1 X14.3116
G0 Z3.0
G0 X5.6616 Y7.54
G1 F300.0 Z1.7
G1 F800.0 X5.68
G1 X5.7 Z2.5
G1 X14.3
G1 X14.32 Z1.7
G1 X14.3384
G0 Z3.0
G0 X5.6349 Y7.58
G1 F300.0 Z1.7
G1 F800.0 X5.66
G1 X5.68 Z2.5
G1 X14.32
G1 X14.34 Z1.7
G1 X14.36
G1 X14.3651
G0 Z3.0
G0 X5.6082 Y7.62
G1 F300.0 Z1.7
G1 F800.0 X5.64
G1 X5.66 Z2.5
G1 X14.34
G1 X14.36 Z1.7
G1 X14.38
G1 X14.3918
G0 Z3.0
G0 X5.5814 Y7.66
G1 F300.0 Z1.7
G1 F800.0 X5.6
G1 X5.62 Z2.5
G1 X14.38
G1 X14.4 Z1.7
G1 X14.4185
G0 Z3.0
G0 X5.5547 Y7.7
G1 F300.0 Z1.7
G1 F800.0 X5.58
G1 X5.6 Z2.5
G1 X14.4
G1 X14.42 Z1.7
G1 X14.44
G1 X14.4453
G0 Z3.0
G0 X5.528 Y7.74
G1 F300.0 Z1.7
G1 F800.0 X5.56
G1 X5.58 Z2.5
G1 X14.42
G1 X14.44 Z1.7
G1 X14.46
G1 X14.472
G0 Z3.0
G0 X5.5013 Y7.78
G1 F300.0 Z1.7
G1 F800.0 X5.52
G1 X5.54 Z2.5
G1 X14.46
G1 X14.48 Z1.7
G1 X14.4987
G0 Z3.0
G0 X5.4745 Y7.82
G1 F300.0 Z1.7
G1 F800.0 X5.5
G1 X5.52 Z2.5
G1 X14.48
G1 X14.5 Z1.7
G1 X14.52
G1 X14.5255
G0 Z3.0
G0 X5.4478 Y7.86
G1 F300.0 Z1.7
G1 F800.0 X5.48
G1 X5.5 Z2.5
G1 X14.5
G1 X14.52 Z1.7
G1 X14.54
G1 X14.5522
G0 Z3.0
G0 X5.4211 Y7.9
G1 F300.0 Z1.7
G1 F800.0 X5.44
G1 X5.46 Z2.5
G1 X14.54
G1 X14.56 Z1.7
G1 X14.5789
G0 Z3.0
G0 X5.3944 Y7.94
G1 F300.0 Z1.7
G1 F800.0 X5.42
G1 X5.44 Z2.5
G1 X14.56
G1 X14.58 Z1.7
G1 X14.6
G1 X14.6056
G0 Z3.0
G0 X5.3676 Y7.98
G1 F300.0 Z1.7
G1 F800.0 X5.4
G1 X5.42 Z2.5
G1 X14.58
G1 X14.6 Z1.7
G1 X14.62
G1 X14.6324
G0 Z3.0
G0 X5.3409 Y8.02
G1 F300.0 Z1.7
G1 F800.0 X5.36
G1 X5.38 Z2.5
G1 X14.62
G1 X14.64 Z1.7
G1 X14.6591
G0 Z3.0
G0 X5.3158 Y8.06
G1 F300.0 Z1.7
G1 F800.0 X5.34
G1 X5.36 Z2.5
G1 X14.64
G1 X14.66 Z1.7
G1 X14.68
G1 X14.6842
G0 Z3.0
G0 X5.3066 Y8.1
G1 F300.0 Z1.7
G1 F800.0 X5.32
G1 X5.34 Z2.5
G1 X14.66
G1 X14.68 Z1.7
G1 X14.6934
G0 Z3.0
G0 X5.2986 Y8.14
G1 F300.0 Z1.7
G1 F800.0 X5.32
G1 X5.34 Z2.5
G1 X14.66
G1 X14.68 Z1.7
G1 X14.7
G1 X14.7014
G0 Z3.0
G0 X5.2906 Y8.18
G1 F300.0 Z1.7
G1 F800.0 X5.32
G1 X5.34 Z2.5
G1 X14.66
G1 X14.68 Z1.7
G1 X14.7
G1 X14.7094
G0 Z3.0
G0 X5.2827 Y8.22
G1 F300.0 Z1.7
G1 F800.0 X5.3
G1 X5.32 Z2.5
G1 X14.68
G1 X14.7 Z1.7
G1 X14.7173
G0 Z3.0
G0 X5.2747 Y8.26
G1 F300.0 Z1.7
G1 F800.0 X5.3
G1 X5.32 Z2.5
G1 X14.68
G1 X14.7 Z1.7
G1 X14.72
G1 X14.7253
G0 Z3.0
G0 X5.2668 Y8.3
G1 F300.0 Z1.7
G1 F800.0 X5.28
G1 X5.3 Z2.5
G1 X14.7
G1 X14.72 Z1.7
G1 X14.7332
G0 Z3.0
G0 X5.2588 Y8.34
G1 F300.0 Z1.7
G1 F800.0 X5.28
G1 X5.3 Z2.5
G1 X14.7
G1 X14.72 Z1.7
G1 X14.74
G1 X14.7412
G0 Z3.0
G0 X5.2509 Y8.38
G1 F300.0 Z1.7
G1 F800.0 X5.28
G1 X5.3 Z2.5
G1 X14.7
G1 X14.72 Z1.7
G1 X14.74
G1 X14.7491
G0 Z3.0
G0 X5.2429 Y8.42
G1 F300.0 Z1.7
G1 F800.0 X5.26
G1 X5.28 Z2.5
G1 X14.72
G1 X14.74 Z1.7
G1 X14.7571
G0 Z3.0
G0 X5.235 Y8.46
G1 F300.0 Z1.7
G1 F800.0 X5.26
G1 X5.28 Z2.5
G1 X14.72
G1 X14.74 Z1.7
G1 X14.76
G1 X14.765
G0 Z3.0
G0 X5.227 Y8.5
G1 F300.0 Z1.7
G1 F800.0 X5.24
G1 X5.26 Z2.5
G1 X14.74
G1 X14.76 Z1.7
G1 X14.773
G0 Z3.0
G0 X5.219 Y8.54
G1 F300.0 Z1.7
G1 F800.0 X5.24
G1 X5.26 Z2.5
G1 X14.74
G1 X14.76 Z1.7
G1 X14.78
G1 X14.781
G0 Z3.0
G0 X5.2111 Y8.58
G1 F300.0 Z1.7
G1 F800.0 X5.24
G1 X5.26 Z2.5
G1 X14.74
G1 X14.76 Z1.7
G1 X14.78
G1 X14.7889
G0 Z3.0
G0 X5.2031 Y8.62
G1 F300.0 Z1.7
G1 F800.0 X5.22
G1 X5.24 Z2.5
G1 X14.76
G1 X14.78 Z1.7
G1 X14.7969
G0 Z3.0
G0 X5.1952 Y8.66
G1 F300.0 Z1.7
G1 F800.0 X5.22
G1 X5.24 Z2.5
G1 X14.76
G1 X14.78 Z1.7
G1 X14.8
G1 X14.8048
G0 Z3.0
G0 X5.1872 Y8.7
G1 F300.0 Z1.7
G1 F800.0 X5.2
G1 X5.22 Z2.5
G1 X14.78
G1 X14.8 Z1.7
G1 X14.8128
G0 Z3.0
G0 X5.1793 Y8.74
G1 F300.0 Z1.7
G1 F800.0 X5.2
G1 X5.22 Z2.5
G1 X14.78
G1 X14.8 Z1.7
G1 X14.82
G1 X14.8207
G0 Z3.0
G0 X5.1713 Y8.78
G1 F300.0 Z1.7
G1 F800.0 X5.2
G1 X5.22 Z2.5
G1 X14.78
G1 X14.8 Z1.7
G1 X14.82
G1 X14.8287
G0 Z3.0
G0 X5.1633 Y8.82
G1 F300.0 Z1.7
G1 F800.0 X5.18
G1 X5.2 Z2.5
G1 X14.8
G1 X14.82 Z1.7
G1 X14.8367
G0 Z3.0
G0 X5.1554 Y8.86
G1 F300.0 Z1.7
G1 F800.0 X5.18
G1 X5.2 Z2.5
G1 X14.8
G1 X14.82 Z1.7
G1 X14.84
G1 X14.8446
G0 Z3.0
G0 X5.1474 Y8.9
G1 F300.0 Z1.7
G1 F800.0 X5.16
G1 X5.18 Z2.5
G1 X14.82
G1 X14.84 Z1.7
G1 X14.8526
G0 Z3.0
G0 X5.1395 Y8.94
G1 F300.0 Z1.7
G1 F800.0 X5.16
G1 X5.18 Z2.5
G1 X14.82
G1 X14.84 Z1.7
G1 X14.86
G1 X14.8605
G0 Z3.0
G0 X5.1315 Y8.98
G1 F300.0 Z1.7
G1 F800.0 X5.16
G1 X5.18 Z2.5
G1 X14.82
G1 X14.84 Z1.7
G1 X14.86
G1 X14.8685
G0 Z3.0
G0 X5.1236 Y9.02
G1 F300.0 Z1.7
G1 F800.0 X5.14
G1 X5.16 Z2.5
G1 X14.84
G1 X14.86 Z1.7
G1 X14.8764
G0 Z3.0
G0 X5.1156 Y9.06
G1 F300.0 Z1.7
G1 F800.0 X5.14
G1 X5.16 Z2.5
G1 X14.84
G1 X14.86 Z1.7
G1 X14.88
G1 X14.8844
G0 Z3.0
G0 X5.1076 Y9.1
G1 F300.0 Z1.7
G1 F800.0 X5.12
G1 X5.14 Z2.5
G1 X14.86
G1 X14.88 Z1.7
G1 X14.8924
G0 Z3.0
G0 X5.0997 Y9.14
G1 F300.0 Z1.7
G1 F800.0 X5.12
G1 X5.14 Z2.5
G1 X14.86
G1 X14.88 Z1.7
G1 X14.9
G1 X14.9003
G0 Z3.0
G0 X5.0917 Y9.18
G1 F300.0 Z1.7
G1 F800.0 X5.12
G1 X5.14 Z2.5
G1 X14.86
G1 X14.88 Z1.7
G1 X14.9
G1 X14.9083
G0 Z3.0
G0 X5.0838 Y9.22
G1 F300.0 Z1.7
G1 F800.0 X5.1
G1 X5.12 Z2.5
G1 X14.88
G1 X14.9 Z1.7
G1 X14.9162
G0 Z3.0
G0 X5.0758 Y9.26
G1 F300.0 Z1.7
G1 F800.0 X5.1
G1 X5.12 Z2.5
G1 X14.88
G1 X14.9 Z1.7
G1 X14.92
G1 X14.9242
G0 Z3.0
G0 X5.0679 Y9.3
G1 F300.0 Z1.7
G1 F800.0 X5.08
G1 X5.1 Z2.5
G1 X14.9
G1 X14.92 Z1.7
G1 X14.9321
G0 Z3.0
G0 X5.0599 Y9.34
G1 F300.0 Z1.7
G1 F800.0 X5.08
G1 X5.1 Z2.5
G1 X14.9
G1 X14.92 Z1.7
G1 X14.94
G1 X14.9401
G0 Z3.0
G0 X5.052 Y9.38
G1 F300.0 Z1.7
G1 F800.0 X5.08
G1 X5.1 Z2.5
G1 X14.9
G1 X14.92 Z1.7
G1 X14.94
G1 X14.948
G0 Z3.0
G0 X5.044 Y9.42
G1 F300.0 Z1.7
G1 F800.0 X5.06
G1 X5.08 Z2.5
G1 X14.92
G1 X14.94 Z1.7
G1 X14.956
G0 Z3.0
G0 X5.036 Y9.46
G1 F300.0 Z1.7
G1 F800.0 X5.06
G1 X5.08 Z2.5
G1 X14.92
G1 X14.94 Z1.7
G1 X14.96
G1 X14.964
G0 Z3.0
G0 X5.0281 Y9.5
G1 F300.0 Z1.7
G1 F800.0 X5.04
G1 X5.06 Z2.5
G1 X14.94
G1 X14.96 Z1.7
G1 X14.9719
G0 Z3.0
G0 X5.0201 Y9.54
G1 F300.0 Z1.7
G1 F800.0 X5.04
G1 X5.06 Z2.5
G1 X14.94
G1 X14.96 Z1.7
G1 X14.9799
G0 Z3.0
G0 X5.0122 Y9.58
G1 F300.0 Z1.7
G1 F800.0 X5.04
G1 X5.06 Z2.5
G1 X14.94
G1 X14.96 Z1.7
G1 X14.98
G1 X14.9878
G0 Z3.0
G0 X5.0042 Y9.62
G1 F300.0 Z1.7
G1 F800.0 X5.02
G1 X5.04 Z2.5
G1 X14.96
G1 X14.98 Z1.7
G1 X14.9958
G0 Z3.0
G0 X4.9963 Y9.66
G1 F300.0 Z1.7
G1 F800.0 X5.02
G1 X5.04 Z2.5
G1 X14.96
G1 X14.98 Z1.7
G1 X15.0
G1 X15.0037
G0 Z3.0
G0 X4.9883 Y9.7
G1 F300.0 Z1.7
G1 F800.0 X5.0
G1 X5.02 Z2.5
G1 X14.98
G1 X15.0 Z1.7
G1 X15.0117
G0 Z3.0
G0 X4.9803 Y9.74
G1 F300.0 Z1.7
G1 F800.0 X5.0
G1 X5.02 Z2.5
G1 X14.98
G1 X15.0 Z1.7
G1 X15.0197
G0 Z3.0
G0 X4.9724 Y9.78
G1 F300.0 Z1.7
G1 F800.0 X5.0
G1 X5.02 Z2.5
G1 X14.98
G1 X15.0 Z1.7
G1 X15.02
G1 X15.0276
G0 Z3.0
G0 X4.9644 Y9.82
G1 F300.0 Z1.7
G1 F800.0 X4.98
G1 X5.0 Z2.5
G1 X15.0
G1 X15.02 Z1.7
G1 X15.0356
G0 Z3.0
G0 X4.9565 Y9.86
G1 F300.0 Z1.7
G1 F800.0 X4.98
G1 X5.0 Z2.5
G1 X15.0
G1 X15.02 Z1.7
G1 X15.04
G1 X15.0435
G0 Z3.0
G0 X4.9485 Y9.9
G1 F300.0 Z1.7
G1 F800.0 X4.96
G1 X4.98 Z2.5
G1 X15.02
G1 X15.04 Z1.7
G1 X15.0515
G0 Z3.0
G0 X4.9406 Y9.94
G1 F300.0 Z1.7
G1 F800.0 X4.96
G1 X4.98 Z2.5
G1 X15.02
G1 X15.04 Z1.7
G1 X15.0594
G0 Z3.0
G0 X4.9326 Y9.98
G1 F300.0 Z1.7
G1 F800.0 X4.96
G1 X4.98 Z2.5
G1 X15.02
G1 X15.04 Z1.7
G1 X15.06
G1 X15.0674
G0 Z3.0
G0 X4.9326 Y10.02
G1 F300.0 Z1.7
G1 F800.0 X4.96
G1 X4.98 Z2.5
G1 X15.02
G1 X15.04 Z1.7
G1 X15.06
G1 X15.0674
G0 Z3.0
G0 X4.9406 Y10.06
G1 F300.0 Z1.7
G1 F800.0 X4.96
G1 X4.98 Z2.5
G1 X15.02
G1 X15.04 Z1.7
G1 X15.0594
G0 Z3.0
G0 X4.9485 Y10.1
G1 F300.0 Z1.7
G1 F800.0 X4.96
G1 X4.98 Z2.5
G1 X15.02
G1 X15.04 Z1.7
G1 X15.0515
G0 Z3.0
G0 X4.9565 Y10.14
G1 F300.0 Z1.7
G1 F800.0 X4.98
G1 X5.0 Z2.5
G1 X15.0
G1 X15.02 Z1.7
G1 X15.04
G1 X15.0435
G0 Z3.0
G0 X4.9644 Y10.18
G1 F300.0 Z1.7
G1 F800.0 X4.98
G1 X5.0 Z2.5
G1 X15.0
G1 X15.02 Z1.7
G1 X15.0356
G0 Z3.0
G0 X4.9724 Y10.22
G1 F300.0 Z1.7
G1 F800.0 X5.0
G1 X5.02 Z2.5
G1 X14.98
G1 X15.0 Z1.7
G1 X15.02
G1 X15.0276
G0 Z3.0
G0 X4.9803 Y10.26
G1 F300.0 Z1.7
G1 F800.0 X5.0
G1 X5.02 Z2.5
G1 X14.98
G1 X15.0 Z1.7
G1 X15.0197
G0 Z3.0
G0 X4.9883 Y10.3
G1 F300.0 Z1.7
G1 F800.0 X5.0
G1 X5.02 Z2.5
G1 X14.98
G1 X15.0 Z1.7
G1 X15.0117
G0 Z3.0
G0 X4.9963 Y10.34
G1 F300.0 Z1.7
G1 F800.0 X5.02
G1 X5.04 Z2.5
G1 X14.96
G1 X14.98 Z1.7
G1 X15.0
G1 X15.0037
G0 Z3.0
G0 X5.0042 Y10.38
G1 F300.0 Z1.7
G1 F800.0 X5.02
G1 X5.04 Z2.5
G1 X14.96
G1 X14.98 Z1.7
G1 X14.9958
G0 Z3.0
G0 X5.0122 Y10.42
G1 F300.0 Z1.7
G1 F800.0 X5.04
G1 X5.06 Z2.5
G1 X14.94
G1 X14.96 Z1.7
G1 X14.98
G1 X14.9878
G0 Z3.0
G0 X5.0201 Y10.46
G1 F300.0 Z1.7
G1 F800.0 X5.04
G1 X5.06 Z2.5
G1 X14.94
G1 X14.96 Z1.7
G1 X14.9799
G0 Z3.0
G0 X5.0281 Y10.5
G1 F300.0 Z1.7
G1 F800.0 X5.04
G1 X5.06 Z2.5
G1 X14.94
G1 X14.96 Z1.7
G1 X14.9719
G0 Z3.0
G0 X5.036 Y10.54
G1 F300.0 Z1.7
G1 F800.0 X5.06
G1 X5.08 Z2.5
G1 X14.92
G1 X14.94 Z1.7
G1 X14.96
G1 X14.964
G0 Z3.0
G0 X5.044 Y10.58
G1 F300.0 Z1.7
G1 F800.0 X5.06
G1 X5.08 Z2.5
G1 X14.92
G1 X14.94 Z1.7
G1 X14.956
G0 Z3.0
G0 X5.052 Y10.62
G1 F300.0 Z1.7
G1 F800.0 X5.08
G1 X5.1 Z2.5
G1 X14.9
G1 X14.92 Z1.7
G1 X14.94
G1 X14.948
G0 Z3.0
G0 X5.0599 Y10.66
G1 F300.0 Z1.7
G1 F800.0 X5.08
G1 X5.1 Z2.5
G1 X14.9
G1 X14.92 Z1.7
G1 X14.94
G1 X14.9401
G0 Z3.0
G0 X5.0679 Y10.7
G1 F300.0 Z1.7
G1 F800.0 X5.08
G1 X5.1 Z2.5
G1 X14.9
G1 X14.92 Z1.7
G1 X14.9321
G0 Z3.0
G0 X5.0758 Y10.74
G1 F300.0 Z1.7
G1 F800.0 X5.1
G1 X5.12 Z2.5
G1 X14.88
G1 X14.9 Z1.7
G1 X14.92
G1 X14.9242
G0 Z3.0
G0 X5.0838 Y10.78
G1 F300.0 Z1.7
G1 F800.0 X5.1
G1 X5.12 Z2.5
G1 X14.88
G1 X14.9 Z1.7
G1 X14.9162
G0 Z3.0
G0 X5.0917 Y10.82
G1 F300.0 Z1.7
G1 F800.0 X5.12
G1 X5.14 Z2.5
G1 X14.86
G1 X14.88 Z1.7
G1 X14.9
G1 X14.9083
G0 Z3.0
G0 X5.0997 Y10.86
G1 F300.0 Z1.7
G1 F800.0 X5.12
G1 X5.14 Z2.5
G1 X14.86
G1 X14.88 Z1.7
G1 X14.9
G1 X14.9003
G0 Z3.0
G0 X5.1077 Y10.9
G1 F300.0 Z1.7
G1 F800.0 X5.12
G1 X5.14 Z2.5
G1 X14.86
G1 X14.88 Z1.7
G1 X14.8923
G0 Z3.0
G0 X5.1156 Y10.94
G1 F300.0 Z1.7
G1 F800.0 X5.14
G1 X5.16 Z2.5
G1 X14.84
G1 X14.86 Z1.7
G1 X14.88
G1 X14.8844
G0 Z3.0
G0 X5.1236 Y10.98
G1 F300.0 Z1.7
G1 F800.0 X5.14
G1 X5.16 Z2.5
G1 X14.84
G1 X14.86 Z1.7
G1 X14.8764
G0 Z3.0
G0 X5.1315 Y11.02
G1 F300.0 Z1.7
G1 F800.0 X5.16
G1 X5.18 Z2.5
G1 X14.82
G1 X14.84 Z1.7
G1 X14.86
G1 X14.8685
G0 Z3.0
G0 X5.1395 Y11.06
G1 F300.0 Z1.7
G1 F800.0 X5.16
G1 X5.18 Z2.5
G1 X14.82
G1 X14.84 Z1.7
G1 X14.86
G1 X14.8605
G0 Z3.0
G0 X5.1474 Y11.1
G1 F300.0 Z1.7
G1 F800.0 X5.16
G1 X5.18 Z2.5
G1 X14.82
G1 X14.84 Z1.7
G1 X14.8526
G0 Z3.0
G0 X5.1554 Y11.14
G1 F300.0 Z1.7
G1 F800.0 X5.18
G1 X5.2 Z2.5
G1 X14.8
G1 X14.82 Z1.7
G1 X14.84
G1 X14.8446
G0 Z3.0
G0 X5.1633 Y11.18
G1 F300.0 Z1.7
G1 F800.0 X5.18
G1 X5.2 Z2.5
G1 X14.8
G1 X14.82 Z1.7
G1 X14.8367
G0 Z3.0
G0 X5.1713 Y11.22
G1 F300.0 Z1.7
G1 F800.0 X5.2
G1 X5.22 Z2.5
G1 X14.78
G1 X14.8 Z1.7
G1 X14.82
G1 X14.8287
G0 Z3.0
G0 X5.1793 Y11.26
G1 F300.0 Z1.7
G1 F800.0 X5.2
G1 X5.22 Z2.5
G1 X14.78
G1 X14.8 Z1.7
G1 X14.82
G1 X14.8207
G0 Z3.0
G0 X5.1872 Y11.3
G1 F300.0 Z1.7
G1 F800.0 X5.2
G1 X5.22 Z2.5
G1 X14.78
G1 X14.8 Z1.7
G1 X14.8128
G0 Z3.0
G0 X5.1952 Y11.34
G1 F300.0 Z1.7
G1 F800.0 X5.22
G1 X5.24 Z2.5
G1 X14.76
G1 X14.78 Z1.7
G1 X14.8
G1 X14.8048
G0 Z3.0
G0 X5.2031 Y11.38
G1 F300.0 Z1.7
G1 F800.0 X5.22
G1 X5.24 Z2.5
G1 X14.76
G1 X14.78 Z1.7
G1 X14.7969
G0 Z3.0
G0 X5.2111 Y11.42
G1 F300.0 Z1.7
G1 F800.0 X5.24
G1 X5.26 Z2.5
G1 X14.74
G1 X14.76 Z1.7
G1 X14.78
G1 X14.7889
G0 Z3.0
G0 X5.219 Y11.46
G1 F300.0 Z1.7
G1 F800.0 X5.24
G1 X5.26 Z2.5
G1 X14.74
G1 X14.76 Z1.7
G1 X14.78
G1 X14.781
G0 Z3.0
G0 X5.227 Y11.5
G1 F300.0 Z1.7
G1 F800.0 X5.24
G1 X5.26 Z2.5
G1 X14.74
G1 X14.76 Z1.7
G1 X14.773
G0 Z3.0
G0 X5.235 Y11.54
G1 F300.0 Z1.7
G1 F800.0 X5.26
G1 X5.28 Z2.5
G1 X14.72
G1 X14.74 Z1.7
G1 X14.76
G1 X14.765
G0 Z3.0
G0 X5.2429 Y11.58
G1 F300.0 Z1.7
G1 F800.0 X5.26
G1 X5.28 Z2.5
G1 X14.72
G1 X14.74 Z1.7
G1 X14.7571
G0 Z3.0
G0 X5.2509 Y11.62
G1 F300.0 Z1.7
G1 F800.0 X5.28
G1 X5.3 Z2.5
G1 X14.7
G1 X14.72 Z1.7
G1 X14.74
G1 X14.7491
G0 Z3.0
G0 X5.2588 Y11.66
G1 F300.0 Z1.7
G1 F800.0 X5.28
G1 X5.3 Z2.5
G1 X14.7
G1 X14.72 Z1.7
G1 X14.74
G1 X14.7412
G0 Z3.0
G0 X5.2668 Y11.7
G1 F300.0 Z1.7
G1 F800.0 X5.28
G1 X5.3 Z2.5
G1 X14.7
G1 X14.72 Z1.7
G1 X14.7332
G0 Z3.0
G0 X5.2747 Y11.74
G1 F300.0 Z1.7
G1 F800.0 X5.3
G1 X5.32 Z2.5
G1 X14.68
G1 X14.7 Z1.7
G1 X14.72
G1 X14.7253
G0 Z3.0
G0 X5.2827 Y11.78
G1 F300.0 Z1.7
G1 F800.0 X5.3
G1 X5.32 Z2.5
G1 X14.68
G1 X14.7 Z1.7
G1 X14.7173
G0 Z3.0
G0 X5.2907 Y11.82
G1 F300.0 Z1.7
G1 F800.0 X5.32
G1 X5.34 Z2.5
G1 X14.66
G1 X14.68 Z1.7
G1 X14.7
G1 X14.7093
G0 Z3.0
G0 X5.2986 Y11.86
G1 F300.0 Z1.7
G1 F800.0 X5.32
G1 X5.34 Z2.5
G1 X14.66
G1 X14.68 Z1.7
G1 X14.7
G1 X14.7014
G0 Z3.0
G0 X5.3066 Y11.9
G1 F300.0 Z1.7
G1 F800.0 X5.32
G1 X5.34 Z2.5
G1 X14.66
G1 X14.68 Z1.7
G1 X14.6934
G0 Z3.0
G0 X5.3159 Y11.94
G1 F300.0 Z1.7
G1 F800.0 X5.34
G1 X5.36 Z2.5
G1 X14.64
G1 X14.66 Z1.7
G1 X14.68
G1 X14.6841
G0 Z3.0
G0 X5.3409 Y11.98
G1 F300.0 Z1.7
G1 F800.0 X5.36
G1 X5.38 Z2.5
G1 X14.62
G1 X14.64 Z1.7
G1 X14.6591
G0 Z3.0
G0 X5.3676 Y12.02
G1 F300.0 Z1.7
G1 F800.0 X5.4
G1 X5.42 Z2.5
G1 X14.58
G1 X14.6 Z1.7
G1 X14.62
G1 X14.6324
G0 Z3.0
G0 X5.3944 Y12.06
G1 F300.0 Z1.7
G1 F800.0 X5.42
G1 X5.44 Z2.5
G1 X14.56
G1 X14.58 Z1.7
G1 X14.6
G1 X14.6056
G0 Z3.0
G0 X5.4211 Y12.1
G1 F300.0 Z1.7
G1 F800.0 X5.44
G1 X5.46 Z2.5
G1 X14.54
G1 X14.56 Z1.7
G1 X14.5789
G0 Z3.0
G0 X5.4478 Y12.14
G1 F300.0 Z1.7
G1 F800.0 X5.48
G1 X5.5 Z2.5
G1 X14.5
G1 X14.52 Z1.7
G1 X14.54
G1 X14.5522
G0 Z3.0
G0 X5.4746 Y12.18
G1 F300.0 Z1.7
G1 F800.0 X5.5
G1 X5.52 Z2.5
G1 X14.48
G1 X14.5 Z1.7
G1 X14.52
G1 X14.5254
G0 Z3.0
G0 X5.5013 Y12.22
G1 F300.0 Z1.7
G1 F800.0 X5.52
G1 X5.54 Z2.5
G1 X14.46
G1 X14.48 Z1.7
G1 X14.4987
G0 Z3.0
G0 X5.528 Y12.26
G1 F300.0 Z1.7
G1 F800.0 X5.56
G1 X5.58 Z2.5
G1 X14.42
G1 X14.44 Z1.7
G1 X14.46
G1 X14.472
G0 Z3.0
G0 X5.5547 Y12.3
G1 F300.0 Z1.7
G1 F800.0 X5.58
G1 X5.6 Z2.5
G1 X14.4
G1 X14.42 Z1.7
G1 X14.44
G1 X14.4453
G0 Z3.0
G0 X5.5815 Y12.34
G1 F300.0 Z1.7
G1 F800.0 X5.6
G1 X5.62 Z2.5
G1 X14.38
G1 X14.4 Z1.7
G1 X14.4185
G0 Z3.0
G0 X5.6082 Y12.38
G1 F300.0 Z1.7
G1 F800.0 X5.64
G1 X5.66 Z2.5
G1 X14.34
G1 X14.36 Z1.7
G1 X14.38
G1 X14.3918
G0 Z3.0
G0 X5.6349 Y12.42
G1 F300.0 Z1.7
G1 F800.0 X5.66
G1 X5.68 Z2.5
G1 X14.32
G1 X14.34 Z1.7
G1 X14.36
G1 X14.3651
G0 Z3.0
G0 X5.6616 Y12.46
G1 F300.0 Z1.7
G1 F800.0 X5.68
G1 X5.7 Z2.5
G1 X14.3
G1 X14.32 Z1.7
G1 X14.3383
G0 Z3.0
G0 X5.6884 Y12.5
G1 F300.0 Z1.7
G1 F800.0 X5.72
G1 X5.74 Z2.5
G1 X14.26
G1 X14.28 Z1.7
G1 X14.3
G1 X14.3116
G0 Z3.0
G0 X5.7151 Y12.54
G1 F300.0 Z1.7
G1 F800.0 X5.74
G1 X5.76 Z2.5
G1 X14.24
G1 X14.26 Z1.7
G1 X14.28
G1 X14.2849
G0 Z3.0
G0 X5.7418 Y12.58
G1 F300.0 Z1.7
G1 F800.0 X5.76
G1 X5.78 Z2.5
G1 X14.22
G1 X14.24 Z1.7
G1 X14.2582
G0 Z3.0
G0 X5.7686 Y12.62
G1 F300.0 Z1.7
G1 F800.0 X5.8
G1 X5.82 Z2.5
G1 X14.18
G1 X14.2 Z1.7
G1 X14.22
G1 X14.2314
G0 Z3.0
G0 X5.7953 Y12.66
G1 F300.0 Z1.7
G1 F800.0 X5.82
G1 X5.84 Z2.5
G1 X14.16
G1 X14.18 Z1.7
G1 X14.2
G1 X14.2047
G0 Z3.0
G0 X5.822 Y12.7
G1 F300.0 Z1.7
G1 F800.0 X5.84
G1 X5.86 Z2.5
G1 X14.14
G1 X14.16 Z1.7
G1 X14.178
G0 Z3.0
G0 X5.8487 Y12.74
G1 F300.0 Z1.7
G1 F800.0 X5.88
G1 X5.9 Z2.5
G1 X14.1
G1 X14.12 Z1.7
G1 X14.14
G1 X14.1512
G0 Z3.0
G0 X5.8755 Y12.78
G1 F300.0 Z1.7
G1 F800.0 X5.9
G1 X5.92 Z2.5
G1 X14.08
G1 X14.1 Z1.7
G1 X14.12
G1 X14.1245
G0 Z3.0
G0 X5.9022 Y12.82
G1 F300.0 Z1.7
G1 F800.0 X5.92
G1 X5.94 Z2.5
G1 X14.06
G1 X14.08 Z1.7
G1 X14.0978
G0 Z3.0
G0 X5.9289 Y12.86
G1 F300.0 Z1.7
G1 F800.0 X5.96
G1 X5.98 Z2.5
G1 X14.02
G1 X14.04 Z1.7
G1 X14.06
G1 X14.0711
G0 Z3.0
G0 X5.9556 Y12.9
G1 F300.0 Z1.7
G1 F800.0 X5.98
G1 X6.0 Z2.5
G1 X14.0
G1 X14.02 Z1.7
G1 X14.04
G1 X14.0443
G0 Z3.0
G0 X5.9824 Y12.94
G1 F300.0 Z1.7
G1 F800.0 X6.0
G1 X6.02 Z2.5
G1 X13.98
G1 X14.0 Z1.7
G1 X14.0176
G0 Z3.0
G0 X6.0091 Y12.98
G1 F300.0 Z1.7
G1 F800.0 X6.04
G1 X6.06 Z2.5
G1 X13.94
G1 X13.96 Z1.7
G1 X13.98
G1 X13.9909
G0 Z3.0
G0 X6.0358 Y13.02
G1 F300.0 Z1.7
G1 F800.0 X6.06
G1 X6.08 Z2.5
G1 X13.92
G1 X13.94 Z1.7
G1 X13.96
G1 X13.9642
G0 Z3.0
G0 X6.0626 Y13.06
G1 F300.0 Z1.7
G1 F800.0 X6.1
G1 X6.12 Z2.5
G1 X13.88
G1 X13.9 Z1.7
G1 X13.92
G1 X13.9374
G0 Z3.0
G0 X6.0893 Y13.1
G1 F300.0 Z1.7
G1 F800.0 X6.12
G1 X6.14 Z2.5
G1 X13.86
G1 X13.88 Z1.7
G1 X13.9
G1 X13.9107
G0 Z3.0
G0 X6.116 Y13.14
G1 F300.0 Z1.7
G1 F800.0 X6.14
G1 X6.16 Z2.5
G1 X13.84
G1 X13.86 Z1.7
G1 X13.88
G1 X13.884
G0 Z3.0
G0 X6.1427 Y13.18
G1 F300.0 Z1.7
G1 F800.0 X6.18
G1 X6.2 Z2.5
G1 X13.8
G1 X13.82 Z1.7
G1 X13.84
G1 X13.8572
G0 Z3.0
G0 X6.1695 Y13.22
G1 F300.0 Z1.7
G1 F800.0 X6.2
G1 X6.22 Z2.5
G1 X13.78
G1 X13.8 Z1.7
G1 X13.82
G1 X13.8305
G0 Z3.0
G0 X6.1962 Y13.26
G1 F300.0 Z1.7
G1 F800.0 X6.22
G1 X6.24 Z2.5
G1 X13.76
G1 X13.78 Z1.7
G1 X13.8
G1 X13.8038
G0 Z3.0
G0 X6.2229 Y13.3
G1 F300.0 Z1.7
G1 F800.0 X6.26
G1 X6.28 Z2.5
G1 X13.72
G1 X13.74 Z1.7
G1 X13.76
G1 X13.7771
G0 Z3.0
G0 X6.2497 Y13.34
G1 F300.0 Z1.7
G1 F800.0 X6.28
G1 X6.3 Z2.5
G1 X13.7
G1 X13.72 Z1.7
G1 X13.74
G1 X13.7503
G0 Z3.0
G0 X6.2764 Y13.38
G1 F300.0 Z1.7
G1 F800.0 X6.3
G1 X6.32 Z2.5
G1 X13.68
G1 X13.7 Z1.7
G1 X13.72
G1 X13.7236
G0 Z3.0
G0 X6.3031 Y13.42
G1 F300.0 Z1.7
G1 F800.0 X6.34
G1 X6.36 Z2.5
G1 X13.64
G1 X13.66 Z1.7
G1 X13.68
G1 X13.6969
G0 Z3.0
G0 X6.3298 Y13.46
G1 F300.0 Z1.7
G1 F800.0 X6.36
G1 X6.38 Z2.5
G1 X13.62
G1 X13.64 Z1.7
G1 X13.66
G1 X13.6701
G0 Z3.0
G0 X6.3566 Y13.5
G1 F300.0 Z1.7
G1 F800.0 X6.38
G1 X6.4 Z2.5
G1 X13.6
G1 X13.62 Z1.7
G1 X13.64
G1 X13.6434
G0 Z3.0
G0 X6.3833 Y13.54
G1 F300.0 Z1.7
G1 F800.0 X6.42
G1 X6.44 Z2.5
G1 X13.56
G1 X13.58 Z1.7
G1 X13.6
G1 X13.6167
G0 Z3.0
G0 X6.4104 Y13.58
G1 F300.0 Z1.7
G1 F800.0 X6.44
G1 X6.46 Z2.5
G1 X13.54
G1 X13.56 Z1.7
G1 X13.58
G1 X13.5895
G0 Z3.0
G0 X6.4649 Y13.62
G1 F300.0 Z1.7
G1 F800.0 X6.5
G1 X6.52 Z2.5
G1 X13.48
G1 X13.5 Z1.7
G1 X13.52
G1 X13.535
G0 Z3.0
G0 X6.5248 Y13.66
G1 F300.0 Z1.7
G1 F800.0 X6.56
G1 X6.58 Z2.5
G1 X13.42
G1 X13.44 Z1.7
G1 X13.46
G1 X13.4752
G0 Z3.0
G0 X6.5847 Y13.7
G1 F300.0 Z1.7
G1 F800.0 X6.62
G1 X6.64 Z2.5
G1 X13.36
G1 X13.38 Z1.7
G1 X13.4
G1 X13.4153
G0 Z3.0
G0 X6.6445 Y13.74
G1 F300.0 Z1.7
G1 F800.0 X6.68
G1 X6.7 Z2.5
G1 X13.3
G1 X13.32 Z1.7
G1 X13.34
G1 X13.3555
G0 Z3.0
G0 X6.7044 Y13.78
G1 F300.0 Z1.7
G1 F800.0 X6.74
G1 X6.76 Z2.5
G1 X13.24
G1 X13.26 Z1.7
G1 X13.28
G1 X13.2956
G0 Z3.0
G0 X6.7642 Y13.82
G1 F300.0 Z1.7
G1 F800.0 X6.8
G1 X6.82 Z2.5
G1 X13.18
G1 X13.2 Z1.7
G1 X13.22
G1 X13.2357
G0 Z3.0
G0 X6.8241 Y13.86
G1 F300.0 Z1.7
G1 F800.0 X6.86
G1 X6.88 Z2.5
G1 X13.12
G1 X13.14 Z1.7
G1 X13.16
G1 X13.1759
G0 Z3.0
G0 X6.884 Y13.9
G1 F300.0 Z1.7
G1 F800.0 X6.92
G1 X6.94 Z2.5
G1 X13.06
G1 X13.08 Z1.7
G1 X13.1
G1 X13.116
G0 Z3.0
G0 X6.9438 Y13.94
G1 F300.0 Z1.7
G1 F800.0 X6.98
G1 X7.0 Z2.5
G1 X13.0
G1 X13.02 Z1.7
G1 X13.04
G1 X13.0561
G0 Z3.0
G0 X7.0037 Y13.98
G1 F300.0 Z1.7
G1 F800.0 X7.04
G1 X7.06 Z2.5
G1 X12.94
G1 X12.96 Z1.7
G1 X12.98
G1 X12.9963
G0 Z3.0
G0 X7.0636 Y14.02
G1 F300.0 Z1.7
G1 F800.0 X7.1
G1 X7.12 Z2.5
G1 X12.88
G1 X12.9 Z1.7
G1 X12.92
G1 X12.9364
G0 Z3.0
G0 X7.1234 Y14.06
G1 F300.0 Z1.7
G1 F800.0 X7.16
G1 X7.18 Z2.5
G1 X12.82
G1 X12.84 Z1.7
G1 X12.86
G1 X12.8766
G0 Z3.0
G0 X7.1833 Y14.1
G1 F300.0 Z1.7
G1 F800.0 X7.22
G1 X7.24 Z2.5
G1 X12.76
G1 X12.78 Z1.7
G1 X12.8
G1 X12.8167
G0 Z3.0
G0 X7.2431 Y14.14
G1 F300.0 Z1.7
G1 F800.0 X7.28
G1 X7.3 Z2.5
G1 X12.7
G1 X12.72 Z1.7
G1 X12.74
G1 X12.7568
G0 Z3.0
G0 X7.303 Y14.18
G1 F300.0 Z1.7
G1 F800.0 X7.34
G1 X7.36 Z2.5
G1 X12.64
G1 X12.66 Z1.7
G1 X12.68
G1 X12.697
G0 Z3.0
G0 X7.3629 Y14.22
G1 F300.0 Z1.7
G1 F800.0 X7.4
G1 X7.42 Z2.5
G1 X12.58
G1 X12.6 Z1.7
G1 X12.62
G1 X12.6371
G0 Z3.0
G0 X7.4227 Y14.26
G1 F300.0 Z1.7
G1 F800.0 X7.46
G1 X7.48 Z2.5
G1 X12.52
G1 X12.54 Z1.7
G1 X12.56
G1 X12.5772
G0 Z3.0
G0 X7.4826 Y14.3
G1 F300.0 Z1.7
G1 F800.0 X7.52
G1 X7.54 Z2.5
G1 X12.46
G1 X12.48 Z1.7
G1 X12.5
G1 X12.5174
G0 Z3.0
G0 X7.5425 Y14.34
G1 F300.0 Z1.7
G1 F800.0 X7.58
G1 X7.6 Z2.5
G1 X12.4
G1 X12.42 Z1.7
G1 X12.44
G1 X12.4575
G0 Z3.0
G0 X7.6023 Y14.38
G1 F300.0 Z1.7
G1 F800.0 X7.64
G1 X7.66 Z2.5
G1 X12.34
G1 X12.36 Z1.7
G1 X12.38
G1 X12.3977
G0 Z3.0
G0 X7.6622 Y14.42
G1 F300.0 Z1.7
G1 F800.0 X7.7
G1 X7.72 Z2.5
G1 X12.28
G1 X12.3 Z1.7
G1 X12.32
G1 X12.3378
G0 Z3.0
G0 X7.722 Y14.46
G1 F300.0 Z1.7
G1 F800.0 X7.76
G1 X7.78 Z2.5
G1 X12.22
G1 X12.24 Z1.7
G1 X12.26
G1 X12.2779
G0 Z3.0
G0 X7.7819 Y14.5
G1 F300.0 Z1.7
G1 F800.0 X7.82
G1 X7.84 Z2.5
G1 X12.16
G1 X12.18 Z1.7
G1 X12.2
G1 X12.2181
G0 Z3.0
G0 X7.8418 Y14.54
G1 F300.0 Z1.7
G1 F800.0 X7.88
G1 X7.9 Z2.5
G1 X12.1
G1 X12.12 Z1.7
G1 X12.14
G1 X12.1582
G0 Z3.0
G0 X7.9016 Y14.58
G1 F300.0 Z1.7
G1 F800.0 X7.94
G1 X7.96 Z2.5
G1 X12.04
G1 X12.06 Z1.7
G1 X12.08
G1 X12.0984
G0 Z3.0
G0 X7.9615 Y14.62
G1 F300.0 Z1.7
G1 F800.0 X8.0
G1 X8.02 Z2.5
G1 X11.98
G1 X12.0 Z1.7
G1 X12.02
G1 X12.0385
G0 Z3.0
G0 X8.0213 Y14.66
G1 F300.0 Z1.7
G1 F800.0 X8.06
G1 X8.08 Z2.5
G1 X11.92
G1 X11.94 Z1.7
G1 X11.96
G1 X11.9786
G0 Z3.0
G0 X8.133 Y14.7
G1 F300.0 Z1.7
G1 F800.0 X8.26
G1 X8.28 Z2.5
G1 X11.72
G1 X11.74 Z1.7
G1 X11.86
G1 X11.867
G0 Z3.0
G0 X8.3341 Y14.74
G1 F300.0 Z1.7
G1 F800.0 X8.46
G1 X8.48 Z2.5
G1 X11.52
G1 X11.54 Z1.7
G1 X11.66
G1 X11.6659
G0 Z3.0
G0 X8.5352 Y14.78
G1 F300.0 Z1.7
G1 F800.0 X8.66
G1 X8.68 Z2.5
G1 X11.32
G1 X11.34 Z1.7
G1 X11.46
G1 X11.4648
G0 Z3.0
G0 X8.7363 Y14.82
G1 F300.0 Z1.7
G1 F800.0 X8.86
G1 X8.88 Z2.5
G1 X11.12
G1 X11.14 Z1.7
G1 X11.26
G1 X11.2637
G0 Z3.0
G0 X8.9374 Y14.86
G1 F300.0 Z1.7
G1 F800.0 X9.06
G1 X9.08 Z2.5
G1 X10.92
G1 X10.94 Z1.7
G1 X11.06
G1 X11.0626
G0 Z3.0
G0 X9.1385 Y14.9
G1 F300.0 Z1.7
G1 F800.0 X9.26
G1 X9.28 Z2.5
G1 X10.72
G1 X10.74 Z1.7
G1 X10.86
G1 X10.8615
G0 Z3.0
G0 X9.3395 Y14.94
G1 F300.0 Z1.7
G1 F800.0 X9.46
G1 X9.48 Z2.5
G1 X10.52
G1 X10.54 Z1.7
G1 X10.66
G1 X10.6604
G0 Z3.0
G0 X9.5406 Y14.98
G1 F300.0 Z1.7
G1 F800.0 X9.66
G1 X9.68 Z2.5
G1 X10.32
G1 X10.34 Z1.7
G1 X10.44
G1 X10.4594
G0 Z3.0
G0 X9.7417 Y15.02
G1 F300.0 Z1.7
G1 F800.0 X9.86
G1 X9.88 Z2.5
G1 X10.12
G1 X10.14 Z1.7
G1 X10.24
G1 X10.2583
G0 Z3.0
G0 X9.9428 Y15.06
G1 F300.0 Z1.7
G1 F800.0 X10.04
G1 X10.0572
G0 Z3.0
G0 X10.1577 Y15.04
G1 F300.0 Z0.9
G1 F800.0 X10.14
G1 X9.8423
G0 Z3.0
G0 X10.3588 Y15.0
G1 F300.0 Z0.9
G1 F800.0 X10.34
G1 X10.24
G1 X10.22 Z2.5
G1 X9.78
G1 X9.76 Z0.9
G1 X9.6412
G0 Z3.0
G0 X10.5599 Y14.96
G1 F300.0 Z0.9
G1 F800.0 X10.54
G1 X10.44
G1 X10.42 Z2.5
G1 X9.58
G1 X9.56 Z0.9
G1 X9.4401
G0 Z3.0
G0 X10.761 Y14.92
G1 F300.0 Z0.9
G1 F800.0 X10.76
G1 X10.64
G1 X10.62 Z2.5
G1 X9.38
G1 X9.36 Z0.9
G1 X9.239
G0 Z3.0
G0 X10.9621 Y14.88
G1 F300.0 Z0.9
G1 F800.0 X10.96
G1 X10.84
G1 X10.82 Z2.5
G1 X9.18
G1 X9.16 Z0.9
G1 X9.0379
G0 Z3.0
G0 X11.1632 Y14.84
G1 F300.0 Z0.9
G1 F800.0 X11.16
G1 X11.04
G1 X11.02 Z2.5
G1 X8.98
G1 X8.96 Z0.9
G1 X8.8368
G0 Z3.0
G0 X11.3643 Y14.8
G1 F300.0 Z0.9
G1 F800.0 X11.36
G1 X11.24
G1 X11.22 Z2.5
G1 X8.78
G1 X8.76 Z0.9
G1 X8.6357
G0 Z3.0
G0 X11.5654 Y14.76
G1 F300.0 Z0.9
G1 F800.0 X11.56
G1 X11.44
G1 X11.42 Z2.5
G1 X8.58
G1 X8.56 Z0.9
G1 X8.4346
G0 Z3.0
G0 X11.7665 Y14.72
G1 F300.0 Z0.9
G1 F800.0 X11.76
G1 X11.64
G1 X11.62 Z2.5
G1 X8.38
G1 X8.36 Z0.9
G1 X8.2335
G0 Z3.0
G0 X11.9484 Y14.68
G1 F300.0 Z0.9
G1 F800.0 X11.94
G1 X11.84
G1 X11.82 Z2.5
G1 X8.18
G1 X8.16 Z0.9
G1 X8.0515
G0 Z3.0
G0 X12.0086 Y14.64
G1 F300.0 Z0.9
G1 F800.0 X12.0
G1 X11.98
G1 X11.96 Z2.5
G1 X8.04
G1 X8.02 Z0.9
G1 X7.9914
G0 Z3.0
G0 X12.0684 Y14.6
G1 F300.0 Z0.9
G1 F800.0 X12.06
G1 X12.04
G1 X12.02 Z2.5
G1 X7.98
G1 X7.96 Z0.9
G1 X7.9316
G0 Z3.0
G0 X12.1283 Y14.56
G1 F300.0 Z0.9
G1 F800.0 X12.12
G1 X12.1
G1 X12.08 Z2.5
G1 X7.92
G1 X7.9 Z0.9
G1 X7.8717
G0 Z3.0
G0 X12.1881 Y14.52
G1 F300.0 Z0.9
G1 F800.0 X12.18
G1 X12.16
G1 X12.14 Z2.5
G1 X7.86
G1 X7.84 Z0.9
G1 X7.8118
G0 Z3.0
G0 X12.248 Y14.48
G1 F300.0 Z0.9
G1 F800.0 X12.24
G1 X12.22
G1 X12.2 Z2.5
G1 X7.8
G1 X7.78 Z0.9
G1 X7.752
G0 Z3.0
G0 X12.3079 Y14.44
G1 F300.0 Z0.9
G1 F800.0 X12.3
G1 X12.28
G1 X12.26 Z2.5
G1 X7.74
G1 X7.72 Z0.9
G1 X7.6921
G0 Z3.0
G0 X12.3677 Y14.4
G1 F300.0 Z0.9
G1 F800.0 X12.36
G1 X12.34
G1 X12.32 Z2.5
G1 X7.68
G1 X7.66 Z0.9
G1 X7.6322
G0 Z3.0
G0 X12.4276 Y14.36
G1 F300.0 Z0.9
G1 F800.0 X12.42
G1 X12.4
G1 X12.38 Z2.5
G1 X7.62
G1 X7.6 Z0.9
G1 X7.5724
G0 Z3.0
G0 X12.4875 Y14.32
G1 F300.0 Z0.9
G1 F800.0 X12.48
G1 X12.46
G1 X12.44 Z2.5
G1 X7.56
G1 X7.54 Z0.9
G1 X7.5125
G0 Z3.0
G0 X12.5473 Y14.28
G1 F300.0 Z0.9
G1 F800.0 X12.54
G1 X12.52
G1 X12.5 Z2.5
G1 X7.5
G1 X7.48 Z0.9
G1 X7.4527
G0 Z3.0
G0 X12.6072 Y14.24
G1 F300.0 Z0.9
G1 F800.0 X12.6
G1 X12.58
G1 X12.56 Z2.5
G1 X7.44
G1 X7.42 Z0.9
G1 X7.3928
G0 Z3.0
G0 X12.667 Y14.2
G1 F300.0 Z0.9
G1 F800.0 X12.66
G1 X12.64
G1 X12.62 Z2.5
G1 X7.38
G1 X7.36 Z0.9
G1 X7.3329
G0 Z3.0
G0 X12.7269 Y14.16
G1 F300.0 Z0.9
G1 F800.0 X12.72
G1 X12.7
G1 X12.68 Z2.5
G1 X7.32
G1 X7.3 Z0.9
G1 X7.2731
G0 Z3.0
G0 X12.7868 Y14.12
G1 F300.0 Z0.9
G1 F800.0 X12.78
G1 X12.76
G1 X12.74 Z2.5
G1 X7.26
G1 X7.24 Z0.9
G1 X7.2132
G0 Z3.0
G0 X12.8466 Y14.08
G1 F300.0 Z0.9
G1 F800.0 X12.84
G1 X12.82
G1 X12.8 Z2.5
G1 X7.2
G1 X7.18 Z0.9
G1 X7.1533
G0 Z3.0
G0 X12.9065 Y14.04
G1 F300.0 Z0.9
G1 F800.0 X12.9
G1 X12.88
G1 X12.86 Z2.5
G1 X7.14
G1 X7.12 Z0.9
G1 X7.0935
G0 Z3.0
G0 X12.9663 Y14.0
G1 F300.0 Z0.9
G1 F800.0 X12.96
G1 X12.94
G1 X12.92 Z2.5
G1 X7.08
G1 X7.06 Z0.9
G1 X7.0336
G0 Z3.0
G0 X13.0262 Y13.96
G1 F300.0 Z0.9
G1 F800.0 X13.02
G1 X13.0
G1 X12.98 Z2.5
G1 X7.02
G1 X7.0 Z0.9
G1 X6.9738
G0 Z3.0
G0 X13.0861 Y13.92
G1 F300.0 Z0.9
G1 F800.0 X13.08
G1 X13.04
G1 X13.02 Z2.5
G1 X6.98
G1 X6.96 Z0.9
G1 X6.9139
G0 Z3.0
G0 X13.1459 Y13.88
G1 F300.0 Z0.9
G1 F800.0 X13.14
G1 X13.1
G1 X13.08 Z2.5
G1 X6.92
G1 X6.9 Z0.9
G1 X6.854
G0 Z3.0
G0 X13.2058 Y13.84
G1 F300.0 Z0.9
G1 F800.0 X13.2
G1 X13.16
G1 X13.14 Z2.5
G1 X6.86
G1 X6.84 Z0.9
G1 X6.7942
G0 Z3.0
G0 X13.2657 Y13.8
G1 F300.0 Z0.9
G1 F800.0 X13.26
G1 X13.22
G1 X13.2 Z2.5
G1 X6.8
G1 X6.78 Z0.9
G1 X6.7343
G0 Z3.0
G0 X13.3255 Y13.76
G1 F300.0 Z0.9
G1 F800.0 X13.32
G1 X13.28
G1 X13.26 Z2.5
G1 X6.74
G1 X6.72 Z0.9
G1 X6.6745
G0 Z3.0
G0 X13.3854 Y13.72
G1 F300.0 Z0.9
G1 F800.0 X13.38
G1 X13.34
G1 X13.32 Z2.5
G1 X6.68
G1 X6.66 Z0.9
G1 X6.6146
G0 Z3.0
G0 X13.4452 Y13.68
G1 F300.0 Z0.9
G1 F800.0 X13.44
G1 X13.4
G1 X13.38 Z2.5
G1 X6.62
G1 X6.6 Z0.9
G1 X6.5547
G0 Z3.0
G0 X13.5051 Y13.64
G1 F300.0 Z0.9
G1 F800.0 X13.5
G1 X13.46
G1 X13.44 Z2.5
G1 X6.56
G1 X6.54 Z0.9
G1 X6.4949
G0 Z3.0
G0 X13.565 Y13.6
G1 F300.0 Z0.9
G1 F800.0 X13.56
G1 X13.52
G1 X13.5 Z2.5
G1 X6.5
G1 X6.48 Z0.9
G1 X6.435
G0 Z3.0
G0 X13.6033 Y13.56
G1 F300.0 Z0.9
G1 F800.0 X13.6
G1 X13.58
G1 X13.56 Z2.5
G1 X6.44
G1 X6.42 Z0.9
G1 X6.3967
G0 Z3.0
G0 X13.63 Y13.52
G1 F300.0 Z0.9
G1 F800.0 X13.62
G1 X13.6
G1 X13.58 Z2.5
G1 X6.42
G1 X6.4 Z0.9
G1 X6.3699
G0 Z3.0
G0 X13.6568 Y13.48
G1 F300.0 Z0.9
G1 F800.0 X13.64
G1 X13.62
G1 X13.6 Z2.5
G1 X6.4
G1 X6.38 Z0.9
G1 X6.3432
G0 Z3.0
G0 X13.6835 Y13.44
G1 F300.0 Z0.9
G1 F800.0 X13.68
G1 X13.66
G1 X13.64 Z2.5
G1 X6.36
G1 X6.34 Z0.9
G1 X6.3165
G0 Z3.0
G0 X13.7102 Y13.4
G1 F300.0 Z0.9
G1 F800.0 X13.7
G1 X13.68
G1 X13.66 Z2.5
G1 X6.34
G1 X6.32 Z0.9
G1 X6.2897
G0 Z3.0
G0 X13.737 Y13.36
G1 F300.0 Z0.9
G1 F800.0 X13.72
G1 X13.7
G1 X13.68 Z2.5
G1 X6.32
G1 X6.3 Z0.9
G1 X6.263
G0 Z3.0
G0 X13.7637 Y13.32
G1 F300.0 Z0.9
G1 F800.0 X13.76
G1 X13.74
G1 X13.72 Z2.5
G1 X6.28
G1 X6.26 Z0.9
G1 X6.2363
G0 Z3.0
G0 X13.7904 Y13.28
G1 F300.0 Z0.9
G1 F800.0 X13.78
G1 X13.76
G1 X13.74 Z2.5
G1 X6.26
G1 X6.24 Z0.9
G1 X6.2096
G0 Z3.0
G0 X13.8171 Y13.24
G1 F300.0 Z0.9
G1 F800.0 X13.8
G1 X13.78
G1 X13.76 Z2.5
G1 X6.24
G1 X6.22 Z0.9
G1 X6.1828
G0 Z3.0
G0 X13.8439 Y13.2
G1 F300.0 Z0.9
G1 F800.0 X13.84
G1 X13.82
G1 X13.8 Z2.5
G1 X6.2
G1 X6.18 Z0.9
G1 X6.1561
G0 Z3.0
G0 X13.8706 Y13.16
G1 F300.0 Z0.9
G1 F800.0 X13.86
G1 X13.84
G1 X13.82 Z2.5
G1 X6.18
G1 X6.16 Z0.9
G1 X6.1294
G0 Z3.0
G0 X13.8973 Y13.12
G1 F300.0 Z0.9
G1 F800.0 X13.88
G1 X13.86
G1 X13.84 Z2.5
G1 X6.16
G1 X6.14 Z0.9
G1 X6.1026
G0 Z3.0
G0 X13.9241 Y13.08
G1 F300.0 Z0.9
G1 F800.0 X13.92
G1 X13.9
G1 X13.88 Z2.5
G1 X6.12
G1 X6.1 Z0.9
G1 X6.0759
G0 Z3.0
G0 X13.9508 Y13.04
G1 F300.0 Z0.9
G1 F800.0 X13.94
G1 X13.92
G1 X13.9 Z2.5
G1 X6.1
G1 X6.08 Z0.9
G1 X6.0492
G0 Z3.0
G0 X13.9775 Y13.0
G1 F300.0 Z0.9
G1 F800.0 X13.96
G1 X13.94 Z2.5
G1 X6.06
G1 X6.04 Z0.9
G1 X6.0225
G0 Z3.0
G0 X14.0042 Y12.96
G1 F300.0 Z0.9
G1 F800.0 X14.0
G1 X13.98
G1 X13.96 Z2.5
G1 X6.04
G1 X6.02 Z0.9
G1 X5.9957
G0 Z3.0
G0 X14.031 Y12.92
G1 F300.0 Z0.9
G1 F800.0 X14.02
G1 X14.0
G1 X13.98 Z2.5
G1 X6.02
G1 X6.0 Z0.9
G1 X5.969
G0 Z3.0
G0 X14.0577 Y12.88
G1 F300.0 Z0.9
G1 F800.0 X14.04
G1 X14.02 Z2.5
G1 X5.98
G1 X5.96 Z0.9
G1 X5.9423
G0 Z3.0
G0 X14.0844 Y12.84
G1 F300.0 Z0.9
G1 F800.0 X14.08
G1 X14.06
G1 X14.04 Z2.5
G1 X5.96
G1 X5.94 Z0.9
G1 X5.9156
G0 Z3.0
G0 X14.1112 Y12.8
G1 F300.0 Z0.9
G1 F800.0 X14.1
G1 X14.08
G1 X14.06 Z2.5
G1 X5.94
G1 X5.92 Z0.9
G1 X5.8888
G0 Z3.0
G0 X14.1379 Y12.76
G1 F300.0 Z0.9
G1 F800.0 X14.12
G1 X14.1 Z2.5
G1 X5.9
G1 X5.88 Z0.9
G1 X5.8621
G0 Z3.0
G0 X14.1646 Y12.72
G1 F300.0 Z0.9
G1 F800.0 X14.16
G1 X14.14
G1 X14.12 Z2.5
G1 X5.88
G1 X5.86 Z0.9
G1 X5.8354
G0 Z3.0
G0 X14.1913 Y12.68
G1 F300.0 Z0.9
G1 F800.0 X14.18
G1 X14.16
G1 X14.14 Z2.5
G1 X5.86
G1 X5.84 Z0.9
G1 X5.8086
G0 Z3.0
G0 X14.2181 Y12.64
G1 F300.0 Z0.9
G1 F800.0 X14.2
G1 X14.18 Z2.5
G1 X5.82
G1 X5.8 Z0.9
G1 X5.7819
G0 Z3.0
G0 X14.2448 Y12.6
G1 F300.0 Z0.9
G1 F800.0 X14.24
G1 X14.22
G1 X14.2 Z2.5
G1 X5.8
G1 X5.78 Z0.9
G1 X5.7552
G0 Z3.0
G0 X14.2715 Y12.56
G1 F300.0 Z0.9
G1 F800.0 X14.26
G1 X14.24
G1 X14.22 Z2.5
G1 X5.78
G1 X5.76 Z0.9
G1 X5.7285
G0 Z3.0
G0 X14.2983 Y12.52
G1 F300.0 Z0.9
G1 F800.0 X14.28
G1 X14.26 Z2.5
G1 X5.74
G1 X5.72 Z0.9
G1 X5.7017
G0 Z3.0
G0 X14.325 Y12.48
G1 F300.0 Z0.9
G1 F800.0 X14.32
G1 X14.3
G1 X14.28 Z2.5
G1 X5.72
G1 X5.7 Z0.9
G1 X5.675
G0 Z3.0
G0 X14.3517 Y12.44
G1 F300.0 Z0.9
G1 F800.0 X14.34
G1 X14.32
G1 X14.3 Z2.5
G1 X5.7
G1 X5.68 Z0.9
G1 X5.6483
G0 Z3.0
G0 X14.3784 Y12.4
G1 F300.0 Z0.9
G1 F800.0 X14.36
G1 X14.34 Z2.5
G1 X5.66
G1 X5.64 Z0.9
G1 X5.6216
G0 Z3.0
G0 X14.4052 Y12.36
G1 F300.0 Z0.9
G1 F800.0 X14.4
G1 X14.38
G1 X14.36 Z2.5
G1 X5.64
G1 X5.62 Z0.9
G1 X5.5948
G0 Z3.0
G0 X14.4319 Y12.32
G1 F300.0 Z0.9
G1 F800.0 X14.42
G1 X14.4
G1 X14.38 Z2.5
G1 X5.62
G1 X5.6 Z0.9
G1 X5.5681
G0 Z3.0
G0 X14.4586 Y12.28
G1 F300.0 Z0.9
G1 F800.0 X14.44
G1 X14.42 Z2.5
G1 X5.58
G1 X5.56 Z0.9
G1 X5.5414
G0 Z3.0
G0 X14.4854 Y12.24
G1 F300.0 Z0.9
G1 F800.0 X14.48
G1 X14.46
G1 X14.44 Z2.5
G1 X5.56
G1 X5.54 Z0.9
G1 X5.5146
G0 Z3.0
G0 X14.5121 Y12.2
G1 F300.0 Z0.9
G1 F800.0 X14.5
G1 X14.48
G1 X14.46 Z2.5
G1 X5.54
G1 X5.52 Z0.9
G1 X5.4879
G0 Z3.0
G0 X14.5388 Y12.16
G1 F300.0 Z0.9
G1 F800.0 X14.52
G1 X14.5 Z2.5
G1 X5.5
G1 X5.48 Z0.9
G1 X5.4612
G0 Z3.0
G0 X14.5655 Y12.12
G1 F300.0 Z0.9
G1 F800.0 X14.56
G1 X14.54
G1 X14.52 Z2.5
G1 X5.48
G1 X5.46 Z0.9
G1 X5.4345
G0 Z3.0
G0 X14.5923 Y12.08
G1 F300.0 Z0.9
G1 F800.0 X14.58
G1 X14.56
G1 X14.54 Z2.5
G1 X5.46
G1 X5.44 Z0.9
G1 X5.4077
G0 Z3.0
G0 X14.619 Y12.04
G1 F300.0 Z0.9
G1 F800.0 X14.6
G1 X14.58 Z2.5
G1 X5.42
G1 X5.4 Z0.9
G1 X5.381
G0 Z3.0
G0 X14.6457 Y12.0
G1 F300.0 Z0.9
G1 F800.0 X14.64
G1 X14.62
G1 X14.6 Z2.5
G1 X5.4
G1 X5.38 Z0.9
G1 X5.3543
G0 Z3.0
G0 X14.6725 Y11.96
G1 F300.0 Z0.9
G1 F800.0 X14.66
G1 X14.64
G1 X14.62 Z2.5
G1 X5.38
G1 X5.36 Z0.9
G1 X5.3275
G0 Z3.0
G0 X14.6895 Y11.92
G1 F300.0 Z0.9
G1 F800.0 X14.68
G1 X14.66
G1 X14.64 Z2.5
G1 X5.36
G1 X5.34 Z0.9
G1 X5.3105
G0 Z3.0
G0 X14.6974 Y11.88
G1 F300.0 Z0.9
G1 F800.0 X14.68
G1 X14.66 Z2.5
G1 X5.34
G1 X5.32 Z0.9
G1 X5.3026
G0 Z3.0
G0 X14.7054 Y11.84
G1 F300.0 Z0.9
G1 F800.0 X14.7
G1 X14.68
G1 X14.66 Z2.5
G1 X5.34
G1 X5.32 Z0.9
G1 X5.2946
G0 Z3.0
G0 X14.7133 Y11.8
G1 F300.0 Z0.9
G1 F800.0 X14.7
G1 X14.68 Z2.5
G1 X5.32
G1 X5.3 Z0.9
G1 X5.2867
G0 Z3.0
G0 X14.7213 Y11.76
G1 F300.0 Z0.9
G1 F800.0 X14.72
G1 X14.7
G1 X14.68 Z2.5
G1 X5.32
G1 X5.3 Z0.9
G1 X5.2787
G0 Z3.0
G0 X14.7292 Y11.72
G1 F300.0 Z0.9
G1 F800.0 X14.72
G1 X14.7
G1 X14.68 Z2.5
G1 X5.32
G1 X5.3 Z0.9
G1 X5.2708
G0 Z3.0
G0 X14.7372 Y11.68
G1 F300.0 Z0.9
G1 F800.0 X14.72
G1 X14.7 Z2.5
G1 X5.3
G1 X5.28 Z0.9
G1 X5.2628
G0 Z3.0
G0 X14.7452 Y11.64
G1 F300.0 Z0.9
G1 F800.0 X14.74
G1 X14.72
G1 X14.7 Z2.5
G1 X5.3
G1 X5.28 Z0.9
G1 X5.2548
G0 Z3.0
G0 X14.7531 Y11.6
G1 F300.0 Z0.9
G1 F800.0 X14.74
G1 X14.72 Z2.5
G1 X5.28
G1 X5.26 Z0.9
G1 X5.2469
G0 Z3.0
G0 X14.7611 Y11.56
G1 F300.0 Z0.9
G1 F800.0 X14.76
G1 X14.74
G1 X14.72 Z2.5
G1 X5.28
G1 X5.26 Z0.9
G1 X5.2389
G0 Z3.0
G0 X14.769 Y11.52
G1 F300.0 Z0.9
G1 F800.0 X14.76
G1 X14.74
G1 X14.72 Z2.5
G1 X5.28
G1 X5.26 Z0.9
G1 X5.231
G0 Z3.0
G0 X14.777 Y11.48
G1 F300.0 Z0.9
G1 F800.0 X14.76
G1 X14.74 Z2.5
G1 X5.26
G1 X5.24 Z0.9
G1 X5.223
G0 Z3.0
G0 X14.7849 Y11.44
G1 F300.0 Z0.9
G1 F800.0 X14.78
G1 X14.76
G1 X14.74 Z2.5
G1 X5.26
G1 X5.24 Z0.9
G1 X5.2151
G0 Z3.0
G0 X14.7929 Y11.4
G1 F300.0 Z0.9
G1 F800.0 X14.78
G1 X14.76 Z2.5
G1 X5.24
G1 X5.22 Z0.9
G1 X5.2071
G0 Z3.0
G0 X14.8008 Y11.36
G1 F300.0 Z0.9
G1 F800.0 X14.8
G1 X14.78
G1 X14.76 Z2.5
G1 X5.24
G1 X5.22 Z0.9
G1 X5.1992
G0 Z3.0
G0 X14.8088 Y11.32
G1 F300.0 Z0.9
G1 F800.0 X14.8
G1 X14.78
G1 X14.76 Z2.5
G1 X5.24
G1 X5.22 Z0.9
G1 X5.1912
G0 Z3.0
G0 X14.8168 Y11.28
G1 F300.0 Z0.9
G1 F800.0 X14.8
G1 X14.78 Z2.5
G1 X5.22
G1 X5.2 Z0.9
G1 X5.1832
G0 Z3.0
G0 X14.8247 Y11.24
G1 F300.0 Z0.9
G1 F800.0 X14.82
G1 X14.8
G1 X14.78 Z2.5
G1 X5.22
G1 X5.2 Z0.9
G1 X5.1753
G0 Z3.0
G0 X14.8327 Y11.2
G1 F300.0 Z0.9
G1 F800.0 X14.82
G1 X14.8 Z2.5
G1 X5.2
G1 X5.18 Z0.9
G1 X5.1673
G0 Z3.0
G0 X14.8406 Y11.16
G1 F300.0 Z0.9
G1 F800.0 X14.84
G1 X14.82
G1 X14.8 Z2.5
G1 X5.2
G1 X5.18 Z0.9
G1 X5.1594
G0 Z3.0
G0 X14.8486 Y11.12
G1 F300.0 Z0.9
G1 F800.0 X14.84
G1 X14.82
G1 X14.8 Z2.5
G1 X5.2
G1 X5.18 Z0.9
G1 X5.1514
G0 Z3.0
G0 X14.8565 Y11.08
G1 F300.0 Z0.9
G1 F800.0 X14.84
G1 X14.82 Z2.5
G1 X5.18
G1 X5.16 Z0.9
G1 X5.1435
G0 Z3.0
G0 X14.8645 Y11.04
G1 F300.0 Z0.9
G1 F800.0 X14.86
G1 X14.84
G1 X14.82 Z2.5
G1 X5.18
G1 X5.16 Z0.9
G1 X5.1355
G0 Z3.0
G0 X14.8725 Y11.0
G1 F300.0 Z0.9
G1 F800.0 X14.86
G1 X14.84 Z2.5
G1 X5.16
G1 X5.14 Z0.9
G1 X5.1275
G0 Z3.0
G0 X14.8804 Y10.96
G1 F300.0 Z0.9
G1 F800.0 X14.88
G1 X14.86
G1 X14.84 Z2.5
G1 X5.16
G1 X5.14 Z0.9
G1 X5.1196
G0 Z3.0
G0 X14.8884 Y10.92
G1 F300.0 Z0.9
G1 F800.0 X14.88
G1 X14.86
G1 X14.84 Z2.5
G1 X5.16
G1 X5.14 Z0.9
G1 X5.1116
G0 Z3.0
G0 X14.8963 Y10.88
G1 F300.0 Z0.9
G1 F800.0 X14.88
G1 X14.86 Z2.5
G1 X5.14
G1 X5.12 Z0.9
G1 X5.1037
G0 Z3.0
G0 X14.9043 Y10.84
G1 F300.0 Z0.9
G1 F800.0 X14.9
G1 X14.88
G1 X14.86 Z2.5
G1 X5.14
G1 X5.12 Z0.9
G1 X5.0957
G0 Z3.0
G0 X14.9122 Y10.8
G1 F300.0 Z0.9
G1 F800.0 X14.9
G1 X14.88 Z2.5
G1 X5.12
G1 X5.1 Z0.9
G1 X5.0878
G0 Z3.0
G0 X14.9202 Y10.76
G1 F300.0 Z0.9
G1 F800.0 X14.92
G1 X14.9
G1 X14.88 Z2.5
G1 X5.12
G1 X5.1 Z0.9
G1 X5.0798
G0 Z3.0
G0 X14.9282 Y10.72
G1 F300.0 Z0.9
G1 F800.0 X14.92
G1 X14.9
G1 X14.88 Z2.5
G1 X5.12
G1 X5.1 Z0.9
G1 X5.0718
G0 Z3.0
G0 X14.9361 Y10.68
G1 F300.0 Z0.9
G1 F800.0 X14.92
G1 X14.9 Z2.5
G1 X5.1
G1 X5.08 Z0.9
G1 X5.0639
G0 Z3.0
G0 X14.9441 Y10.64
G1 F300.0 Z0.9
G1 F800.0 X14.94
G1 X14.92
G1 X14.9 Z2.5
G1 X5.1
G1 X5.08 Z0.9
G1 X5.0559
G0 Z3.0
G0 X14.952 Y10.6
G1 F300.0 Z0.9
G1 F800.0 X14.94
G1 X14.92 Z2.5
G1 X5.08
G1 X5.06 Z0.9
G1 X5.048
G0 Z3.0
G0 X14.96 Y10.56
G1 F300.0 Z0.9
G1 F800.0 X14.94
G1 X14.92 Z2.5
G1 X5.08
G1 X5.06 Z0.9
G1 X5.04
G0 Z3.0
G0 X14.9679 Y10.52
G1 F300.0 Z0.9
G1 F800.0 X14.96
G1 X14.94
G1 X14.92 Z2.5
G1 X5.08
G1 X5.06 Z0.9
G1 X5.0321
G0 Z3.0
G0 X14.9759 Y10.48
G1 F300.0 Z0.9
G1 F800.0 X14.96
G1 X14.94 Z2.5
G1 X5.06
G1 X5.04 Z0.9
G1 X5.0241
G0 Z3.0
G0 X14.9838 Y10.44
G1 F300.0 Z0.9
G1 F800.0 X14.98
G1 X14.96
G1 X14.94 Z2.5
G1 X5.06
G1 X5.04 Z0.9
G1 X5.0162
G0 Z3.0
G0 X14.9918 Y10.4
G1 F300.0 Z0.9
G1 F800.0 X14.98
G1 X14.96 Z2.5
G1 X5.04
G1 X5.02 Z0.9
G1 X5.0082
G0 Z3.0
G0 X14.9998 Y10.36
G1 F300.0 Z0.9
G1 F800.0 X14.98
G1 X14.96 Z2.5
G1 X5.04
G1 X5.02 Z0.9
G1 X5.0002
G0 Z3.0
G0 X15.0077 Y10.32
G1 F300.0 Z0.9
G1 F800.0 X15.0
G1 X14.98
G1 X14.96 Z2.5
G1 X5.04
G1 X5.02 Z0.9
G1 X4.9923
G0 Z3.0
G0 X15.0157 Y10.28
G1 F300.0 Z0.9
G1 F800.0 X15.0
G1 X14.98 Z2.5
G1 X5.02
G1 X5.0 Z0.9
G1 X4.9843
G0 Z3.0
G0 X15.0236 Y10.24
G1 F300.0 Z0.9
G1 F800.0 X15.02
G1 X15.0
G1 X14.98 Z2.5
G1 X5.02
G1 X5.0 Z0.9
G1 X4.9764
G0 Z3.0
G0 X15.0316 Y10.2
G1 F300.0 Z0.9
G1 F800.0 X15.02
G1 X15.0 Z2.5
G1 X5.0
G1 X4.98 Z0.9
G1 X4.9684
G0 Z3.0
G0 X15.0395 Y10.16
G1 F300.0 Z0.9
G1 F800.0 X15.02
G1 X15.0 Z2.5
G1 X5.0
G1 X4.98 Z0.9
G1 X4.9605
G0 Z3.0
G0 X15.0475 Y10.12
G1 F300.0 Z0.9
G1 F800.0 X15.04
G1 X15.02
G1 X15.0 Z2.5
G1 X5.0
G1 X4.98 Z0.9
G1 X4.9525
G0 Z3.0
G0 X15.0555 Y10.08
G1 F300.0 Z0.9
G1 F800.0 X15.04
G1 X15.02 Z2.5
G1 X4.98
G1 X4.96 Z0.9
G1 X4.9445
G0 Z3.0
G0 X15.0634 Y10.04
G1 F300.0 Z0.9
G1 F800.0 X15.06
G1 X15.04
G1 X15.02 Z2.5
G1 X4.98
G1 X4.96 Z0.9
G1 X4.9366
G0 Z3.0
G0 X15.07 Y10.0
G1 F300.0 Z0.9
G1 F800.0 X15.06
G1 X15.04
G1 X15.02 Z2.5
G1 X4.96
G1 X4.94 Z0.9
G1 X4.93
G0 Z3.0
G0 X15.0634 Y9.96
G1 F300.0 Z0.9
G1 F800.0 X15.06
G1 X15.04
G1 X15.02 Z2.5
G1 X4.98
G1 X4.96 Z0.9
G1 X4.9366
G0 Z3.0
G0 X15.0555 Y9.92
G1 F300.0 Z0.9
G1 F800.0 X15.04
G1 X15.02 Z2.5
G1 X4.98
G1 X4.96 Z0.9
G1 X4.9445
G0 Z3.0
G0 X15.0475 Y9.88
G1 F300.0 Z0.9
G1 F800.0 X15.04
G1 X15.02
G1 X15.0 Z2.5
G1 X5.0
G1 X4.98 Z0.9
G1 X4.9525
G0 Z3.0
G0 X15.0395 Y9.84
G1 F300.0 Z0.9
G1 F800.0 X15.02
G1 X15.0 Z2.5
G1 X5.0
G1 X4.98 Z0.9
G1 X4.9605
G0 Z3.0
G0 X15.0316 Y9.8
G1 F300.0 Z0.9
G1 F800.0 X15.02
G1 X15.0 Z2.5
G1 X5.0
G1 X4.98 Z0.9
G1 X4.9684
G0 Z3.0
G0 X15.0236 Y9.76
G1 F300.0 Z0.9
G1 F800.0 X15.02
G1 X15.0
G1 X14.98 Z2.5
G1 X5.02
G1 X5.0 Z0.9
G1 X4.9764
G0 Z3.0
G0 X15.0157 Y9.72
G1 F300.0 Z0.9
G1 F800.0 X15.0
G1 X14.98 Z2.5
G1 X5.02
G1 X5.0 Z0.9
G1 X4.9843
G0 Z3.0
G0 X15.0077 Y9.68
G1 F300.0 Z0.9
G1 F800.0 X15.0
G1 X14.98
G1 X14.96 Z2.5
G1 X5.04
G1 X5.02 Z0.9
G1 X4.9923
G0 Z3.0
G0 X14.9998 Y9.64
G1 F300.0 Z0.9
G1 F800.0 X14.98
G1 X14.96 Z2.5
G1 X5.04
G1 X5.02 Z0.9
G1 X5.0002
G0 Z3.0
G0 X14.9918 Y9.6
G1 F300.0 Z0.9
G1 F800.0 X14.98
G1 X14.96 Z2.5
G1 X5.04
G1 X5.02 Z0.9
G1 X5.0082
G0 Z3.0
G0 X14.9839 Y9.56
G1 F300.0 Z0.9
G1 F800.0 X14.98
G1 X14.96
G1 X14.94 Z2.5
G1 X5.06
G1 X5.04 Z0.9
G1 X5.0161
G0 Z3.0
G0 X14.9759 Y9.52
G1 F300.0 Z0.9
G1 F800.0 X14.96
G1 X14.94 Z2.5
G1 X5.06
G1 X5.04 Z0.9
G1 X5.0241
G0 Z3.0
G0 X14.9679 Y9.48
G1 F300.0 Z0.9
G1 F800.0 X14.96
G1 X14.94
G1 X14.92 Z2.5
G1 X5.08
G1 X5.06 Z0.9
G1 X5.0321
G0 Z3.0
G0 X14.96 Y9.44
G1 F300.0 Z0.9
G1 F800.0 X14.94
G1 X14.92 Z2.5
G1 X5.08
G1 X5.06 Z0.9
G1 X5.04
G0 Z3.0
G0 X14.952 Y9.4
G1 F300.0 Z0.9
G1 F800.0 X14.94
G1 X14.92 Z2.5
G1 X5.08
G1 X5.06 Z0.9
G1 X5.048
G0 Z3.0
G0 X14.9441 Y9.36
G1 F300.0 Z0.9
G1 F800.0 X14.94
G1 X14.92
G1 X14.9 Z2.5
G1 X5.1
G1 X5.08 Z0.9
G1 X5.0559
G0 Z3.0
G0 X14.9361 Y9.32
G1 F300.0 Z0.9
G1 F800.0 X14.92
G1 X14.9 Z2.5
G1 X5.1
G1 X5.08 Z0.9
G1 X5.0639
G0 Z3.0
G0 X14.9282 Y9.28
G1 F300.0 Z0.9
G1 F800.0 X14.92
G1 X14.9
G1 X14.88 Z2.5
G1 X5.12
G1 X5.1 Z0.9
G1 X5.0718
G0 Z3.0
G0 X14.9202 Y9.24
G1 F300.0 Z0.9
G1 F800.0 X14.92
G1 X14.9
G1 X14.88 Z2.5
G1 X5.12
G1 X5.1 Z0.9
G1 X5.0798
G0 Z3.0
G0 X14.9122 Y9.2
G1 F300.0 Z0.9
G1 F800.0 X14.9
G1 X14.88 Z2.5
G1 X5.12
G1 X5.1 Z0.9
G1 X5.0878
G0 Z3.0
G0 X14.9043 Y9.16
G1 F300.0 Z0.9
G1 F800.0 X14.9
G1 X14.88
G1 X14.86 Z2.5
G1 X5.14
G1 X5.12 Z0.9
G1 X5.0957
G0 Z3.0
G0 X14.8963 Y9.12
G1 F300.0 Z0.9
G1 F800.0 X14.88
G1 X14.86 Z2.5
G1 X5.14
G1 X5.12 Z0.9
G1 X5.1037
G0 Z3.0
G0 X14.8884 Y9.08
G1 F300.0 Z0.9
G1 F800.0 X14.88
G1 X14.86
G1 X14.84 Z2.5
G1 X5.16
G1 X5.14 Z0.9
G1 X5.1116
G0 Z3.0
G0 X14.8804 Y9.04
G1 F300.0 Z0.9
G1 F800.0 X14.88
G1 X14.86
G1 X14.84 Z2.5
G1 X5.16
G1 X5.14 Z0.9
G1 X5.1196
G0 Z3.0
G0 X14.8725 Y9.0
G1 F300.0 Z0.9
G1 F800.0 X14.86
G1 X14.84 Z2.5
G1 X5.16
G1 X5.14 Z0.9
G1 X5.1275
G0 Z3.0
G0 X14.8645 Y8.96
G1 F300.0 Z0.9
G1 F800.0 X14.86
G1 X14.84
G1 X14.82 Z2.5
G1 X5.18
G1 X5.16 Z0.9
G1 X5.1355
G0 Z3.0
G0 X14.8565 Y8.92
G1 F300.0 Z0.9
G1 F800.0 X14.84
G1 X14.82 Z2.5
G1 X5.18
G1 X5.16 Z0.9
G1 X5.1435
G0 Z3.0
G0 X14.8486 Y8.88
G1 F300.0 Z0.9
G1 F800.0 X14.84
G1 X14.82
G1 X14.8 Z2.5
G1 X5.2
G1 X5.18 Z0.9
G1 X5.1514
G0 Z3.0
G0 X14.8406 Y8.84
G1 F300.0 Z0.9
G1 F800.0 X14.84
G1 X14.82
G1 X14.8 Z2.5
G1 X5.2
G1 X5.18 Z0.9
G1 X5.1594
G0 Z3.0
G0 X14.8327 Y8.8
G1 F300.0 Z0.9
G1 F800.0 X14.82
G1 X14.8 Z2.5
G1 X5.2
G1 X5.18 Z0.9
G1 X5.1673
G0 Z3.0
G0 X14.8247 Y8.76
G1 F300.0 Z0.9
G1 F800.0 X14.82
G1 X14.8
G1 X14.78 Z2.5
G1 X5.22
G1 X5.2 Z0.9
G1 X5.1753
G0 Z3.0
G0 X14.8168 Y8.72
G1 F300.0 Z0.9
G1 F800.0 X14.8
G1 X14.78 Z2.5
G1 X5.22
G1 X5.2 Z0.9
G1 X5.1832
G0 Z3.0
G0 X14.8088 Y8.68
G1 F300.0 Z0.9
G1 F800.0 X14.8
G1 X14.78
G1 X14.76 Z2.5
G1 X5.24
G1 X5.22 Z0.9
G1 X5.1912
G0 Z3.0
G0 X14.8009 Y8.64
G1 F300.0 Z0.9
G1 F800.0 X14.8
G1 X14.78
G1 X14.76 Z2.5
G1 X5.24
G1 X5.22 Z0.9
G1 X5.1991
G0 Z3.0
G0 X14.7929 Y8.6
G1 F300.0 Z0.9
G1 F800.0 X14.78
G1 X14.76 Z2.5
G1 X5.24
G1 X5.22 Z0.9
G1 X5.2071
G0 Z3.0
G0 X14.7849 Y8.56
G1 F300.0 Z0.9
G1 F800.0 X14.78
G1 X14.76
G1 X14.74 Z2.5
G1 X5.26
G1 X5.24 Z0.9
G1 X5.2151
G0 Z3.0
G0 X14.777 Y8.52
G1 F300.0 Z0.9
G1 F800.0 X14.76
G1 X14.74 Z2.5
G1 X5.26
G1 X5.24 Z0.9
G1 X5.223
G0 Z3.0
G0 X14.769 Y8.48
G1 F300.0 Z0.9
G1 F800.0 X14.76
G1 X14.74
G1 X14.72 Z2.5
G1 X5.28
G1 X5.26 Z0.9
G1 X5.231
G0 Z3.0
G0 X14.7611 Y8.44
G1 F300.0 Z0.9
G1 F800.0 X14.76
G1 X14.74
G1 X14.72 Z2.5
G1 X5.28
G1 X5.26 Z0.9
G1 X5.2389
G0 Z3.0
G0 X14.7531 Y8.4
G1 F300.0 Z0.9
G1 F800.0 X14.74
G1 X14.72 Z2.5
G1 X5.28
G1 X5.26 Z0.9
G1 X5.2469
G0 Z3.0
G0 X14.7452 Y8.36
G1 F300.0 Z0.9
G1 F800.0 X14.74
G1 X14.72
G1 X14.7 Z2.5
G1 X5.3
G1 X5.28 Z0.9
G1 X5.2548
G0 Z3.0
G0 X14.7372 Y8.32
G1 F300.0 Z0.9
G1 F800.0 X14.72
G1 X14.7 Z2.5
G1 X5.3
G1 X5.28 Z0.9
G1 X5.2628
G0 Z3.0
G0 X14.7292 Y8.28
G1 F300.0 Z0.9
G1 F800.0 X14.72
G1 X14.7
G1 X14.68 Z2.5
G1 X5.32
G1 X5.3 Z0.9
G1 X5.2708
G0 Z3.0
G0 X14.7213 Y8.24
G1 F300.0 Z0.9
G1 F800.0 X14.72
G1 X14.7
G1 X14.68 Z2.5
G1 X5.32
G1 X5.3 Z0.9
G1 X5.2787
G0 Z3.0
G0 X14.7133 Y8.2
G1 F300.0 Z0.9
G1 F800.0 X14.7
G1 X14.68 Z2.5
G1 X5.32
G1 X5.3 Z0.9
G1 X5.2867
G0 Z3.0
G0 X14.7054 Y8.16
G1 F300.0 Z0.9
G1 F800.0 X14.7
G1 X14.68
G1 X14.66 Z2.5
G1 X5.34
G1 X5.32 Z0.9
G1 X5.2946
G0 Z3.0
G0 X14.6974 Y8.12
G1 F300.0 Z0.9
G1 F800.0 X14.68
G1 X14.66 Z2.5
G1 X5.34
G1 X5.32 Z0.9
G1 X5.3026
G0 Z3.0
G0 X14.6895 Y8.08
G1 F300.0 Z0.9
G1 F800.0 X14.68
G1 X14.66
G1 X14.64 Z2.5
G1 X5.36
G1 X5.34 Z0.9
G1 X5.3105
G0 Z3.0
G0 X14.6725 Y8.04
G1 F300.0 Z0.9
G1 F800.0 X14.66
G1 X14.64
G1 X14.62 Z2.5
G1 X5.38
G1 X5.36 Z0.9
G1 X5.3275
G0 Z3.0
G0 X14.6457 Y8.0
G1 F300.0 Z0.9
G1 F800.0 X14.64
G1 X14.62
G1 X14.6 Z2.5
G1 X5.4
G1 X5.38 Z0.9
G1 X5.3543
G0 Z3.0
G0 X14.619 Y7.96
G1 F300.0 Z0.9
G1 F800.0 X14.6
G1 X14.58 Z2.5
G1 X5.42
G1 X5.4 Z0.9
G1 X5.381
G0 Z3.0
G0 X14.5923 Y7.92
G1 F300.0 Z0.9
G1 F800.0 X14.58
G1 X14.56
G1 X14.54 Z2.5
G1 X5.46
G1 X5.44 Z0.9
G1 X5.4077
G0 Z3.0
G0 X14.5656 Y7.88
G1 F300.0 Z0.9
G1 F800.0 X14.56
G1 X14.54
G1 X14.52 Z2.5
G1 X5.48
G1 X5.46 Z0.9
G1 X5.4344
G0 Z3.0
G0 X14.5388 Y7.84
G1 F300.0 Z0.9
G1 F800.0 X14.52
G1 X14.5 Z2.5
G1 X5.5
G1 X5.48 Z0.9
G1 X5.4612
G0 Z3.0
G0 X14.5121 Y7.8
G1 F300.0 Z0.9
G1 F800.0 X14.5
G1 X14.48
G1 X14.46 Z2.5
G1 X5.54
G1 X5.52 Z0.9
G1 X5.4879
G0 Z3.0
G0 X14.4854 Y7.76
G1 F300.0 Z0.9
G1 F800.0 X14.48
G1 X14.46
G1 X14.44 Z2.5
G1 X5.56
G1 X5.54 Z0.9
G1 X5.5146
G0 Z3.0
G0 X14.4586 Y7.72
G1 F300.0 Z0.9
G1 F800.0 X14.44
G1 X14.42 Z2.5
G1 X5.58
G1 X5.56 Z0.9
G1 X5.5414
G0 Z3.0
G0 X14.4319 Y7.68
G1 F300.0 Z0.9
G1 F800.0 X14.42
G1 X14.4
G1 X14.38 Z2.5
G1 X5.62
G1 X5.6 Z0.9
G1 X5.5681
G0 Z3.0
G0 X14.4052 Y7.64
G1 F300.0 Z0.9
G1 F800.0 X14.4
G1 X14.38
G1 X14.36 Z2.5
G1 X5.64
G1 X5.62 Z0.9
G1 X5.5948
G0 Z3.0
G0 X14.3785 Y7.6
G1 F300.0 Z0.9
G1 F800.0 X14.36
G1 X14.34 Z2.5
G1 X5.66
G1 X5.64 Z0.9
G1 X5.6215
G0 Z3.0
G0 X14.3517 Y7.56
G1 F300.0 Z0.9
G1 F800.0 X14.34
G1 X14.32
G1 X14.3 Z2.5
G1 X5.7
G1 X5.68 Z0.9
G1 X5.6483
G0 Z3.0
G0 X14.325 Y7.52
G1 F300.0 Z0.9
G1 F800.0 X14.32
G1 X14.3
G1 X14.28 Z2.5
G1 X5.72
G1 X5.7 Z0.9
G1 X5.675
G0 Z3.0
G0 X14.2983 Y7.48
G1 F300.0 Z0.9
G1 F800.0 X14.28
G1 X14.26 Z2.5
G1 X5.74
G1 X5.72 Z0.9
G1 X5.7017
G0 Z3.0
G0 X14.2715 Y7.44
G1 F300.0 Z0.9
G1 F800.0 X14.26
G1 X14.24
G1 X14.22 Z2.5
G1 X5.78
G1 X5.76 Z0.9
G1 X5.7284
G0 Z3.0
G0 X14.2448 Y7.4
G1 F300.0 Z0.9
G1 F800.0 X14.24
G1 X14.22
G1 X14.2 Z2.5
G1 X5.8
G1 X5.78 Z0.9
G1 X5.7552
G0 Z3.0
G0 X14.2181 Y7.36
G1 F300.0 Z0.9
G1 F800.0 X14.2
G1 X14.18 Z2.5
G1 X5.82
G1 X5.8 Z0.9
G1 X5.7819
G0 Z3.0
G0 X14.1914 Y7.32
G1 F300.0 Z0.9
G1 F800.0 X14.18
G1 X14.16
G1 X14.14 Z2.5
G1 X5.86
G1 X5.84 Z0.9
G1 X5.8086
G0 Z3.0
G0 X14.1646 Y7.28
G1 F300.0 Z0.9
G1 F800.0 X14.16
G1 X14.14
G1 X14.12 Z2.5
G1 X5.88
G1 X5.86 Z0.9
G1 X5.8354
G0 Z3.0
G0 X14.1379 Y7.24
G1 F300.0 Z0.9
G1 F800.0 X14.12
G1 X14.1 Z2.5
G1 X5.9
G1 X5.88 Z0.9
G1 X5.8621
G0 Z3.0
G0 X14.1112 Y7.2
G1 F300.0 Z0.9
G1 F800.0 X14.1
G1 X14.08
G1 X14.06 Z2.5
G1 X5.94
G1 X5.92 Z0.9
G1 X5.8888
G0 Z3.0
G0 X14.0844 Y7.16
G1 F300.0 Z0.9
G1 F800.0 X14.08
G1 X14.06
G1 X14.04 Z2.5
G1 X5.96
G1 X5.94 Z0.9
G1 X5.9155
G0 Z3.0
G0 X14.0577 Y7.12
G1 F300.0 Z0.9
G1 F800.0 X14.04
G1 X14.02 Z2.5
G1 X5.98
G1 X5.96 Z0.9
G1 X5.9423
G0 Z3.0
G0 X14.031 Y7.08
G1 F300.0 Z0.9
G1 F800.0 X14.02
G1 X14.0
G1 X13.98 Z2.5
G1 X6.02
G1 X6.0 Z0.9
G1 X5.969
G0 Z3.0
G0 X14.0043 Y7.04
G1 F300.0 Z0.9
G1 F800.0 X14.0
G1 X13.98
G1 X13.96 Z2.5
G1 X6.04
G1 X6.02 Z0.9
G1 X5.9957
G0 Z3.0
G0 X13.9775 Y7.0
G1 F300.0 Z0.9
G1 F800.0 X13.96
G1 X13.94 Z2.5
G1 X6.06
G1 X6.04 Z0.9
G1 X6.0224
G0 Z3.0
G0 X13.9508 Y6.96
G1 F300.0 Z0.9
G1 F800.0 X13.94
G1 X13.92
G1 X13.9 Z2.5
G1 X6.1
G1 X6.08 Z0.9
G1 X6.0492
G0 Z3.0
G0 X13.9241 Y6.92
G1 F300.0 Z0.9
G1 F800.0 X13.92
G1 X13.9
G1 X13.88 Z2.5
G1 X6.12
G1 X6.1 Z0.9
G1 X6.0759
G0 Z3.0
G0 X13.8973 Y6.88
G1 F300.0 Z0.9
G1 F800.0 X13.88
G1 X13.86
G1 X13.84 Z2.5
G1 X6.16
G1 X6.14 Z0.9
G1 X6.1026
G0 Z3.0
G0 X13.8706 Y6.84
G1 F300.0 Z0.9
G1 F800.0 X13.86
G1 X13.84
G1 X13.82 Z2.5
G1 X6.18
G1 X6.16 Z0.9
G1 X6.1294
G0 Z3.0
G0 X13.8439 Y6.8
G1 F300.0 Z0.9
G1 F800.0 X13.84
G1 X13.82
G1 X13.8 Z2.5
G1 X6.2
G1 X6.18 Z0.9
G1 X6.1561
G0 Z3.0
G0 X13.8172 Y6.76
G1 F300.0 Z0.9
G1 F800.0 X13.8
G1 X13.78
G1 X13.76 Z2.5
G1 X6.24
G1 X6.22 Z0.9
G1 X6.1828
G0 Z3.0
G0 X13.7904 Y6.72
G1 F300.0 Z0.9
G1 F800.0 X13.78
G1 X13.76
G1 X13.74 Z2.5
G1 X6.26
G1 X6.24 Z0.9
G1 X6.2095
G0 Z3.0
G0 X13.7637 Y6.68
G1 F300.0 Z0.9
G1 F800.0 X13.76
G1 X13.74
G1 X13.72 Z2.5
G1 X6.28
G1 X6.26 Z0.9
G1 X6.2363
G0 Z3.0
G0 X13.737 Y6.64
G1 F300.0 Z0.9
G1 F800.0 X13.72
G1 X13.7
G1 X13.68 Z2.5
G1 X6.32
G1 X6.3 Z0.9
G1 X6.263
G0 Z3.0
G0 X13.7103 Y6.6
G1 F300.0 Z0.9
G1 F800.0 X13.7
G1 X13.68
G1 X13.66 Z2.5
G1 X6.34
G1 X6.32 Z0.9
G1 X6.2897
G0 Z3.0
G0 X13.6835 Y6.56
G1 F300.0 Z0.9
G1 F800.0 X13.68
G1 X13.66
G1 X13.64 Z2.5
G1 X6.36
G1 X6.34 Z0.9
G1 X6.3164
G0 Z3.0
G0 X13.6568 Y6.52
G1 F300.0 Z0.9
G1 F800.0 X13.64
G1 X13.62
G1 X13.6 Z2.5
G1 X6.4
G1 X6.38 Z0.9
G1 X6.3432
G0 Z3.0
G0 X13.6301 Y6.48
G1 F300.0 Z0.9
G1 F800.0 X13.62
G1 X13.6
G1 X13.58 Z2.5
G1 X6.42
G1 X6.4 Z0.9
G1 X6.3699
G0 Z3.0
G0 X13.6033 Y6.44
G1 F300.0 Z0.9
G1 F800.0 X13.6
G1 X13.58
G1 X13.56 Z2.5
G1 X6.44
G1 X6.42 Z0.9
G1 X6.3966
G0 Z3.0
G0 X13.565 Y6.4
G1 F300.0 Z0.9
G1 F800.0 X13.56
G1 X13.52
G1 X13.5 Z2.5
G1 X6.5
G1 X6.48 Z0.9
G1 X6.435
G0 Z3.0
G0 X13.5051 Y6.36
G1 F300.0 Z0.9
G1 F800.0 X13.5
G1 X13.46
G1 X13.44 Z2.5
G1 X6.56
G1 X6.54 Z0.9
G1 X6.4948
G0 Z3.0
G0 X13.4453 Y6.32
G1 F300.0 Z0.9
G1 F800.0 X13.44
G1 X13.4
G1 X13.38 Z2.5
G1 X6.62
G1 X6.6 Z0.9
G1 X6.5547
G0 Z3.0
G0 X13.3854 Y6.28
G1 F300.0 Z0.9
G1 F800.0 X13.38
G1 X13.34
G1 X13.32 Z2.5
G1 X6.68
G1 X6.66 Z0.9
G1 X6.6146
G0 Z3.0
G0 X13.3256 Y6.24
G1 F300.0 Z0.9
G1 F800.0 X13.32
G1 X13.28
G1 X13.26 Z2.5
G1 X6.74
G1 X6.72 Z0.9
G1 X6.6744
G0 Z3.0
G0 X13.2657 Y6.2
G1 F300.0 Z0.9
G1 F800.0 X13.26
G1 X13.22
G1 X13.2 Z2.5
G1 X6.8
G1 X6.78 Z0.9
G1 X6.7343
G0 Z3.0
G0 X13.2058 Y6.16
G1 F300.0 Z0.9
G1 F800.0 X13.2
G1 X13.16
G1 X13.14 Z2.5
G1 X6.86
G1 X6.84 Z0.9
G1 X6.7941
G0 Z3.0
G0 X13.146 Y6.12
G1 F300.0 Z0.9
G1 F800.0 X13.14
G1 X13.1
G1 X13.08 Z2.5
G1 X6.92
G1 X6.9 Z0.9
G1 X6.854
G0 Z3.0
G0 X13.0861 Y6.08
G1 F300.0 Z0.9
G1 F800.0 X13.08
G1 X13.04
G1 X13.02 Z2.5
G1 X6.98
G1 X6.96 Z0.9
G1 X6.9139
G0 Z3.0
G0 X13.0262 Y6.04
G1 F300.0 Z0.9
G1 F800.0 X13.02
G1 X13.0
G1 X12.98 Z2.5
G1 X7.02
G1 X7.0 Z0.9
G1 X6.9737
G0 Z3.0
G0 X12.9664 Y6.0
G1 F300.0 Z0.9
G1 F800.0 X12.96
G1 X12.94
G1 X12.92 Z2.5
G1 X7.08
G1 X7.06 Z0.9
G1 X7.0336
G0 Z3.0
G0 X12.9065 Y5.96
G1 F300.0 Z0.9
G1 F800.0 X12.9
G1 X12.88
G1 X12.86 Z2.5
G1 X7.14
G1 X7.12 Z0.9
G1 X7.0935
G0 Z3.0
G0 X12.8467 Y5.92
G1 F300.0 Z0.9
G1 F800.0 X12.84
G1 X12.82
G1 X12.8 Z2.5
G1 X7.2
G1 X7.18 Z0.9
G1 X7.1533
G0 Z3.0
G0 X12.7868 Y5.88
G1 F300.0 Z0.9
G1 F800.0 X12.78
G1 X12.76
G1 X12.74 Z2.5
G1 X7.26
G1 X7.24 Z0.9
G1 X7.2132
G0 Z3.0
G0 X12.7269 Y5.84
G1 F300.0 Z0.9
G1 F800.0 X12.72
G1 X12.7
G1 X12.68 Z2.5
G1 X7.32
G1 X7.3 Z0.9
G1 X7.2731
G0 Z3.0
G0 X12.6671 Y5.8
G1 F300.0 Z0.9
G1 F800.0 X12.66
G1 X12.64
G1 X12.62 Z2.5
G1 X7.38
G1 X7.36 Z0.9
G1 X7.3329
G0 Z3.0
G0 X12.6072 Y5.76
G1 F300.0 Z0.9
G1 F800.0 X12.6
G1 X12.58
G1 X12.56 Z2.5
G1 X7.44
G1 X7.42 Z0.9
G1 X7.3928
G0 Z3.0
G0 X12.5473 Y5.72
G1 F300.0 Z0.9
G1 F800.0 X12.54
G1 X12.52
G1 X12.5 Z2.5
G1 X7.5
G1 X7.48 Z0.9
G1 X7.4526
G0 Z3.0
G0 X12.4875 Y5.68
G1 F300.0 Z0.9
G1 F800.0 X12.48
G1 X12.46
G1 X12.44 Z2.5
G1 X7.56
G1 X7.54 Z0.9
G1 X7.5125
G0 Z3.0
G0 X12.4276 Y5.64
G1 F300.0 Z0.9
G1 F800.0 X12.42
G1 X12.4
G1 X12.38 Z2.5
G1 X7.62
G1 X7.6 Z0.9
G1 X7.5724
G0 Z3.0
G0 X12.3677 Y5.6
G1 F300.0 Z0.9
G1 F800.0 X12.36
G1 X12.34
G1 X12.32 Z2.5
G1 X7.68
G1 X7.66 Z0.9
G1 X7.6322
G0 Z3.0
G0 X12.3079 Y5.56
G1 F300.0 Z0.9
G1 F800.0 X12.3
G1 X12.28
G1 X12.26 Z2.5
G1 X7.74
G1 X7.72 Z0.9
G1 X7.6921
G0 Z3.0
G0 X12.248 Y5.52
G1 F300.0 Z0.9
G1 F800.0 X12.24
G1 X12.22
G1 X12.2 Z2.5
G1 X7.8
G1 X7.78 Z0.9
G1 X7.752
G0 Z3.0
G0 X12.1882 Y5.48
G1 F300.0 Z0.9
G1 F800.0 X12.18
G1 X12.16
G1 X12.14 Z2.5
G1 X7.86
G1 X7.84 Z0.9
G1 X7.8118
G0 Z3.0
G0 X12.1283 Y5.44
G1 F300.0 Z0.9
G1 F800.0 X12.12
G1 X12.1
G1 X12.08 Z2.5
G1 X7.92
G1 X7.9 Z0.9
G1 X7.8717
G0 Z3.0
G0 X12.0684 Y5.4
G1 F300.0 Z0.9
G1 F800.0 X12.06
G1 X12.04
G1 X12.02 Z2.5
G1 X7.98
G1 X7.96 Z0.9
G1 X7.9316
G0 Z3.0
G0 X12.0086 Y5.36
G1 F300.0 Z0.9
G1 F800.0 X12.0
G1 X11.98
G1 X11.96 Z2.5
G1 X8.04
G1 X8.02 Z0.9
G1 X7.9914
G0 Z3.0
G0 X11.9484 Y5.32
G1 F300.0 Z0.9
G1 F800.0 X11.94
G1 X11.84
G1 X11.82 Z2.5
G1 X8.18
G1 X8.16 Z0.9
G1 X8.0515
G0 Z3.0
G0 X11.7665 Y5.28
G1 F300.0 Z0.9
G1 F800.0 X11.76
G1 X11.64
G1 X11.62 Z2.5
G1 X8.38
G1 X8.36 Z0.9
G1 X8.2335
G0 Z3.0
G0 X11.5654 Y5.24
G1 F300.0 Z0.9
G1 F800.0 X11.56
G1 X11.44
G1 X11.42 Z2.5
G1 X8.58
G1 X8.56 Z0.9
G1 X8.4346
G0 Z3.0
G0 X11.3643 Y5.2
G1 F300.0 Z0.9
G1 F800.0 X11.36
G1 X11.24
G1 X11.22 Z2.5
G1 X8.78
G1 X8.76 Z0.9
G1 X8.6357
G0 Z3.0
G0 X11.1632 Y5.16
G1 F300.0 Z0.9
G1 F800.0 X11.16
G1 X11.04
G1 X11.02 Z2.5
G1 X8.98
G1 X8.96 Z0.9
G1 X8.8368
G0 Z3.0
G0 X10.9621 Y5.12
G1 F300.0 Z0.9
G1 F800.0 X10.96
G1 X10.84
G1 X10.82 Z2.5
G1 X9.18
G1 X9.16 Z0.9
G1 X9.0379
G0 Z3.0
G0 X10.761 Y5.08
G1 F300.0 Z0.9
G1 F800.0 X10.76
G1 X10.64
G1 X10.62 Z2.5
G1 X9.38
G1 X9.36 Z0.9
G1 X9.239
G0 Z3.0
G0 X10.5599 Y5.04
G1 F300.0 Z0.9
G1 F800.0 X10.54
G1 X10.44
G1 X10.42 Z2.5
G1 X9.58
G1 X9.56 Z0.9
G1 X9.4401
G0 Z3.0
G0 X10.3588 Y5.0
G1 F300.0 Z0.9
G1 F800.0 X10.34
G1 X10.24
G1 X10.22 Z2.5
G1 X9.78
G1 X9.76 Z0.9
G1 X9.6412
G0 Z3.0
G0 X10.1577 Y4.96
G1 F300.0 Z0.9
G1 F800.0 X10.14
G1 X10.04
G1 X10.02 Z2.5
G1 X9.98
G1 X9.96 Z0.9
G1 X9.8423
G0 Z3.0
G0 X9.9428 Y4.94
G1 F300.0 Z0.1
G1 F800.0 X10.04
G1 X10.0572
G0 Z3.0
G0 X9.7417 Y4.98
G1 F300.0 Z0.1
G1 F800.0 X9.86
G1 X9.88 Z2.5
G1 X10.12
G1 X10.14 Z0.1
G1 X10.24
G1 X10.2583
G0 Z3.0
G0 X9.5406 Y5.02
G1 F300.0 Z0.1
G1 F800.0 X9.66
G1 X9.68 Z2.5
G1 X10.32
G1 X10.34 Z0.1
G1 X10.44
G1 X10.4594
G0 Z3.0
G0 X9.3395 Y5.06
G1 F300.0 Z0.1
G1 F800.0 X9.46
G1 X9.48 Z2.5
G1 X10.52
G1 X10.54 Z0.1
G1 X10.66
G1 X10.6604
G0 Z3.0
G0 X9.1385 Y5.1
G1 F300.0 Z0.1
G1 F800.0 X9.26
G1 X9.28 Z2.5
G1 X10.72
G1 X10.74 Z0.1
G1 X10.86
G1 X10.8615
G0 Z3.0
G0 X8.9374 Y5.14
G1 F300.0 Z0.1
G1 F800.0 X9.06
G1 X9.08 Z2.5
G1 X10.92
G1 X10.94 Z0.1
G1 X11.06
G1 X11.0626
G0 Z3.0
G0 X8.7363 Y5.18
G1 F300.0 Z0.1
G1 F800.0 X8.86
G1 X8.88 Z2.5
G1 X11.12
G1 X11.14 Z0.1
G1 X11.26
G1 X11.2637
G0 Z3.0
G0 X8.5352 Y5.22
G1 F300.0 Z0.1
G1 F800.0 X8.66
G1 X8.68 Z2.5
G1 X11.32
G1 X11.34 Z0.1
G1 X11.46
G1 X11.4648
G0 Z3.0
G0 X8.3341 Y5.26
G1 F300.0 Z0.1
G1 F800.0 X8.46
G1 X8.48 Z2.5
G1 X11.52
G1 X11.54 Z0.1
G1 X11.66
G1 X11.6659
G0 Z3.0
G0 X8.133 Y5.3
G1 F300.0 Z0.1
G1 F800.0 X8.26
G1 X8.28 Z2.5
G1 X11.72
G1 X11.74 Z0.1
G1 X11.86
G1 X11.867
G0 Z3.0
G0 X8.0213 Y5.34
G1 F300.0 Z0.1
G1 F800.0 X8.06
G1 X8.08 Z2.5
G1 X11.92
G1 X11.94 Z0.1
G1 X11.96
G1 X11.9786
G0 Z3.0
G0 X7.9615 Y5.38
G1 F300.0 Z0.1
G1 F800.0 X8.0
G1 X8.02 Z2.5
G1 X11.98
G1 X12.0 Z0.1
G1 X12.02
G1 X12.0385
G0 Z3.0
G0 X7.9016 Y5.42
G1 F300.0 Z0.1
G1 F800.0 X7.94
G1 X7.96 Z2.5
G1 X12.04
G1 X12.06 Z0.1
G1 X12.08
G1 X12.0984
G0 Z3.0
G0 X7.8418 Y5.46
G1 F300.0 Z0.1
G1 F800.0 X7.88
G1 X7.9 Z2.5
G1 X12.1
G1 X12.12 Z0.1
G1 X12.14
G1 X12.1582
G0 Z3.0
G0 X7.7819 Y5.5
G1 F300.0 Z0.1
G1 F800.0 X7.82
G1 X7.84 Z2.5
G1 X12.16
G1 X12.18 Z0.1
G1 X12.2
G1 X12.2181
G0 Z3.0
G0 X7.722 Y5.54
G1 F300.0 Z0.1
G1 F800.0 X7.76
G1 X7.78 Z2.5
G1 X12.22
G1 X12.24 Z0.1
G1 X12.26
G1 X12.278
G0 Z3.0
G0 X7.6622 Y5.58
G1 F300.0 Z0.1
G1 F800.0 X7.7
G1 X7.72 Z2.5
G1 X12.28
G1 X12.3 Z0.1
G1 X12.32
G1 X12.3378
G0 Z3.0
G0 X7.6023 Y5.62
G1 F300.0 Z0.1
G1 F800.0 X7.64
G1 X7.66 Z2.5
G1 X12.34
G1 X12.36 Z0.1
G1 X12.38
G1 X12.3977
G0 Z3.0
G0 X7.5424 Y5.66
G1 F300.0 Z0.1
G1 F800.0 X7.58
G1 X7.6 Z2.5
G1 X12.4
G1 X12.42 Z0.1
G1 X12.44
G1 X12.4575
G0 Z3.0
G0 X7.4826 Y5.7
G1 F300.0 Z0.1
G1 F800.0 X7.52
G1 X7.54 Z2.5
G1 X12.46
G1 X12.48 Z0.1
G1 X12.5
G1 X12.5174
G0 Z3.0
G0 X7.4227 Y5.74
G1 F300.0 Z0.1
G1 F800.0 X7.46
G1 X7.48 Z2.5
G1 X12.52
G1 X12.54 Z0.1
G1 X12.56
G1 X12.5773
G0 Z3.0
G0 X7.3628 Y5.78
G1 F300.0 Z0.1
G1 F800.0 X7.4
G1 X7.42 Z2.5
G1 X12.58
G1 X12.6 Z0.1
G1 X12.62
G1 X12.6371
G0 Z3.0
G0 X7.303 Y5.82
G1 F300.0 Z0.1
G1 F800.0 X7.34
G1 X7.36 Z2.5
G1 X12.64
G1 X12.66 Z0.1
G1 X12.68
G1 X12.697
G0 Z3.0
G0 X7.2431 Y5.86
G1 F300.0 Z0.1
G1 F800.0 X7.28
G1 X7.3 Z2.5
G1 X12.7
G1 X12.72 Z0.1
G1 X12.74
G1 X12.7569
G0 Z3.0
G0 X7.1833 Y5.9
G1 F300.0 Z0.1
G1 F800.0 X7.22
G1 X7.24 Z2.5
G1 X12.76
G1 X12.78 Z0.1
G1 X12.8
G1 X12.8167
G0 Z3.0
G0 X7.1234 Y5.94
G1 F300.0 Z0.1
G1 F800.0 X7.16
G1 X7.18 Z2.5
G1 X12.82
G1 X12.84 Z0.1
G1 X12.86
G1 X12.8766
G0 Z3.0
G0 X7.0635 Y5.98
G1 F300.0 Z0.1
G1 F800.0 X7.1
G1 X7.12 Z2.5
G1 X12.88
G1 X12.9 Z0.1
G1 X12.92
G1 X12.9364
G0 Z3.0
G0 X7.0037 Y6.02
G1 F300.0 Z0.1
G1 F800.0 X7.04
G1 X7.06 Z2.5
G1 X12.94
G1 X12.96 Z0.1
G1 X12.98
G1 X12.9963
G0 Z3.0
G0 X6.9438 Y6.06
G1 F300.0 Z0.1
G1 F800.0 X6.98
G1 X7.0 Z2.5
G1 X13.0
G1 X13.02 Z0.1
G1 X13.04
G1 X13.0562
G0 Z3.0
G0 X6.8839 Y6.1
G1 F300.0 Z0.1
G1 F800.0 X6.92
G1 X6.94 Z2.5
G1 X13.06
G1 X13.08 Z0.1
G1 X13.1
G1 X13.116
G0 Z3.0
G0 X6.8241 Y6.14
G1 F300.0 Z0.1
G1 F800.0 X6.86
G1 X6.88 Z2.5
G1 X13.12
G1 X13.14 Z0.1
G1 X13.16
G1 X13.1759
G0 Z3.0
G0 X6.7642 Y6.18
G1 F300.0 Z0.1
G1 F800.0 X6.8
G1 X6.82 Z2.5
G1 X13.18
G1 X13.2 Z0.1
G1 X13.22
G1 X13.2358
G0 Z3.0
G0 X6.7043 Y6.22
G1 F300.0 Z0.1
G1 F800.0 X6.74
G1 X6.76 Z2.5
G1 X13.24
G1 X13.26 Z0.1
G1 X13.28
G1 X13.2956
G0 Z3.0
G0 X6.6445 Y6.26
G1 F300.0 Z0.1
G1 F800.0 X6.68
G1 X6.7 Z2.5
G1 X13.3
G1 X13.32 Z0.1
G1 X13.34
G1 X13.3555
G0 Z3.0
G0 X6.5846 Y6.3
G1 F300.0 Z0.1
G1 F800.0 X6.62
G1 X6.64 Z2.5
G1 X13.36
G1 X13.38 Z0.1
G1 X13.4
G1 X13.4154
G0 Z3.0
G0 X6.5248 Y6.34
G1 F300.0 Z0.1
G1 F800.0 X6.56
G1 X6.58 Z2.5
G1 X13.42
G1 X13.44 Z0.1
G1 X13.46
G1 X13.4752
G0 Z3.0
G0 X6.4649 Y6.38
G1 F300.0 Z0.1
G1 F800.0 X6.5
G1 X6.52 Z2.5
G1 X13.48
G1 X13.5 Z0.1
G1 X13.52
G1 X13.5351
G0 Z3.0
G0 X6.4104 Y6.42
G1 F300.0 Z0.1
G1 F800.0 X6.44
G1 X6.46 Z2.5
G1 X13.54
G1 X13.56 Z0.1
G1 X13.58
G1 X13.5896
G0 Z3.0
G0 X6.3833 Y6.46
G1 F300.0 Z0.1
G1 F800.0 X6.42
G1 X6.44 Z2.5
G1 X13.56
G1 X13.58 Z0.1
G1 X13.6
G1 X13.6167
G0 Z3.0
G0 X6.3565 Y6.5
G1 F300.0 Z0.1
G1 F800.0 X6.38
G1 X6.4 Z2.5
G1 X13.6
G1 X13.62 Z0.1
G1 X13.64
G1 X13.6434
G0 Z3.0
G0 X6.3298 Y6.54
G1 F300.0 Z0.1
G1 F800.0 X6.36
G1 X6.38 Z2.5
G1 X13.62
G1 X13.64 Z0.1
G1 X13.66
G1 X13.6702
G0 Z3.0
G0 X6.3031 Y6.58
G1 F300.0 Z0.1
G1 F800.0 X6.34
G1 X6.36 Z2.5
G1 X13.64
G1 X13.66 Z0.1
G1 X13.68
G1 X13.6969
G0 Z3.0
G0 X6.2764 Y6.62
G1 F300.0 Z0.1
G1 F800.0 X6.3
G1 X6.32 Z2.5
G1 X13.68
G1 X13.7 Z0.1
G1 X13.72
G1 X13.7236
G0 Z3.0
G0 X6.2496 Y6.66
G1 F300.0 Z0.1
G1 F800.0 X6.28
G1 X6.3 Z2.5
G1 X13.7
G1 X13.72 Z0.1
G1 X13.74
G1 X13.7503
G0 Z3.0
G0 X6.2229 Y6.7
G1 F300.0 Z0.1
G1 F800.0 X6.26
G1 X6.28 Z2.5
G1 X13.72
G1 X13.74 Z0.1
G1 X13.76
G1 X13.7771
G0 Z3.0
G0 X6.1962 Y6.74
G1 F300.0 Z0.1
G1 F800.0 X6.22
G1 X6.24 Z2.5
G1 X13.76
G1 X13.78 Z0.1
G1 X13.8
G1 X13.8038
G0 Z3.0
G0 X6.1694 Y6.78
G1 F300.0 Z0.1
G1 F800.0 X6.2
G1 X6.22 Z2.5
G1 X13.78
G1 X13.8 Z0.1
G1 X13.82
G1 X13.8305
G0 Z3.0
G0 X6.1427 Y6.82
G1 F300.0 Z0.1
G1 F800.0 X6.18
G1 X6.2 Z2.5
G1 X13.8
G1 X13.82 Z0.1
G1 X13.84
G1 X13.8573
G0 Z3.0
G0 X6.116 Y6.86
G1 F300.0 Z0.1
G1 F800.0 X6.14
G1 X6.16 Z2.5
G1 X13.84
G1 X13.86 Z0.1
G1 X13.88
G1 X13.884
G0 Z3.0
G0 X6.0893 Y6.9
G1 F300.0 Z0.1
G1 F800.0 X6.12
G1 X6.14 Z2.5
G1 X13.86
G1 X13.88 Z0.1
G1 X13.9
G1 X13.9107
G0 Z3.0
G0 X6.0625 Y6.94
G1 F300.0 Z0.1
G1 F800.0 X6.1
G1 X6.12 Z2.5
G1 X13.88
G1 X13.9 Z0.1
G1 X13.92
G1 X13.9374
G0 Z3.0
G0 X6.0358 Y6.98
G1 F300.0 Z0.1
G1 F800.0 X6.06
G1 X6.08 Z2.5
G1 X13.92
G1 X13.94 Z0.1
G1 X13.96
G1 X13.9642
G0 Z3.0
G0 X6.0091 Y7.02
G1 F300.0 Z0.1
G1 F800.0 X6.04
G1 X6.06 Z2.5
G1 X13.94
G1 X13.96 Z0.1
G1 X13.98
G1 X13.9909
G0 Z3.0
G0 X5.9824 Y7.06
G1 F300.0 Z0.1
G1 F800.0 X6.0
G1 X6.02 Z2.5
G1 X13.98
G1 X14.0 Z0.1
G1 X14.0176
G0 Z3.0
G0 X5.9556 Y7.1
G1 F300.0 Z0.1
G1 F800.0 X5.98
G1 X6.0 Z2.5
G1 X14.0
G1 X14.02 Z0.1
G1 X14.04
G1 X14.0444
G0 Z3.0
G0 X5.9289 Y7.14
G1 F300.0 Z0.1
G1 F800.0 X5.96
G1 X5.98 Z2.5
G1 X14.02
G1 X14.04 Z0.1
G1 X14.06
G1 X14.0711
G0 Z3.0
G0 X5.9022 Y7.18
G1 F300.0 Z0.1
G1 F800.0 X5.92
G1 X5.94 Z2.5
G1 X14.06
G1 X14.08 Z0.1
G1 X14.0978
G0 Z3.0
G0 X5.8754 Y7.22
G1 F300.0 Z0.1
G1 F800.0 X5.9
G1 X5.92 Z2.5
G1 X14.08
G1 X14.1 Z0.1
G1 X14.12
G1 X14.1245
G0 Z3.0
G0 X5.8487 Y7.26
G1 F300.0 Z0.1
G1 F800.0 X5.88
G1 X5.9 Z2.5
G1 X14.1
G1 X14.12 Z0.1
G1 X14.14
G1 X14.1513
G0 Z3.0
G0 X5.822 Y7.3
G1 F300.0 Z0.1
G1 F800.0 X5.84
G1 X5.86 Z2.5
G1 X14.14
G1 X14.16 Z0.1
G1 X14.178
G0 Z3.0
G0 X5.7953 Y7.34
G1 F300.0 Z0.1
G1 F800.0 X5.82
G1 X5.84 Z2.5
G1 X14.16
G1 X14.18 Z0.1
G1 X14.2
G1 X14.2047
G0 Z3.0
G0 X5.7685 Y7.38
G1 F300.0 Z0.1
G1 F800.0 X5.8
G1 X5.82 Z2.5
G1 X14.18
G1 X14.2 Z0.1
G1 X14.22
G1 X14.2314
G0 Z3.0
G0 X5.7418 Y7.42
G1 F300.0 Z0.1
G1 F800.0 X5.76
G1 X5.78 Z2.5
G1 X14.22
G1 X14.24 Z0.1
G1 X14.2582
G0 Z3.0
G0 X5.7151 Y7.46
G1 F300.0 Z0.1
G1 F800.0 X5.74
G1 X5.76 Z2.5
G1 X14.24
G1 X14.26 Z0.1
G1 X14.28
G1 X14.2849
G0 Z3.0
G0 X5.6884 Y7.5
G1 F300.0 Z0.1
G1 F800.0 X5.72
G1 X5.74 Z2.5
G1 X14.26
G1 X14.28 Z0.1
G1 X14.3
G1 X14.3116
G0 Z3.0
G0 X5.6616 Y7.54
G1 F300.0 Z0.1
G1 F800.0 X5.68
G1 X5.7 Z2.5
G1 X14.3
G1 X14.32 Z0.1
G1 X14.3384
G0 Z3.0
G0 X5.6349 Y7.58
G1 F300.0 Z0.1
G1 F800.0 X5.66
G1 X5.68 Z2.5
G1 X14.32
G1 X14.34 Z0.1
G1 X14.36
G1 X14.3651
G0 Z3.0
G0 X5.6082 Y7.62
G1 F300.0 Z0.1
G1 F800.0 X5.64
G1 X5.66 Z2.5
G1 X14.34
G1 X14.36 Z0.1
G1 X14.38
G1 X14.3918
G0 Z3.0
G0 X5.5814 Y7.66
G1 F300.0 Z0.1
G1 F800.0 X5.6
G1 X5.62 Z2.5
G1 X14.38
G1 X14.4 Z0.1
G1 X14.4185
G0 Z3.0
G0 X5.5547 Y7.7
G1 F300.0 Z0.1
G1 F800.0 X5.58
G1 X5.6 Z2.5
G1 X14.4
G1 X14.42 Z0.1
G1 X14.44
G1 X14.4453
G0 Z3.0
G0 X5.528 Y7.74
G1 F300.0 Z0.1
G1 F800.0 X5.56
G1 X5.58 Z2.5
G1 X14.42
G1 X14.44 Z0.1
G1 X14.46
G1 X14.472
G0 Z3.0
G0 X5.5013 Y7.78
G1 F300.0 Z0.1
G1 F800.0 X5.52
G1 X5.54 Z2.5
G1 X14.46
G1 X14.48 Z0.1
G1 X14.4987
G0 Z3.0
G0 X5.4745 Y7.82
G1 F300.0 Z0.1
G1 F800.0 X5.5
G1 X5.52 Z2.5
G1 X14.48
G1 X14.5 Z0.1
G1 X14.52
G1 X14.5255
G0 Z3.0
G0 X5.4478 Y7.86
G1 F300.0 Z0.1
G1 F800.0 X5.48
G1 X5.5 Z2.5
G1 X14.5
G1 X14.52 Z0.1
G1 X14.54
G1 X14.5522
G0 Z3.0
G0 X5.4211 Y7.9
G1 F300.0 Z0.1
G1 F800.0 X5.44
G1 X5.46 Z2.5
G1 X14.54
G1 X14.56 Z0.1
G1 X14.5789
G0 Z3.0
G0 X5.3944 Y7.94
G1 F300.0 Z0.1
G1 F800.0 X5.42
G1 X5.44 Z2.5
G1 X14.56
G1 X14.58 Z0.1
G1 X14.6
G1 X14.6056
G0 Z3.0
G0 X5.3676 Y7.98
G1 F300.0 Z0.1
G1 F800.0 X5.4
G1 X5.42 Z2.5
G1 X14.58
G1 X14.6 Z0.1
G1 X14.62
G1 X14.6324
G0 Z3.0
G0 X5.3409 Y8.02
G1 F300.0 Z0.1
G1 F800.0 X5.36
G1 X5.38 Z2.5
G1 X14.62
G1 X14.64 Z0.1
G1 X14.6591
G0 Z3.0
G0 X5.3158 Y8.06
G1 F300.0 Z0.1
G1 F800.0 X5.34
G1 X5.36 Z2.5
G1 X14.64
G1 X14.66 Z0.1
G1 X14.68
G1 X14.6842
G0 Z3.0
G0 X5.3066 Y8.1
G1 F300.0 Z0.1
G1 F800.0 X5.32
G1 X5.34 Z2.5
G1 X14.66
G1 X14.68 Z0.1
G1 X14.6934
G0 Z3.0
G0 X5.2986 Y8.14
G1 F300.0 Z0.1
G1 F800.0 X5.32
G1 X5.34 Z2.5
G1 X14.66
G1 X14.68 Z0.1
G1 X14.7
G1 X14.7014
G0 Z3.0
G0 X5.2906 Y8.18
G1 F300.0 Z0.1
G1 F800.0 X5.32
G1 X5.34 Z2.5
G1 X14.66
G1 X14.68 Z0.1
G1 X14.7
G1 X14.7094
G0 Z3.0
G0 X5.2827 Y8.22
G1 F300.0 Z0.1
G1 F800.0 X5.3
G1 X5.32 Z2.5
G1 X14.68
G1 X14.7 Z0.1
G1 X14.7173
G0 Z3.0
G0 X5.2747 Y8.26
G1 F300.0 Z0.1
G1 F800.0 X5.3
G1 X5.32 Z2.5
G1 X14.68
G1 X14.7 Z0.1
G1 X14.72
G1 X14.7253
G0 Z3.0
G0 X5.2668 Y8.3
G1 F300.0 Z0.1
G1 F800.0 X5.28
G1 X5.3 Z2.5
G1 X14.7
G1 X14.72 Z0.1
G1 X14.7332
G0 Z3.0
G0 X5.2588 Y8.34
G1 F300.0 Z0.1
G1 F800.0 X5.28
G1 X5.3 Z2.5
G1 X14.7
G1 X14.72 Z0.1
G1 X14.74
G1 X14.7412
G0 Z3.0
G0 X5.2509 Y8.38
G1 F300.0 Z0.1
G1 F800.0 X5.28
G1 X5.3 Z2.5
G1 X14.7
G1 X14.72 Z0.1
G1 X14.74
G1 X14.7491
G0 Z3.0
G0 X5.2429 Y8.42
G1 F300.0 Z0.1
G1 F800.0 X5.26
G1 X5.28 Z2.5
G1 X14.72
G1 X14.74 Z0.1
G1 X14.7571
G0 Z3.0
G0 X5.235 Y8.46
G1 F300.0 Z0.1
G1 F800.0 X5.26
G1 X5.28 Z2.5
G1 X14.72
G1 X14.74 Z0.1
G1 X14.76
G1 X14.765
G0 Z3.0
G0 X5.227 Y8.5
G1 F300.0 Z0.1
G1 F800.0 X5.24
G1 X5.26 Z2.5
G1 X14.74
G1 X14.76 Z0.1
G1 X14.773
G0 Z3.0
G0 X5.219 Y8.54
G1 F300.0 Z0.1
G1 F800.0 X5.24
G1 X5.26 Z2.5
G1 X14.74
G1 X14.76 Z0.1
G1 X14.78
G1 X14.781
G0 Z3.0
G0 X5.2111 Y8.58
G1 F300.0 Z0.1
G1 F800.0 X5.24
G1 X5.26 Z2.5
G1 X14.74
G1 X14.76 Z0.1
G1 X14.78
G1 X14.7889
G0 Z3.0
G0 X5.2031 Y8.62
G1 F300.0 Z0.1
G1 F800.0 X5.22
G1 X5.24 Z2.5
G1 X14.76
G1 X14.78 Z0.1
G1 X14.7969
G0 Z3.0
G0 X5.1952 Y8.66
G1 F300.0 Z0.1
G1 F800.0 X5.22
G1 X5.24 Z2.5
G1 X14.76
G1 X14.78 Z0.1
G1 X14.8
G1 X14.8048
G0 Z3.0
G0 X5.1872 Y8.7
G1 F300.0 Z0.1
G1 F800.0 X5.2
G1 X5.22 Z2.5
G1 X14.78
G1 X14.8 Z0.1
G1 X14.8128
G0 Z3.0
G0 X5.1793 Y8.74
G1 F300.0 Z0.1
G1 F800.0 X5.2
G1 X5.22 Z2.5
G1 X14.78
G1 X14.8 Z0.1
G1 X14.82
G1 X14.8207
G0 Z3.0
G0 X5.1713 Y8.78
G1 F300.0 Z0.1
G1 F800.0 X5.2
G1 X5.22 Z2.5
G1 X14.78
G1 X14.8 Z0.1
G1 X14.82
G1 X14.8287
G0 Z3.0
G0 X5.1633 Y8.82
G1 F300.0 Z0.1
G1 F800.0 X5.18
G1 X5.2 Z2.5
G1 X14.8
G1 X14.82 Z0.1
G1 X14.8367
G0 Z3.0
G0 X5.1554 Y8.86
G1 F300.0 Z0.1
G1 F800.0 X5.18
G1 X5.2 Z2.5
G1 X14.8
G1 X14.82 Z0.1
G1 X14.84
G1 X14.8446
G0 Z3.0
G0 X5.1474 Y8.9
G1 F300.0 Z0.1
G1 F800.0 X5.16
G1 X5.18 Z2.5
G1 X14.82
G1 X14.84 Z0.1
G1 X14.8526
G0 Z3.0
G0 X5.1395 Y8.94
G1 F300.0 Z0.1
G1 F800.0 X5.16
G1 X5.18 Z2.5
G1 X14.82
G1 X14.84 Z0.1
G1 X14.86
G1 X14.8605
G0 Z3.0
G0 X5.1315 Y8.98
G1 F300.0 Z0.1
G1 F800.0 X5.16
G1 X5.18 Z2.5
G1 X14.82
G1 X14.84 Z0.1
G1 X14.86
G1 X14.8685
G0 Z3.0
G0 X5.1236 Y9.02
G1 F300.0 Z0.1
G1 F800.0 X5.14
G1 X5.16 Z2.5
G1 X14.84
G1 X14.86 Z0.1
G1 X14.8764
G0 Z3.0
G0 X5.1156 Y9.06
G1 F300.0 Z0.1
G1 F800.0 X5.14
G1 X5.16 Z2.5
G1 X14.84
G1 X14.86 Z0.1
G1 X14.88
G1 X14.8844
G0 Z3.0
G0 X5.1076 Y9.1
G1 F300.0 Z0.1
G1 F800.0 X5.12
G1 X5.14 Z2.5
G1 X14.86
G1 X14.88 Z0.1
G1 X14.8924
G0 Z3.0
G0 X5.0997 Y9.14
G1 F300.0 Z0.1
G1 F800.0 X5.12
G1 X5.14 Z2.5
G1 X14.86
G1 X14.88 Z0.1
G1 X14.9
G1 X14.9003
G0 Z3.0
G0 X5.0917 Y9.18
G1 F300.0 Z0.1
G1 F800.0 X5.12
G1 X5.14 Z2.5
G1 X14.86
G1 X14.88 Z0.1
G1 X14.9
G1 X14.9083
G0 Z3.0
G0 X5.0838 Y9.22
G1 F300.0 Z0.1
G1 F800.0 X5.1
G1 X5.12 Z2.5
G1 X14.88
G1 X14.9 Z0.1
G1 X14.9162
G0 Z3.0
G0 X5.0758 Y9.26
G1 F300.0 Z0.1
G1 F800.0 X5.1
G1 X5.12 Z2.5
G1 X14.88
G1 X14.9 Z0.1
G1 X14.92
G1 X14.9242
G0 Z3.0
G0 X5.0679 Y9.3
G1 F300.0 Z0.1
G1 F800.0 X5.08
G1 X5.1 Z2.5
G1 X14.9
G1 X14.92 Z0.1
G1 X14.9321
G0 Z3.0
G0 X5.0599 Y9.34
G1 F300.0 Z0.1
G1 F800.0 X5.08
G1 X5.1 Z2.5
G1 X14.9
G1 X14.92 Z0.1
G1 X14.94
G1 X14.9401
G0 Z3.0
G0 X5.052 Y9.38
G1 F300.0 Z0.1
G1 F800.0 X5.08
G1 X5.1 Z2.5
G1 X14.9
G1 X14.92 Z0.1
G1 X14.94
G1 X14.948
G0 Z3.0
G0 X5.044 Y9.42
G1 F300.0 Z0.1
G1 F800.0 X5.06
G1 X5.08 Z2.5
G1 X14.92
G1 X14.94 Z0.1
G1 X14.956
G0 Z3.0
G0 X5.036 Y9.46
G1 F300.0 Z0.1
G1 F800.0 X5.06
G1 X5.08 Z2.5
G1 X14.92
G1 X14.94 Z0.1
G1 X14.96
G1 X14.964
G0 Z3.0
G0 X5.0281 Y9.5
G1 F300.0 Z0.1
G1 F800.0 X5.04
G1 X5.06 Z2.5
G1 X14.94
G1 X14.96 Z0.1
G1 X14.9719
G0 Z3.0
G0 X5.0201 Y9.54
G1 F300.0 Z0.1
G1 F800.0 X5.04
G1 X5.06 Z2.5
G1 X14.94
G1 X14.96 Z0.1
G1 X14.9799
G0 Z3.0
G0 X5.0122 Y9.58
G1 F300.0 Z0.1
G1 F800.0 X5.04
G1 X5.06 Z2.5
G1 X14.94
G1 X14.96 Z0.1
G1 X14.98
G1 X14.9878
G0 Z3.0
G0 X5.0042 Y9.62
G1 F300.0 Z0.1
G1 F800.0 X5.02
G1 X5.04 Z2.5
G1 X14.96
G1 X14.98 Z0.1
G1 X14.9958
G0 Z3.0
G0 X4.9963 Y9.66
G1 F300.0 Z0.1
G1 F800.0 X5.02
G1 X5.04 Z2.5
G1 X14.96
G1 X14.98 Z0.1
G1 X15.0
G1 X15.0037
G0 Z3.0
G0 X4.9883 Y9.7
G1 F300.0 Z0.1
G1 F800.0 X5.0
G1 X5.02 Z2.5
G1 X14.98
G1 X15.0 Z0.1
G1 X15.0117
G0 Z3.0
G0 X4.9803 Y9.74
G1 F300.0 Z0.1
G1 F800.0 X5.0
G1 X5.02 Z2.5
G1 X14.98
G1 X15.0 Z0.1
G1 X15.0197
G0 Z3.0
G0 X4.9724 Y9.78
G1 F300.0 Z0.1
G1 F800.0 X5.0
G1 X5.02 Z2.5
G1 X14.98
G1 X15.0 Z0.1
G1 X15.02
G1 X15.0276
G0 Z3.0
G0 X4.9644 Y9.82
G1 F300.0 Z0.1
G1 F800.0 X4.98
G1 X5.0 Z2.5
G1 X15.0
G1 X15.02 Z0.1
G1 X15.0356
G0 Z3.0
G0 X4.9565 Y9.86
G1 F300.0 Z0.1
G1 F800.0 X4.98
G1 X5.0 Z2.5
G1 X15.0
G1 X15.02 Z0.1
G1 X15.04
G1 X15.0435
G0 Z3.0
G0 X4.9485 Y9.9
G1 F300.0 Z0.1
G1 F800.0 X4.96
G1 X4.98 Z2.5
G1 X15.02
G1 X15.04 Z0.1
G1 X15.0515
G0 Z3.0
G0 X4.9406 Y9.94
G1 F300.0 Z0.1
G1 F800.0 X4.96
G1 X4.98 Z2.5
G1 X15.02
G1 X15.04 Z0.1
G1 X15.0594
G0 Z3.0
G0 X4.9326 Y9.98
G1 F300.0 Z0.1
G1 F800.0 X4.96
G1 X4.98 Z2.5
G1 X15.02
G1 X15.04 Z0.1
G1 X15.06
G1 X15.0674
G0 Z3.0
G0 X4.9326 Y10.02
G1 F300.0 Z0.1
G1 F800.0 X4.96
G1 X4.98 Z2.5
G1 X15.02
G1 X15.04 Z0.1
G1 X15.06
G1 X15.0674
G0 Z3.0
G0 X4.9406 Y10.06
G1 F300.0 Z0.1
G1 F800.0 X4.96
G1 X4.98 Z2.5
G1 X15.02
G1 X15.04 Z0.1
G1 X15.0594
G0 Z3.0
G0 X4.9485 Y10.1
G1 F300.0 Z0.1
G1 F800.0 X4.96
G1 X4.98 Z2.5
G1 X15.02
G1 X15.04 Z0.1
G1 X15.0515
G0 Z3.0
G0 X4.9565 Y10.14
G1 F300.0 Z0.1
G1 F800.0 X4.98
G1 X5.0 Z2.5
G1 X15.0
G1 X15.02 Z0.1
G1 X15.04
G1 X15.0435
G0 Z3.0
G0 X4.9644 Y10.18
G1 F300.0 Z0.1
G1 F800.0 X4.98
G1 X5.0 Z2.5
G1 X15.0
G1 X15.02 Z0.1
G1 X15.0356
G0 Z3.0
G0 X4.9724 Y10.22
G1 F300.0 Z0.1
G1 F800.0 X5.0
G1 X5.02 Z2.5
G1 X14.98
G1 X15.0 Z0.1
G1 X15.02
G1 X15.0276
G0 Z3.0
G0 X4.9803 Y10.26
G1 F300.0 Z0.1
G1 F800.0 X5.0
G1 X5.02 Z2.5
G1 X14.98
G1 X15.0 Z0.1
G1 X15.0197
G0 Z3.0
G0 X4.9883 Y10.3
G1 F300.0 Z0.1
G1 F800.0 X5.0
G1 X5.02 Z2.5
G1 X14.98
G1 X15.0 Z0.1
G1 X15.0117
G0 Z3.0
G0 X4.9963 Y10.34
G1 F300.0 Z0.1
G1 F800.0 X5.02
G1 X5.04 Z2.5
G1 X14.96
G1 X14.98 Z0.1
G1 X15.0
G1 X15.0037
G0 Z3.0
G0 X5.0042 Y10.38
G1 F300.0 Z0.1
G1 F800.0 X5.02
G1 X5.04 Z2.5
G1 X14.96
G1 X14.98 Z0.1
G1 X14.9958
G0 Z3.0
G0 X5.0122 Y10.42
G1 F300.0 Z0.1
G1 F800.0 X5.04
G1 X5.06 Z2.5
G1 X14.94
G1 X14.96 Z0.1
G1 X14.98
G1 X14.9878
G0 Z3.0
G0 X5.0201 Y10.46
G1 F300.0 Z0.1
G1 F800.0 X5.04
G1 X5.06 Z2.5
G1 X14.94
G1 X14.96 Z0.1
G1 X14.9799
G0 Z3.0
G0 X5.0281 Y10.5
G1 F300.0 Z0.1
G1 F800.0 X5.04
G1 X5.06 Z2.5
G1 X14.94
G1 X14.96 Z0.1
G1 X14.9719
G0 Z3.0
G0 X5.036 Y10.54
G1 F300.0 Z0.1
G1 F800.0 X5.06
G1 X5.08 Z2.5
G1 X14.92
G1 X14.94 Z0.1
G1 X14.96
G1 X14.964
G0 Z3.0
G0 X5.044 Y10.58
G1 F300.0 Z0.1
G1 F800.0 X5.06
G1 X5.08 Z2.5
G1 X14.92
G1 X14.94 Z0.1
G1 X14.956
G0 Z3.0
G0 X5.052 Y10.62
G1 F300.0 Z0.1
G1 F800.0 X5.08
G1 X5.1 Z2.5
G1 X14.9
G1 X14.92 Z0.1
G1 X14.94
G1 X14.948
G0 Z3.0
G0 X5.0599 Y10.66
G1 F300.0 Z0.1
G1 F800.0 X5.08
G1 X5.1 Z2.5
G1 X14.9
G1 X14.92 Z0.1
G1 X14.94
G1 X14.9401
G0 Z3.0
G0 X5.0679 Y10.7
G1 F300.0 Z0.1
G1 F800.0 X5.08
G1 X5.1 Z2.5
G1 X14.9
G1 X14.92 Z0.1
G1 X14.9321
G0 Z3.0
G0 X5.0758 Y10.74
G1 F300.0 Z0.1
G1 F800.0 X5.1
G1 X5.12 Z2.5
G1 X14.88
G1 X14.9 Z0.1
G1 X14.92
G1 X14.9242
G0 Z3.0
G0 X5.0838 Y10.78
G1 F300.0 Z0.1
G1 F800.0 X5.1
G1 X5.12 Z2.5
G1 X14.88
G1 X14.9 Z0.1
G1 X14.9162
G0 Z3.0
G0 X5.0917 Y10.82
G1 F300.0 Z0.1
G1 F800.0 X5.12
G1 X5.14 Z2.5
G1 X14.86
G1 X14.88 Z0.1
G1 X14.9
G1 X14.9083
G0 Z3.0
G0 X5.0997 Y10.86
G1 F300.0 Z0.1
G1 F800.0 X5.12
G1 X5.14 Z2.5
G1 X14.86
G1 X14.88 Z0.1
G1 X14.9
G1 X14.9003
G0 Z3.0
G0 X5.1077 Y10.9
G1 F300.0 Z0.1
G1 F800.0 X5.12
G1 X5.14 Z2.5
G1 X14.86
G1 X14.88 Z0.1
G1 X14.8923
G0 Z3.0
G0 X5.1156 Y10.94
G1 F300.0 Z0.1
G1 F800.0 X5.14
G1 X5.16 Z2.5
G1 X14.84
G1 X14.86 Z0.1
G1 X14.88
G1 X14.8844
G0 Z3.0
G0 X5.1236 Y10.98
G1 F300.0 Z0.1
G1 F800.0 X5.14
G1 X5.16 Z2.5
G1 X14.84
G1 X14.86 Z0.1
G1 X14.8764
G0 Z3.0
G0 X5.1315 Y11.02
G1 F300.0 Z0.1
G1 F800.0 X5.16
G1 X5.18 Z2.5
G1 X14.82
G1 X14.84 Z0.1
G1 X14.86
G1 X14.8685
G0 Z3.0
G0 X5.1395 Y11.06
G1 F300.0 Z0.1
G1 F800.0 X5.16
G1 X5.18 Z2.5
G1 X14.82
G1 X14.84 Z0.1
G1 X14.86
G1 X14.8605
G0 Z3.0
G0 X5.1474 Y11.1
G1 F300.0 Z0.1
G1 F800.0 X5.16
G1 X5.18 Z2.5
G1 X14.82
G1 X14.84 Z0.1
G1 X14.8526
G0 Z3.0
G0 X5.1554 Y11.14
G1 F300.0 Z0.1
G1 F800.0 X5.18
G1 X5.2 Z2.5
G1 X14.8
G1 X14.82 Z0.1
G1 X14.84
G1 X14.8446
G0 Z3.0
G0 X5.1633 Y11.18
G1 F300.0 Z0.1
G1 F800.0 X5.18
G1 X5.2 Z2.5
G1 X14.8
G1 X14.82 Z0.1
G1 X14.8367
G0 Z3.0
G0 X5.1713 Y11.22
G1 F300.0 Z0.1
G1 F800.0 X5.2
G1 X5.22 Z2.5
G1 X14.78
G1 X14.8 Z0.1
G1 X14.82
G1 X14.8287
G0 Z3.0
G0 X5.1793 Y11.26
G1 F300.0 Z0.1
G1 F800.0 X5.2
G1 X5.22 Z2.5
G1 X14.78
G1 X14.8 Z0.1
G1 X14.82
G1 X14.8207
G0 Z3.0
G0 X5.1872 Y11.3
G1 F300.0 Z0.1
G1 F800.0 X5.2
G1 X5.22 Z2.5
G1 X14.78
G1 X14.8 Z0.1
G1 X14.8128
G0 Z3.0
G0 X5.1952 Y11.34
G1 F300.0 Z0.1
G1 F800.0 X5.22
G1 X5.24 Z2.5
G1 X14.76
G1 X14.78 Z0.1
G1 X14.8
G1 X14.8048
G0 Z3.0
G0 X5.2031 Y11.38
G1 F300.0 Z0.1
G1 F800.0 X5.22
G1 X5.24 Z2.5
G1 X14.76
G1 X14.78 Z0.1
G1 X14.7969
G0 Z3.0
G0 X5.2111 Y11.42
G1 F300.0 Z0.1
G1 F800.0 X5.24
G1 X5.26 Z2.5
G1 X14.74
G1 X14.76 Z0.1
G1 X14.78
G1 X14.7889
G0 Z3.0
G0 X5.219 Y11.46
G1 F300.0 Z0.1
G1 F800.0 X5.24
G1 X5.26 Z2.5
G1 X14.74
G1 X14.76 Z0.1
G1 X14.78
G1 X14.781
G0 Z3.0
G0 X5.227 Y11.5
G1 F300.0 Z0.1
G1 F800.0 X5.24
G1 X5.26 Z2.5
G1 X14.74
G1 X14.76 Z0.1
G1 X14.773
G0 Z3.0
G0 X5.235 Y11.54
G1 F300.0 Z0.1
G1 F800.0 X5.26
G1 X5.28 Z2.5
G1 X14.72
G1 X14.74 Z0.1
G1 X14.76
G1 X14.765
G0 Z3.0
G0 X5.2429 Y11.58
G1 F300.0 Z0.1
G1 F800.0 X5.26
G1 X5.28 Z2.5
G1 X14.72
G1 X14.74 Z0.1
G1 X14.7571
G0 Z3.0
G0 X5.2509 Y11.62
G1 F300.0 Z0.1
G1 F800.0 X5.28
G1 X5.3 Z2.5
G1 X14.7
G1 X14.72 Z0.1
G1 X14.74
G1 X14.7491
G0 Z3.0
G0 X5.2588 Y11.66
G1 F300.0 Z0.1
G1 F800.0 X5.28
G1 X5.3 Z2.5
G1 X14.7
G1 X14.72 Z0.1
G1 X14.74
G1 X14.7412
G0 Z3.0
G0 X5.2668 Y11.7
G1 F300.0 Z0.1
G1 F800.0 X5.28
G1 X5.3 Z2.5
G1 X14.7
G1 X14.72 Z0.1
G1 X14.7332
G0 Z3.0
G0 X5.2747 Y11.74
G1 F300.0 Z0.1
G1 F800.0 X5.3
G1 X5.32 Z2.5
G1 X14.68
G1 X14.7 Z0.1
G1 X14.72
G1 X14.7253
G0 Z3.0
G0 X5.2827 Y11.78
G1 F300.0 Z0.1
G1 F800.0 X5.3
G1 X5.32 Z2.5
G1 X14.68
G1 X14.7 Z0.1
G1 X14.7173
G0 Z3.0
G0 X5.2907 Y11.82
G1 F300.0 Z0.1
G1 F800.0 X5.32
G1 X5.34 Z2.5
G1 X14.66
G1 X14.68 Z0.1
G1 X14.7
G1 X14.7093
G0 Z3.0
G0 X5.2986 Y11.86
G1 F300.0 Z0.1
G1 F800.0 X5.32
G1 X5.34 Z2.5
G1 X14.66
G1 X14.68 Z0.1
G1 X14.7
G1 X14.7014
G0 Z3.0
G0 X5.3066 Y11.9
G1 F300.0 Z0.1
G1 F800.0 X5.32
G1 X5.34 Z2.5
G1 X14.66
G1 X14.68 Z0.1
G1 X14.6934
G0 Z3.0
G0 X5.3159 Y11.94
G1 F300.0 Z0.1
G1 F800.0 X5.34
G1 X5.36 Z2.5
G1 X14.64
G1 X14.66 Z0.1
G1 X14.68
G1 X14.6841
G0 Z3.0
G0 X5.3409 Y11.98
G1 F300.0 Z0.1
G1 F800.0 X5.36
G1 X5.38 Z2.5
G1 X14.62
G1 X14.64 Z0.1
G1 X14.6591
G0 Z3.0
G0 X5.3676 Y12.02
G1 F300.0 Z0.1
G1 F800.0 X5.4
G1 X5.42 Z2.5
G1 X14.58
G1 X14.6 Z0.1
G1 X14.62
G1 X14.6324
G0 Z3.0
G0 X5.3944 Y12.06
G1 F300.0 Z0.1
G1 F800.0 X5.42
G1 X5.44 Z2.5
G1 X14.56
G1 X14.58 Z0.1
G1 X14.6
G1 X14.6056
G0 Z3.0
G0 X5.4211 Y12.1
G1 F300.0 Z0.1
G1 F800.0 X5.44
G1 X5.46 Z2.5
G1 X14.54
G1 X14.56 Z0.1
G1 X14.5789
G0 Z3.0
G0 X5.4478 Y12.14
G1 F300.0 Z0.1
G1 F800.0 X5.48
G1 X5.5 Z2.5
G1 X14.5
G1 X14.52 Z0.1
G1 X14.54
G1 X14.5522
G0 Z3.0
G0 X5.4746 Y12.18
G1 F300.0 Z0.1
G1 F800.0 X5.5
G1 X5.52 Z2.5
G1 X14.48
G1 X14.5 Z0.1
G1 X14.52
G1 X14.5254
G0 Z3.0
G0 X5.5013 Y12.22
G1 F300.0 Z0.1
G1 F800.0 X5.52
G1 X5.54 Z2.5
G1 X14.46
G1 X14.48 Z0.1
G1 X14.4987
G0 Z3.0
G0 X5.528 Y12.26
G1 F300.0 Z0.1
G1 F800.0 X5.56
G1 X5.58 Z2.5
G1 X14.42
G1 X14.44 Z0.1
G1 X14.46
G1 X14.472
G0 Z3.0
G0 X5.5547 Y12.3
G1 F300.0 Z0.1
G1 F800.0 X5.58
G1 X5.6 Z2.5
G1 X14.4
G1 X14.42 Z0.1
G1 X14.44
G1 X14.4453
G0 Z3.0
G0 X5.5815 Y12.34
G1 F300.0 Z0.1
G1 F800.0 X5.6
G1 X5.62 Z2.5
G1 X14.38
G1 X14.4 Z0.1
G1 X14.4185
G0 Z3.0
G0 X5.6082 Y12.38
G1 F300.0 Z0.1
G1 F800.0 X5.64
G1 X5.66 Z2.5
G1 X14.34
G1 X14.36 Z0.1
G1 X14.38
G1 X14.3918
G0 Z3.0
G0 X5.6349 Y12.42
G1 F300.0 Z0.1
G1 F800.0 X5.66
G1 X5.68 Z2.5
G1 X14.32
G1 X14.34 Z0.1
G1 X14.36
G1 X14.3651
G0 Z3.0
G0 X5.6616 Y12.46
G1 F300.0 Z0.1
G1 F800.0 X5.68
G1 X5.7 Z2.5
G1 X14.3
G1 X14.32 Z0.1
G1 X14.3383
G0 Z3.0
G0 X5.6884 Y12.5
G1 F300.0 Z0.1
G1 F800.0 X5.72
G1 X5.74 Z2.5
G1 X14.26
G1 X14.28 Z0.1
G1 X14.3
G1 X14.3116
G0 Z3.0
G0 X5.7151 Y12.54
G1 F300.0 Z0.1
G1 F800.0 X5.74
G1 X5.76 Z2.5
G1 X14.24
G1 X14.26 Z0.1
G1 X14.28
G1 X14.2849
G0 Z3.0
G0 X5.7418 Y12.58
G1 F300.0 Z0.1
G1 F800.0 X5.76
G1 X5.78 Z2.5
G1 X14.22
G1 X14.24 Z0.1
G1 X14.2582
G0 Z3.0
G0 X5.7686 Y12.62
G1 F300.0 Z0.1
G1 F800.0 X5.8
G1 X5.82 Z2.5
G1 X14.18
G1 X14.2 Z0.1
G1 X14.22
G1 X14.2314
G0 Z3.0
G0 X5.7953 Y12.66
G1 F300.0 Z0.1
G1 F800.0 X5.82
G1 X5.84 Z2.5
G1 X14.16
G1 X14.18 Z0.1
G1 X14.2
G1 X14.2047
G0 Z3.0
G0 X5.822 Y12.7
G1 F300.0 Z0.1
G1 F800.0 X5.84
G1 X5.86 Z2.5
G1 X14.14
G1 X14.16 Z0.1
G1 X14.178
G0 Z3.0
G0 X5.8487 Y12.74
G1 F300.0 Z0.1
G1 F800.0 X5.88
G1 X5.9 Z2.5
G1 X14.1
G1 X14.12 Z0.1
G1 X14.14
G1 X14.1512
G0 Z3.0
G0 X5.8755 Y12.78
G1 F300.0 Z0.1
G1 F800.0 X5.9
G1 X5.92 Z2.5
G1 X14.08
G1 X14.1 Z0.1
G1 X14.12
G1 X14.1245
G0 Z3.0
G0 X5.9022 Y12.82
G1 F300.0 Z0.1
G1 F800.0 X5.92
G1 X5.94 Z2.5
G1 X14.06
G1 X14.08 Z0.1
G1 X14.0978
G0 Z3.0
G0 X5.9289 Y12.86
G1 F300.0 Z0.1
G1 F800.0 X5.96
G1 X5.98 Z2.5
G1 X14.02
G1 X14.04 Z0.1
G1 X14.06
G1 X14.0711
G0 Z3.0
G0 X5.9556 Y12.9
G1 F300.0 Z0.1
G1 F800.0 X5.98
G1 X6.0 Z2.5
G1 X14.0
G1 X14.02 Z0.1
G1 X14.04
G1 X14.0443
G0 Z3.0
G0 X5.9824 Y12.94
G1 F300.0 Z0.1
G1 F800.0 X6.0
G1 X6.02 Z2.5
G1 X13.98
G1 X14.0 Z0.1
G1 X14.0176
G0 Z3.0
G0 X6.0091 Y12.98
G1 F300.0 Z0.1
G1 F800.0 X6.04
G1 X6.06 Z2.5
G1 X13.94
G1 X13.96 Z0.1
G1 X13.98
G1 X13.9909
G0 Z3.0
G0 X6.0358 Y13.02
G1 F300.0 Z0.1
G1 F800.0 X6.06
G1 X6.08 Z2.5
G1 X13.92
G1 X13.94 Z0.1
G1 X13.96
G1 X13.9642
G0 Z3.0
G0 X6.0626 Y13.06
G1 F300.0 Z0.1
G1 F800.0 X6.1
G1 X6.12 Z2.5
G1 X13.88
G1 X13.9 Z0.1
G1 X13.92
G1 X13.9374
G0 Z3.0
G0 X6.0893 Y13.1
G1 F300.0 Z0.1
G1 F800.0 X6.12
G1 X6.14 Z2.5
G1 X13.86
G1 X13.88 Z0.1
G1 X13.9
G1 X13.9107
G0 Z3.0
G0 X6.116 Y13.14
G1 F300.0 Z0.1
G1 F800.0 X6.14
G1 X6.16 Z2.5
G1 X13.84
G1 X13.86 Z0.1
G1 X13.88
G1 X13.884
G0 Z3.0
G0 X6.1427 Y13.18
G1 F300.0 Z0.1
G1 F800.0 X6.18
G1 X6.2 Z2.5
G1 X13.8
G1 X13.82 Z0.1
G1 X13.84
G1 X13.8572
G0 Z3.0
G0 X6.1695 Y13.22
G1 F300.0 Z0.1
G1 F800.0 X6.2
G1 X6.22 Z2.5
G1 X13.78
G1 X13.8 Z0.1
G1 X13.82
G1 X13.8305
G0 Z3.0
G0 X6.1962 Y13.26
G1 F300.0 Z0.1
G1 F800.0 X6.22
G1 X6.24 Z2.5
G1 X13.76
G1 X13.78 Z0.1
G1 X13.8
G1 X13.8038
G0 Z3.0
G0 X6.2229 Y13.3
G1 F300.0 Z0.1
G1 F800.0 X6.26
G1 X6.28 Z2.5
G1 X13.72
G1 X13.74 Z0.1
G1 X13.76
G1 X13.7771
G0 Z3.0
G0 X6.2497 Y13.34
G1 F300.0 Z0.1
G1 F800.0 X6.28
G1 X6.3 Z2.5
G1 X13.7
G1 X13.72 Z0.1
G1 X13.74
G1 X13.7503
G0 Z3.0
G0 X6.2764 Y13.38
G1 F300.0 Z0.1
G1 F800.0 X6.3
G1 X6.32 Z2.5
G1 X13.68
G1 X13.7 Z0.1
G1 X13.72
G1 X13.7236
G0 Z3.0
G0 X6.3031 Y13.42
G1 F300.0 Z0.1
G1 F800.0 X6.34
G1 X6.36 Z2.5
G1 X13.64
G1 X13.66 Z0.1
G1 X13.68
G1 X13.6969
G0 Z3.0
G0 X6.3298 Y13.46
G1 F300.0 Z0.1
G1 F800.0 X6.36
G1 X6.38 Z2.5
G1 X13.62
G1 X13.64 Z0.1
G1 X13.66
G1 X13.6701
G0 Z3.0
G0 X6.3566 Y13.5
G1 F300.0 Z0.1
G1 F800.0 X6.38
G1 X6.4 Z2.5
G1 X13.6
G1 X13.62 Z0.1
G1 X13.64
G1 X13.6434
G0 Z3.0
G0 X6.3833 Y13.54
G1 F300.0 Z0.1
G1 F800.0 X6.42
G1 X6.44 Z2.5
G1 X13.56
G1 X13.58 Z0.1
G1 X13.6
G1 X13.6167
G0 Z3.0
G0 X6.4104 Y13.58
G1 F300.0 Z0.1
G1 F800.0 X6.44
G1 X6.46 Z2.5
G1 X13.54
G1 X13.56 Z0.1
G1 X13.58
G1 X13.5895
G0 Z3.0
G0 X6.4649 Y13.62
G1 F300.0 Z0.1
G1 F800.0 X6.5
G1 X6.52 Z2.5
G1 X13.48
G1 X13.5 Z0.1
G1 X13.52
G1 X13.535
G0 Z3.0
G0 X6.5248 Y13.66
G1 F300.0 Z0.1
G1 F800.0 X6.56
G1 X6.58 Z2.5
G1 X13.42
G1 X13.44 Z0.1
G1 X13.46
G1 X13.4752
G0 Z3.0
G0 X6.5847 Y13.7
G1 F300.0 Z0.1
G1 F800.0 X6.62
G1 X6.64 Z2.5
G1 X13.36
G1 X13.38 Z0.1
G1 X13.4
G1 X13.4153
G0 Z3.0
G0 X6.6445 Y13.74
G1 F300.0 Z0.1
G1 F800.0 X6.68
G1 X6.7 Z2.5
G1 X13.3
G1 X13.32 Z0.1
G1 X13.34
G1 X13.3555
G0 Z3.0
G0 X6.7044 Y13.78
G1 F300.0 Z0.1
G1 F800.0 X6.74
G1 X6.76 Z2.5
G1 X13.24
G1 X13.26 Z0.1
G1 X13.28
G1 X13.2956
G0 Z3.0
G0 X6.7642 Y13.82
G1 F300.0 Z0.1
G1 F800.0 X6.8
G1 X6.82 Z2.5
G1 X13.18
G1 X13.2 Z0.1
G1 X13.22
G1 X13.2357
G0 Z3.0
G0 X6.8241 Y13.86
G1 F300.0 Z0.1
G1 F800.0 X6.86
G1 X6.88 Z2.5
G1 X13.12
G1 X13.14 Z0.1
G1 X13.16
G1 X13.1759
G0 Z3.0
G0 X6.884 Y13.9
G1 F300.0 Z0.1
G1 F800.0 X6.92
G1 X6.94 Z2.5
G1 X13.06
G1 X13.08 Z0.1
G1 X13.1
G1 X13.116
G0 Z3.0
G0 X6.9438 Y13.94
G1 F300.0 Z0.1
G1 F800.0 X6.98
G1 X7.0 Z2.5
G1 X13.0
G1 X13.02 Z0.1
G1 X13.04
G1 X13.0561
G0 Z3.0
G0 X7.0037 Y13.98
G1 F300.0 Z0.1
G1 F800.0 X7.04
G1 X7.06 Z2.5
G1 X12.94
G1 X12.96 Z0.1
G1 X12.98
G1 X12.9963
G0 Z3.0
G0 X7.0636 Y14.02
G1 F300.0 Z0.1
G1 F800.0 X7.1
G1 X7.12 Z2.5
G1 X12.88
G1 X12.9 Z0.1
G1 X12.92
G1 X12.9364
G0 Z3.0
G0 X7.1234 Y14.06
G1 F300.0 Z0.1
G1 F800.0 X7.16
G1 X7.18 Z2.5
G1 X12.82
G1 X12.84 Z0.1
G1 X12.86
G1 X12.8766
G0 Z3.0
G0 X7.1833 Y14.1
G1 F300.0 Z0.1
G1 F800.0 X7.22
G1 X7.24 Z2.5
G1 X12.76
G1 X12.78 Z0.1
G1 X12.8
G1 X12.8167
G0 Z3.0
G0 X7.2431 Y14.14
G1 F300.0 Z0.1
G1 F800.0 X7.28
G1 X7.3 Z2.5
G1 X12.7
G1 X12.72 Z0.1
G1 X12.74
G1 X12.7568
G0 Z3.0
G0 X7.303 Y14.18
G1 F300.0 Z0.1
G1 F800.0 X7.34
G1 X7.36 Z2.5
G1 X12.64
G1 X12.66 Z0.1
G1 X12.68
G1 X12.697
G0 Z3.0
G0 X7.3629 Y14.22
G1 F300.0 Z0.1
G1 F800.0 X7.4
G1 X7.42 Z2.5
G1 X12.58
G1 X12.6 Z0.1
G1 X12.62
G1 X12.6371
G0 Z3.0
G0 X7.4227 Y14.26
G1 F300.0 Z0.1
G1 F800.0 X7.46
G1 X7.48 Z2.5
G1 X12.52
G1 X12.54 Z0.1
G1 X12.56
G1 X12.5772
G0 Z3.0
G0 X7.4826 Y14.3
G1 F300.0 Z0.1
G1 F800.0 X7.52
G1 X7.54 Z2.5
G1 X12.46
G1 X12.48 Z0.1
G1 X12.5
G1 X12.5174
G0 Z3.0
G0 X7.5425 Y14.34
G1 F300.0 Z0.1
G1 F800.0 X7.58
G1 X7.6 Z2.5
G1 X12.4
G1 X12.42 Z0.1
G1 X12.44
G1 X12.4575
G0 Z3.0
G0 X7.6023 Y14.38
G1 F300.0 Z0.1
G1 F800.0 X7.64
G1 X7.66 Z2.5
G1 X12.34
G1 X12.36 Z0.1
G1 X12.38
G1 X12.3977
G0 Z3.0
G0 X7.6622 Y14.42
G1 F300.0 Z0.1
G1 F800.0 X7.7
G1 X7.72 Z2.5
G1 X12.28
G1 X12.3 Z0.1
G1 X12.32
G1 X12.3378
G0 Z3.0
G0 X7.722 Y14.46
G1 F300.0 Z0.1
G1 F800.0 X7.76
G1 X7.78 Z2.5
G1 X12.22
G1 X12.24 Z0.1
G1 X12.26
G1 X12.2779
G0 Z3.0
G0 X7.7819 Y14.5
G1 F300.0 Z0.1
G1 F800.0 X7.82
G1 X7.84 Z2.5
G1 X12.16
G1 X12.18 Z0.1
G1 X12.2
G1 X12.2181
G0 Z3.0
G0 X7.8418 Y14.54
G1 F300.0 Z0.1
G1 F800.0 X7.88
G1 X7.9 Z2.5
G1 X12.1
G1 X12.12 Z0.1
G1 X12.14
G1 X12.1582
G0 Z3.0
G0 X7.9016 Y14.58
G1 F300.0 Z0.1
G1 F800.0 X7.94
G1 X7.96 Z2.5
G1 X12.04
G1 X12.06 Z0.1
G1 X12.08
G1 X12.0984
G0 Z3.0
G0 X7.9615 Y14.62
G1 F300.0 Z0.1
G1 F800.0 X8.0
G1 X8.02 Z2.5
G1 X11.98
G1 X12.0 Z0.1
G1 X12.02
G1 X12.0385
G0 Z3.0
G0 X8.0213 Y14.66
G1 F300.0 Z0.1
G1 F800.0 X8.06
G1 X8.08 Z2.5
G1 X11.92
G1 X11.94 Z0.1
G1 X11.96
G1 X11.9786
G0 Z3.0
G0 X8.133 Y14.7
G1 F300.0 Z0.1
G1 F800.0 X8.26
G1 X8.28 Z2.5
G1 X11.72
G1 X11.74 Z0.1
G1 X11.86
G1 X11.867
G0 Z3.0
G0 X8.3341 Y14.74
G1 F300.0 Z0.1
G1 F800.0 X8.46
G1 X8.48 Z2.5
G1 X11.52
G1 X11.54 Z0.1
G1 X11.66
G1 X11.6659
G0 Z3.0
G0 X8.5352 Y14.78
G1 F300.0 Z0.1
G1 F800.0 X8.66
G1 X8.68 Z2.5
G1 X11.32
G1 X11.34 Z0.1
G1 X11.46
G1 X11.4648
G0 Z3.0
G0 X8.7363 Y14.82
G1 F300.0 Z0.1
G1 F800.0 X8.86
G1 X8.88 Z2.5
G1 X11.12
G1 X11.14 Z0.1
G1 X11.26
G1 X11.2637
G0 Z3.0
G0 X8.9374 Y14.86
G1 F300.0 Z0.1
G1 F800.0 X9.06
G1 X9.08 Z2.5
G1 X10.92
G1 X10.94 Z0.1
G1 X11.06
G1 X11.0626
G0 Z3.0
G0 X9.1385 Y14.9
G1 F300.0 Z0.1
G1 F800.0 X9.26
G1 X9.28 Z2.5
G1 X10.72
G1 X10.74 Z0.1
G1 X10.86
G1 X10.8615
G0 Z3.0
G0 X9.3395 Y14.94
G1 F300.0 Z0.1
G1 F800.0 X9.46
G1 X9.48 Z2.5
G1 X10.52
G1 X10.54 Z0.1
G1 X10.66
G1 X10.6604
G0 Z3.0
G0 X9.5406 Y14.98
G1 F300.0 Z0.1
G1 F800.0 X9.66
G1 X9.68 Z2.5
G1 X10.32
G1 X10.34 Z0.1
G1 X10.44
G1 X10.4594
G0 Z3.0
G0 X9.7417 Y15.02
G1 F300.0 Z0.1
G1 F800.0 X9.86
G1 X9.88 Z2.5
G1 X10.12
G1 X10.14 Z0.1
G1 X10.24
G1 X10.2583
G0 Z3.0
G0 X9.9428 Y15.06
G1 F300.0 Z0.1
G1 F800.0 X10.04
G1 X10.0572
G0 Z3.0
G0 X10.1577 Y15.04
G1 F300.0 Z-0.7
G1 F800.0 X10.14
G1 X9.8423
G0 Z3.0
G0 X10.3588 Y15.0
G1 F300.0 Z-0.7
G1 F800.0 X10.34
G1 X10.24
G1 X10.22 Z2.5
G1 X9.78
G1 X9.76 Z-0.7
G1 X9.6412
G0 Z3.0
G0 X10.5599 Y14.96
G1 F300.0 Z-0.7
G1 F800.0 X10.54
G1 X10.44
G1 X10.42 Z2.5
G1 X9.58
G1 X9.56 Z-0.7
G1 X9.4401
G0 Z3.0
G0 X10.761 Y14.92
G1 F300.0 Z-0.7
G1 F800.0 X10.76
G1 X10.64
G1 X10.62 Z2.5
G1 X9.38
G1 X9.36 Z-0.7
G1 X9.239
G0 Z3.0
G0 X10.9621 Y14.88
G1 F300.0 Z-0.7
G1 F800.0 X10.96
G1 X10.84
G1 X10.82 Z2.5
G1 X9.18
G1 X9.16 Z-0.7
G1 X9.0379
G0 Z3.0
G0 X11.1632 Y14.84
G1 F300.0 Z-0.7
G1 F800.0 X11.16
G1 X11.04
G1 X11.02 Z2.5
G1 X8.98
G1 X8.96 Z-0.7
G1 X8.8368
G0 Z3.0
G0 X11.3643 Y14.8
G1 F300.0 Z-0.7
G1 F800.0 X11.36
G1 X11.24
G1 X11.22 Z2.5
G1 X8.78
G1 X8.76 Z-0.7
G1 X8.6357
G0 Z3.0
G0 X11.5654 Y14.76
G1 F300.0 Z-0.7
G1 F800.0 X11.56
G1 X11.44
G1 X11.42 Z2.5
G1 X8.58
G1 X8.56 Z-0.7
G1 X8.4346
G0 Z3.0
G0 X11.7665 Y14.72
G1 F300.0 Z-0.7
G1 F800.0 X11.76
G1 X11.64
G1 X11.62 Z2.5
G1 X8.38
G1 X8.36 Z-0.7
G1 X8.2335
G0 Z3.0
G0 X11.9484 Y14.68
G1 F300.0 Z-0.7
G1 F800.0 X11.94
G1 X11.84
G1 X11.82 Z2.5
G1 X8.18
G1 X8.16 Z-0.7
G1 X8.0515
G0 Z3.0
G0 X12.0086 Y14.64
G1 F300.0 Z-0.7
G1 F800.0 X12.0
G1 X11.98
G1 X11.96 Z2.5
G1 X8.04
G1 X8.02 Z-0.7
G1 X7.9914
G0 Z3.0
G0 X12.0684 Y14.6
G1 F300.0 Z-0.7
G1 F800.0 X12.06
G1 X12.04
G1 X12.02 Z2.5
G1 X7.98
G1 X7.96 Z-0.7
G1 X7.9316
G0 Z3.0
G0 X12.1283 Y14.56
G1 F300.0 Z-0.7
G1 F800.0 X12.12
G1 X12.1
G1 X12.08 Z2.5
G1 X7.92
G1 X7.9 Z-0.7
G1 X7.8717
G0 Z3.0
G0 X12.1881 Y14.52
G1 F300.0 Z-0.7
G1 F800.0 X12.18
G1 X12.16
G1 X12.14 Z2.5
G1 X7.86
G1 X7.84 Z-0.7
G1 X7.8118
G0 Z3.0
G0 X12.248 Y14.48
G1 F300.0 Z-0.7
G1 F800.0 X12.24
G1 X12.22
G1 X12.2 Z2.5
G1 X7.8
G1 X7.78 Z-0.7
G1 X7.752
G0 Z3.0
G0 X12.3079 Y14.44
G1 F300.0 Z-0.7
G1 F800.0 X12.3
G1 X12.28
G1 X12.26 Z2.5
G1 X7.74
G1 X7.72 Z-0.7
G1 X7.6921
G0 Z3.0
G0 X12.3677 Y14.4
G1 F300.0 Z-0.7
G1 F800.0 X12.36
G1 X12.34
G1 X12.32 Z2.5
G1 X7.68
G1 X7.66 Z-0.7
G1 X7.6322
G0 Z3.0
G0 X12.4276 Y14.36
G1 F300.0 Z-0.7
G1 F800.0 X12.42
G1 X12.4
G1 X12.38 Z2.5
G1 X7.62
G1 X7.6 Z-0.7
G1 X7.5724
G0 Z3.0
G0 X12.4875 Y14.32
G1 F300.0 Z-0.7
G1 F800.0 X12.48
G1 X12.46
G1 X12.44 Z2.5
G1 X7.56
G1 X7.54 Z-0.7
G1 X7.5125
G0 Z3.0
G0 X12.5473 Y14.28
G1 F300.0 Z-0.7
G1 F800.0 X12.54
G1 X12.52
G1 X12.5 Z2.5
G1 X7.5
G1 X7.48 Z-0.7
G1 X7.4527
G0 Z3.0
G0 X12.6072 Y14.24
G1 F300.0 Z-0.7
G1 F800.0 X12.6
G1 X12.58
G1 X12.56 Z2.5
G1 X7.44
G1 X7.42 Z-0.7
G1 X7.3928
G0 Z3.0
G0 X12.667 Y14.2
G1 F300.0 Z-0.7
G1 F800.0 X12.66
G1 X12.64
G1 X12.62 Z2.5
G1 X7.38
G1 X7.36 Z-0.7
G1 X7.3329
G0 Z3.0
G0 X12.7269 Y14.16
G1 F300.0 Z-0.7
G1 F800.0 X12.72
G1 X12.7
G1 X12.68 Z2.5
G1 X7.32
G1 X7.3 Z-0.7
G1 X7.2731
G0 Z3.0
G0 X12.7868 Y14.12
G1 F300.0 Z-0.7
G1 F800.0 X12.78
G1 X12.76
G1 X12.74 Z2.5
G1 X7.26
G1 X7.24 Z-0.7
G1 X7.2132
G0 Z3.0
G0 X12.8466 Y14.08
G1 F300.0 Z-0.7
G1 F800.0 X12.84
G1 X12.82
G1 X12.8 Z2.5
G1 X7.2
G1 X7.18 Z-0.7
G1 X7.1533
G0 Z3.0
G0 X12.9065 Y14.04
G1 F300.0 Z-0.7
G1 F800.0 X12.9
G1 X12.88
G1 X12.86 Z2.5
G1 X7.14
G1 X7.12 Z-0.7
G1 X7.0935
G0 Z3.0
G0 X12.9663 Y14.0
G1 F300.0 Z-0.7
G1 F800.0 X12.96
G1 X12.94
G1 X12.92 Z2.5
G1 X7.08
G1 X7.06 Z-0.7
G1 X7.0336
G0 Z3.0
G0 X13.0262 Y13.96
G1 F300.0 Z-0.7
G1 F800.0 X13.02
G1 X13.0
G1 X12.98 Z2.5
G1 X7.02
G1 X7.0 Z-0.7
G1 X6.9738
G0 Z3.0
G0 X13.0861 Y13.92
G1 F300.0 Z-0.7
G1 F800.0 X13.08
G1 X13.04
G1 X13.02 Z2.5
G1 X6.98
G1 X6.96 Z-0.7
G1 X6.9139
G0 Z3.0
G0 X13.1459 Y13.88
G1 F300.0 Z-0.7
G1 F800.0 X13.14
G1 X13.1
G1 X13.08 Z2.5
G1 X6.92
G1 X6.9 Z-0.7
G1 X6.854
G0 Z3.0
G0 X13.2058 Y13.84
G1 F300.0 Z-0.7
G1 F800.0 X13.2
G1 X13.16
G1 X13.14 Z2.5
G1 X6.86
G1 X6.84 Z-0.7
G1 X6.7942
G0 Z3.0
G0 X13.2657 Y13.8
G1 F300.0 Z-0.7
G1 F800.0 X13.26
G1 X13.22
G1 X13.2 Z2.5
G1 X6.8
G1 X6.78 Z-0.7
G1 X6.7343
G0 Z3.0
